( pcb2gcode 1.3.2 )
( Software-independent Gcode )
( This file uses a mill head of 1.00000mm to drill the 1 bit sizes. )
( Bit sizes: [1.01600] )

G94       (Millimeters per minute feed rate.)
G21       (Units == Millimeters.)
G90       (Absolute coordinates.)
S10000    (RPM spindle speed.)
F60.00000 (Feedrate)
M3        (Spindle on clockwise.)
G00 Z2.00000

( Piece #1, position [0;0] )

G0 X2.40380 Y4.68980
G1 Z-2.00000
G0 Z2.00000

G0 X2.40380 Y7.22980
G1 Z-2.00000
G0 Z2.00000

G0 X2.40380 Y9.76980
G1 Z-2.00000
G0 Z2.00000

G0 X2.40380 Y12.30980
G1 Z-2.00000
G0 Z2.00000

G0 X2.40380 Y14.84980
G1 Z-2.00000
G0 Z2.00000

G0 X2.40380 Y17.38980
G1 Z-2.00000
G0 Z2.00000

G0 X2.40380 Y19.92980
G1 Z-2.00000
G0 Z2.00000

G0 X2.40380 Y22.46980
G1 Z-2.00000
G0 Z2.00000

G0 X2.40380 Y25.00980
G1 Z-2.00000
G0 Z2.00000

G0 X2.40380 Y27.54980
G1 Z-2.00000
G0 Z2.00000

G0 X2.40380 Y30.08980
G1 Z-2.00000
G0 Z2.00000

( Piece #2, position [1;0] )

G0 X13.56140 Y4.68980
G1 Z-2.00000
G0 Z2.00000

G0 X13.56140 Y7.22980
G1 Z-2.00000
G0 Z2.00000

G0 X13.56140 Y9.76980
G1 Z-2.00000
G0 Z2.00000

G0 X13.56140 Y12.30980
G1 Z-2.00000
G0 Z2.00000

G0 X13.56140 Y14.84980
G1 Z-2.00000
G0 Z2.00000

G0 X13.56140 Y17.38980
G1 Z-2.00000
G0 Z2.00000

G0 X13.56140 Y19.92980
G1 Z-2.00000
G0 Z2.00000

G0 X13.56140 Y22.46980
G1 Z-2.00000
G0 Z2.00000

G0 X13.56140 Y25.00980
G1 Z-2.00000
G0 Z2.00000

G0 X13.56140 Y27.54980
G1 Z-2.00000
G0 Z2.00000

G0 X13.56140 Y30.08980
G1 Z-2.00000
G0 Z2.00000

( Piece #3, position [2;0] )

G0 X24.71900 Y4.68980
G1 Z-2.00000
G0 Z2.00000

G0 X24.71900 Y7.22980
G1 Z-2.00000
G0 Z2.00000

G0 X24.71900 Y9.76980
G1 Z-2.00000
G0 Z2.00000

G0 X24.71900 Y12.30980
G1 Z-2.00000
G0 Z2.00000

G0 X24.71900 Y14.84980
G1 Z-2.00000
G0 Z2.00000

G0 X24.71900 Y17.38980
G1 Z-2.00000
G0 Z2.00000

G0 X24.71900 Y19.92980
G1 Z-2.00000
G0 Z2.00000

G0 X24.71900 Y22.46980
G1 Z-2.00000
G0 Z2.00000

G0 X24.71900 Y25.00980
G1 Z-2.00000
G0 Z2.00000

G0 X24.71900 Y27.54980
G1 Z-2.00000
G0 Z2.00000

G0 X24.71900 Y30.08980
G1 Z-2.00000
G0 Z2.00000

( Piece #4, position [0;1] )

G0 X24.71900 Y37.43740
G1 Z-2.00000
G0 Z2.00000

G0 X24.71900 Y39.97740
G1 Z-2.00000
G0 Z2.00000

G0 X24.71900 Y42.51740
G1 Z-2.00000
G0 Z2.00000

G0 X24.71900 Y45.05740
G1 Z-2.00000
G0 Z2.00000

G0 X24.71900 Y47.59740
G1 Z-2.00000
G0 Z2.00000

G0 X24.71900 Y50.13740
G1 Z-2.00000
G0 Z2.00000

G0 X24.71900 Y52.67740
G1 Z-2.00000
G0 Z2.00000

G0 X24.71900 Y55.21740
G1 Z-2.00000
G0 Z2.00000

G0 X24.71900 Y57.75740
G1 Z-2.00000
G0 Z2.00000

G0 X24.71900 Y60.29740
G1 Z-2.00000
G0 Z2.00000

G0 X24.71900 Y62.83740
G1 Z-2.00000
G0 Z2.00000

( Piece #5, position [1;1] )

G0 X13.56140 Y37.43740
G1 Z-2.00000
G0 Z2.00000

G0 X13.56140 Y39.97740
G1 Z-2.00000
G0 Z2.00000

G0 X13.56140 Y42.51740
G1 Z-2.00000
G0 Z2.00000

G0 X13.56140 Y45.05740
G1 Z-2.00000
G0 Z2.00000

G0 X13.56140 Y47.59740
G1 Z-2.00000
G0 Z2.00000

G0 X13.56140 Y50.13740
G1 Z-2.00000
G0 Z2.00000

G0 X13.56140 Y52.67740
G1 Z-2.00000
G0 Z2.00000

G0 X13.56140 Y55.21740
G1 Z-2.00000
G0 Z2.00000

G0 X13.56140 Y57.75740
G1 Z-2.00000
G0 Z2.00000

G0 X13.56140 Y60.29740
G1 Z-2.00000
G0 Z2.00000

G0 X13.56140 Y62.83740
G1 Z-2.00000
G0 Z2.00000

( Piece #6, position [2;1] )

G0 X2.40380 Y37.43740
G1 Z-2.00000
G0 Z2.00000

G0 X2.40380 Y39.97740
G1 Z-2.00000
G0 Z2.00000

G0 X2.40380 Y42.51740
G1 Z-2.00000
G0 Z2.00000

G0 X2.40380 Y45.05740
G1 Z-2.00000
G0 Z2.00000

G0 X2.40380 Y47.59740
G1 Z-2.00000
G0 Z2.00000

G0 X2.40380 Y50.13740
G1 Z-2.00000
G0 Z2.00000

G0 X2.40380 Y52.67740
G1 Z-2.00000
G0 Z2.00000

G0 X2.40380 Y55.21740
G1 Z-2.00000
G0 Z2.00000

G0 X2.40380 Y57.75740
G1 Z-2.00000
G0 Z2.00000

G0 X2.40380 Y60.29740
G1 Z-2.00000
G0 Z2.00000

G0 X2.40380 Y62.83740
G1 Z-2.00000
G0 Z2.00000

( Piece #7, position [0;2] )

G0 X2.40380 Y70.18500
G1 Z-2.00000
G0 Z2.00000

G0 X2.40380 Y72.72500
G1 Z-2.00000
G0 Z2.00000

G0 X2.40380 Y75.26500
G1 Z-2.00000
G0 Z2.00000

G0 X2.40380 Y77.80500
G1 Z-2.00000
G0 Z2.00000

G0 X2.40380 Y80.34500
G1 Z-2.00000
G0 Z2.00000

G0 X2.40380 Y82.88500
G1 Z-2.00000
G0 Z2.00000

G0 X2.40380 Y85.42500
G1 Z-2.00000
G0 Z2.00000

G0 X2.40380 Y87.96500
G1 Z-2.00000
G0 Z2.00000

G0 X2.40380 Y90.50500
G1 Z-2.00000
G0 Z2.00000

G0 X2.40380 Y93.04500
G1 Z-2.00000
G0 Z2.00000

G0 X2.40380 Y95.58500
G1 Z-2.00000
G0 Z2.00000

( Piece #8, position [1;2] )

G0 X13.56140 Y70.18500
G1 Z-2.00000
G0 Z2.00000

G0 X13.56140 Y72.72500
G1 Z-2.00000
G0 Z2.00000

G0 X13.56140 Y75.26500
G1 Z-2.00000
G0 Z2.00000

G0 X13.56140 Y77.80500
G1 Z-2.00000
G0 Z2.00000

G0 X13.56140 Y80.34500
G1 Z-2.00000
G0 Z2.00000

G0 X13.56140 Y82.88500
G1 Z-2.00000
G0 Z2.00000

G0 X13.56140 Y85.42500
G1 Z-2.00000
G0 Z2.00000

G0 X13.56140 Y87.96500
G1 Z-2.00000
G0 Z2.00000

G0 X13.56140 Y90.50500
G1 Z-2.00000
G0 Z2.00000

G0 X13.56140 Y93.04500
G1 Z-2.00000
G0 Z2.00000

G0 X13.56140 Y95.58500
G1 Z-2.00000
G0 Z2.00000

( Piece #9, position [2;2] )

G0 X24.71900 Y70.18500
G1 Z-2.00000
G0 Z2.00000

G0 X24.71900 Y72.72500
G1 Z-2.00000
G0 Z2.00000

G0 X24.71900 Y75.26500
G1 Z-2.00000
G0 Z2.00000

G0 X24.71900 Y77.80500
G1 Z-2.00000
G0 Z2.00000

G0 X24.71900 Y80.34500
G1 Z-2.00000
G0 Z2.00000

G0 X24.71900 Y82.88500
G1 Z-2.00000
G0 Z2.00000

G0 X24.71900 Y85.42500
G1 Z-2.00000
G0 Z2.00000

G0 X24.71900 Y87.96500
G1 Z-2.00000
G0 Z2.00000

G0 X24.71900 Y90.50500
G1 Z-2.00000
G0 Z2.00000

G0 X24.71900 Y93.04500
G1 Z-2.00000
G0 Z2.00000

G0 X24.71900 Y95.58500
G1 Z-2.00000
G0 Z2.00000

G00 Z10.000 ( All done -- retract )

M5      (Spindle off.)
M9      (Coolant off.)
M2      (Program end.)

