( pcb2gcode 1.3.2 )
( Software-independent Gcode )

G94 ( Millimeters per minute feed rate. )
G21 ( Units == Millimeters. )

G90 ( Absolute coordinates. )
S10000 ( RPM spindle speed. )
F200.00000 ( Feedrate. )

F200.00000 ( Feedrate. )
M3 ( Spindle on clockwise. )
( Piece #1, position [0;0] )

G04 P0 ( dwell for no time -- G64 should not smooth over this point )
G00 Z2.00000 ( retract )

G00 X0.62580 Y5.96082 ( rapid move to begin. )
F100.00000
G01 Z-0.20000
G04 P0 ( dwell for no time -- G64 should not smooth over this point )
F200.00000
G01 X0.62580 Y5.96082
X2.89796 Y5.95914
X3.43552 Y6.11936
X3.79138 Y6.26719
X4.01713 Y6.06811
X4.20550 Y5.95977
X5.46285 Y5.95977
X5.60189 Y5.84647
X5.69749 Y5.68977
X5.71779 Y5.64080
X5.70572 Y5.06478
X5.66955 Y4.93979
X5.60925 Y4.81477
X5.52488 Y4.68977
X4.11881 Y4.68977
X4.06316 Y4.66986
X3.95721 Y4.38675
X3.86509 Y3.97690
X3.70883 Y3.47355
X3.60773 Y3.02610
X3.49684 Y2.27627
X3.39242 Y1.28021
X2.88061 Y0.62580
X0.62580 Y0.62580
X0.62580 Y5.96082
G04 P0 ( dwell for no time -- G64 should not smooth over this point )
G00 Z2.00000 ( retract )

G00 X0.62580 Y8.50082 ( rapid move to begin. )
F100.00000
G01 Z-0.20000
G04 P0 ( dwell for no time -- G64 should not smooth over this point )
F200.00000
G01 X0.62580 Y8.50082
X2.89796 Y8.49914
X3.43552 Y8.65936
X3.79138 Y8.80719
X4.01713 Y8.60811
X4.20550 Y8.49977
X5.66153 Y8.49977
X5.70372 Y8.36477
X5.71779 Y8.22977
X5.71779 Y7.72980
X5.68210 Y7.51479
X5.52866 Y7.22977
X4.11881 Y7.22977
X4.06316 Y7.20986
X3.95721 Y6.92675
X3.86509 Y6.51690
X3.79138 Y6.26719
X3.55201 Y6.16262
X3.26080 Y6.06455
X2.89796 Y5.95914
X0.62580 Y5.96079
X0.62580 Y8.50082
G04 P0 ( dwell for no time -- G64 should not smooth over this point )
G00 Z2.00000 ( retract )

G00 X0.62580 Y11.04082 ( rapid move to begin. )
F100.00000
G01 Z-0.20000
G04 P0 ( dwell for no time -- G64 should not smooth over this point )
F200.00000
G01 X0.62580 Y11.04082
X2.89796 Y11.03914
X3.43552 Y11.19936
X3.79138 Y11.34719
X4.01713 Y11.14811
X4.20550 Y11.03977
X5.66153 Y11.03977
X5.70372 Y10.90477
X5.71779 Y10.76977
X5.71779 Y10.34780
X5.75208 Y10.02380
X5.52864 Y9.76977
X4.11881 Y9.76977
X4.06316 Y9.74986
X3.95721 Y9.46675
X3.86509 Y9.05690
X3.79138 Y8.80719
X3.55201 Y8.70262
X3.26080 Y8.60455
X2.89796 Y8.49914
X0.62580 Y8.50079
X0.62580 Y11.04082
G04 P0 ( dwell for no time -- G64 should not smooth over this point )
G00 Z2.00000 ( retract )

G00 X0.62580 Y13.58082 ( rapid move to begin. )
F100.00000
G01 Z-0.20000
G04 P0 ( dwell for no time -- G64 should not smooth over this point )
F200.00000
G01 X0.62580 Y13.58082
X2.89796 Y13.57914
X3.43552 Y13.73936
X3.79138 Y13.88719
X4.01713 Y13.68811
X4.20550 Y13.57977
X5.66153 Y13.57977
X5.75020 Y13.19077
X5.79879 Y13.07180
X5.74652 Y12.94079
X5.71482 Y12.74780
X5.65685 Y12.52877
X5.52488 Y12.30977
X4.11881 Y12.30977
X4.06316 Y12.28986
X3.95721 Y12.00675
X3.86509 Y11.59690
X3.79138 Y11.34719
X3.55201 Y11.24262
X2.89796 Y11.03914
X0.62580 Y11.04079
X0.62580 Y13.58082
G04 P0 ( dwell for no time -- G64 should not smooth over this point )
G00 Z2.00000 ( retract )

G00 X0.62580 Y16.12082 ( rapid move to begin. )
F100.00000
G01 Z-0.20000
G04 P0 ( dwell for no time -- G64 should not smooth over this point )
F200.00000
G01 X0.62580 Y16.12082
X5.74250 Y16.11977
X5.71779 Y15.79580
X5.70572 Y15.22478
X5.66955 Y15.09979
X5.60925 Y14.97477
X5.52488 Y14.84977
X4.11881 Y14.84977
X4.06316 Y14.82986
X3.95721 Y14.54675
X3.86509 Y14.13690
X3.79138 Y13.88719
X3.43552 Y13.73936
X2.89796 Y13.57914
X0.62580 Y13.58079
X0.62580 Y16.12082
G04 P0 ( dwell for no time -- G64 should not smooth over this point )
G00 Z2.00000 ( retract )

G00 X0.62580 Y18.66082 ( rapid move to begin. )
F100.00000
G01 Z-0.20000
G04 P0 ( dwell for no time -- G64 should not smooth over this point )
F200.00000
G01 X0.62580 Y18.66082
X2.90156 Y18.65896
X3.40441 Y18.51190
X3.78924 Y18.35144
X3.85899 Y18.12620
X3.96567 Y17.66445
X4.06173 Y17.41025
X4.11881 Y17.38977
X5.52488 Y17.38977
X5.60925 Y17.26478
X5.66955 Y17.13976
X5.70572 Y17.01477
X5.71779 Y16.44380
X5.74253 Y16.11980
X0.62580 Y16.12079
X0.62580 Y18.66082
G04 P0 ( dwell for no time -- G64 should not smooth over this point )
G00 Z2.00000 ( retract )

G00 X0.62580 Y21.20082 ( rapid move to begin. )
F100.00000
G01 Z-0.20000
G04 P0 ( dwell for no time -- G64 should not smooth over this point )
F200.00000
G01 X0.62580 Y21.20082
X2.90156 Y21.19896
X3.40441 Y21.05190
X3.78924 Y20.89144
X3.85899 Y20.66620
X3.96567 Y20.20445
X4.06173 Y19.95025
X4.11881 Y19.92977
X5.52488 Y19.92977
X5.65685 Y19.71078
X5.71482 Y19.49180
X5.74652 Y19.29879
X5.79879 Y19.16780
X5.75020 Y19.04880
X5.66153 Y18.65977
X4.20479 Y18.65977
X4.01624 Y18.55144
X3.78924 Y18.35144
X3.40441 Y18.51190
X2.90156 Y18.65896
X0.62580 Y18.66079
X0.62580 Y21.20082
G04 P0 ( dwell for no time -- G64 should not smooth over this point )
G00 Z2.00000 ( retract )

G00 X0.62580 Y23.74082 ( rapid move to begin. )
F100.00000
G01 Z-0.20000
G04 P0 ( dwell for no time -- G64 should not smooth over this point )
F200.00000
G01 X0.62580 Y23.74082
X2.90156 Y23.73896
X3.40441 Y23.59190
X3.78924 Y23.43144
X3.85899 Y23.20620
X3.96567 Y22.74445
X4.06173 Y22.49025
X4.11881 Y22.46977
X5.52866 Y22.46977
X5.75208 Y22.21580
X5.71779 Y21.89180
X5.71779 Y21.46980
X5.70372 Y21.33478
X5.66153 Y21.19977
X4.20479 Y21.19977
X4.01624 Y21.09144
X3.78924 Y20.89144
X3.40441 Y21.05190
X2.90156 Y21.19896
X0.62580 Y21.20079
X0.62580 Y23.74082
G04 P0 ( dwell for no time -- G64 should not smooth over this point )
G00 Z2.00000 ( retract )

G00 X0.62580 Y26.28082 ( rapid move to begin. )
F100.00000
G01 Z-0.20000
G04 P0 ( dwell for no time -- G64 should not smooth over this point )
F200.00000
G01 X0.62580 Y26.28082
X2.90156 Y26.27896
X3.40441 Y26.13190
X3.78924 Y25.97144
X3.85899 Y25.74620
X3.96567 Y25.28445
X4.06173 Y25.03025
X4.11881 Y25.00977
X5.52864 Y25.00977
X5.68210 Y24.72479
X5.71779 Y24.50978
X5.71779 Y24.00980
X5.70372 Y23.87478
X5.66153 Y23.73977
X4.20479 Y23.73977
X4.01624 Y23.63144
X3.78924 Y23.43144
X3.40441 Y23.59190
X2.90156 Y23.73896
X0.62580 Y23.74079
X0.62580 Y26.28082
G04 P0 ( dwell for no time -- G64 should not smooth over this point )
G00 Z2.00000 ( retract )

G00 X0.62580 Y28.52707 ( rapid move to begin. )
F100.00000
G01 Z-0.20000
G04 P0 ( dwell for no time -- G64 should not smooth over this point )
F200.00000
G01 X0.62580 Y28.52707
X1.03776 Y28.58295
X1.81770 Y28.78198
X2.15940 Y28.81754
X2.59740 Y28.81873
X2.85729 Y28.80121
X3.12534 Y28.75518
X3.76504 Y28.58350
X3.85899 Y28.28620
X3.96567 Y27.82445
X4.06173 Y27.57025
X4.11881 Y27.54977
X5.52488 Y27.54977
X5.60925 Y27.42478
X5.66955 Y27.29976
X5.70572 Y27.17477
X5.71779 Y26.59875
X5.60189 Y26.39308
X5.46285 Y26.27977
X4.20479 Y26.27977
X4.01624 Y26.17144
X3.78924 Y25.97144
X3.40441 Y26.13190
X2.90156 Y26.27896
X0.62580 Y26.28079
X0.62580 Y28.52707
G04 P0 ( dwell for no time -- G64 should not smooth over this point )
G00 Z2.00000 ( retract )

G00 X0.62580 Y28.52709 ( rapid move to begin. )
F100.00000
G01 Z-0.20000
G04 P0 ( dwell for no time -- G64 should not smooth over this point )
F200.00000
G01 X0.62580 Y28.52709
X0.62580 Y32.12180
X10.53180 Y32.12180
X10.53180 Y0.62580
X7.99177 Y-185.74452
X7.99177 Y29.76549
X7.44415 Y31.08360
X7.24296 Y31.21761
X7.14237 Y31.25111
X7.04179 Y31.26229
X6.04179 Y31.26229
X5.92853 Y31.24814
X5.81527 Y31.20567
X5.70202 Y31.13488
X5.48159 Y30.92861
X5.06298 Y29.91797
X4.67357 Y29.52856
X4.24266 Y29.33339
X3.76504 Y28.58350
X3.12534 Y28.75518
X2.85729 Y28.80121
X2.59740 Y28.81873
X2.15940 Y28.81754
X1.81770 Y28.78198
X1.03776 Y28.58295
X0.62580 Y28.52709
G04 P0 ( dwell for no time -- G64 should not smooth over this point )
G00 Z2.00000 ( retract )

G00 X4.11881 Y27.54977 ( rapid move to begin. )
F100.00000
G01 Z-0.20000
G04 P0 ( dwell for no time -- G64 should not smooth over this point )
F200.00000
G01 X4.11881 Y27.54977
X4.06173 Y27.57025
X4.00441 Y27.71076
X3.92211 Y27.99367
X3.85899 Y28.28620
X3.76504 Y28.58350
X4.24266 Y29.33339
X4.67357 Y29.52856
X5.06298 Y29.91797
X5.48159 Y30.92861
X5.70202 Y31.13488
X5.81527 Y31.20567
X5.92853 Y31.24814
X6.04179 Y31.26229
X7.04179 Y31.26229
X7.14237 Y31.25111
X7.24296 Y31.21761
X7.44415 Y31.08360
X7.99177 Y29.76549
X7.99177 Y28.31180
X5.79879 Y28.31180
X5.74652 Y28.18079
X5.71482 Y27.98780
X5.65685 Y27.76877
X5.52488 Y27.54977
X4.11881 Y27.54977
G04 P0 ( dwell for no time -- G64 should not smooth over this point )
G00 Z2.00000 ( retract )

G00 X4.11881 Y25.00977 ( rapid move to begin. )
F100.00000
G01 Z-0.20000
G04 P0 ( dwell for no time -- G64 should not smooth over this point )
F200.00000
G01 X4.11881 Y25.00977
X4.06173 Y25.03025
X4.00441 Y25.17076
X3.78924 Y25.97144
X4.01624 Y26.17144
X4.20479 Y26.27977
X5.46285 Y26.27977
X5.60189 Y26.39308
X5.71779 Y26.59875
X5.71779 Y27.04978
X5.70572 Y27.17477
X5.66955 Y27.29976
X5.60925 Y27.42478
X5.52488 Y27.54977
X5.65685 Y27.76877
X5.71482 Y27.98780
X5.74652 Y28.18079
X5.79879 Y28.31180
X7.99177 Y28.31180
X7.99177 Y25.26380
X5.75937 Y25.26380
X5.52864 Y25.00977
X4.11881 Y25.00977
G04 P0 ( dwell for no time -- G64 should not smooth over this point )
G00 Z2.00000 ( retract )

G00 X4.11881 Y22.46977 ( rapid move to begin. )
F100.00000
G01 Z-0.20000
G04 P0 ( dwell for no time -- G64 should not smooth over this point )
F200.00000
G01 X4.11881 Y22.46977
X4.06173 Y22.49025
X4.00441 Y22.63076
X3.78924 Y23.43144
X4.01624 Y23.63144
X4.20479 Y23.73977
X5.66153 Y23.73977
X5.70372 Y23.87478
X5.71779 Y24.00980
X5.71779 Y24.50978
X5.68210 Y24.72479
X5.52864 Y25.00977
X5.74263 Y25.25306
X5.75937 Y25.26380
X7.99177 Y25.26380
X7.99177 Y22.21580
X5.75208 Y22.21580
X5.52866 Y22.46977
X4.11881 Y22.46977
G04 P0 ( dwell for no time -- G64 should not smooth over this point )
G00 Z2.00000 ( retract )

G00 X4.11881 Y19.92977 ( rapid move to begin. )
F100.00000
G01 Z-0.20000
G04 P0 ( dwell for no time -- G64 should not smooth over this point )
F200.00000
G01 X4.11881 Y19.92977
X4.06173 Y19.95025
X4.00441 Y20.09076
X3.78924 Y20.89144
X4.01624 Y21.09144
X4.20479 Y21.19977
X5.66153 Y21.19977
X5.70372 Y21.33478
X5.71779 Y21.46980
X5.71779 Y21.89180
X5.75208 Y22.21580
X7.99177 Y22.21580
X7.99177 Y19.16780
X5.79879 Y19.16780
X5.74652 Y19.29879
X5.71482 Y19.49180
X5.65685 Y19.71078
X5.52488 Y19.92977
X4.11881 Y19.92977
G04 P0 ( dwell for no time -- G64 should not smooth over this point )
G00 Z2.00000 ( retract )

G00 X4.11881 Y17.38977 ( rapid move to begin. )
F100.00000
G01 Z-0.20000
G04 P0 ( dwell for no time -- G64 should not smooth over this point )
F200.00000
G01 X4.11881 Y17.38977
X4.06173 Y17.41025
X4.00441 Y17.55076
X3.78924 Y18.35144
X4.01624 Y18.55144
X4.20479 Y18.65977
X5.66153 Y18.65977
X5.75020 Y19.04880
X5.79879 Y19.16780
X7.99177 Y19.16780
X7.99177 Y16.11980
X5.74253 Y16.11980
X5.71779 Y16.44380
X5.70572 Y17.01477
X5.66955 Y17.13976
X5.60925 Y17.26478
X5.52488 Y17.38977
X4.11881 Y17.38977
G04 P0 ( dwell for no time -- G64 should not smooth over this point )
G00 Z2.00000 ( retract )

G00 X4.20550 Y13.57977 ( rapid move to begin. )
F100.00000
G01 Z-0.20000
G04 P0 ( dwell for no time -- G64 should not smooth over this point )
F200.00000
G01 X4.20550 Y13.57977
X4.01713 Y13.68811
X3.79138 Y13.88719
X3.86509 Y14.13690
X3.95721 Y14.54675
X4.06316 Y14.82986
X4.11881 Y14.84977
X5.52488 Y14.84977
X5.60925 Y14.97477
X5.66955 Y15.09979
X5.70572 Y15.22478
X5.71779 Y15.79580
X5.74253 Y16.11980
X7.99177 Y16.11980
X7.99177 Y13.07180
X5.79879 Y13.07180
X5.75020 Y13.19077
X5.66153 Y13.57977
X4.20550 Y13.57977
G04 P0 ( dwell for no time -- G64 should not smooth over this point )
G00 Z2.00000 ( retract )

G00 X4.20550 Y11.03977 ( rapid move to begin. )
F100.00000
G01 Z-0.20000
G04 P0 ( dwell for no time -- G64 should not smooth over this point )
F200.00000
G01 X4.20550 Y11.03977
X4.01713 Y11.14811
X3.79138 Y11.34719
X3.86509 Y11.59690
X3.95721 Y12.00675
X4.06316 Y12.28986
X4.11881 Y12.30977
X5.52488 Y12.30977
X5.65685 Y12.52877
X5.71482 Y12.74780
X5.74652 Y12.94079
X5.79879 Y13.07180
X7.99177 Y13.07180
X7.99177 Y10.02380
X5.75208 Y10.02380
X5.71779 Y10.34780
X5.71779 Y10.76977
X5.70372 Y10.90477
X5.66153 Y11.03977
X4.20550 Y11.03977
G04 P0 ( dwell for no time -- G64 should not smooth over this point )
G00 Z2.00000 ( retract )

G00 X4.20550 Y8.49977 ( rapid move to begin. )
F100.00000
G01 Z-0.20000
G04 P0 ( dwell for no time -- G64 should not smooth over this point )
F200.00000
G01 X4.20550 Y8.49977
X4.01713 Y8.60811
X3.79138 Y8.80719
X3.86509 Y9.05690
X3.95721 Y9.46675
X4.06316 Y9.74986
X4.11881 Y9.76977
X5.52864 Y9.76977
X5.75208 Y10.02380
X7.99177 Y10.02380
X7.99177 Y6.97580
X5.75932 Y6.97580
X5.52866 Y7.22977
X5.68210 Y7.51479
X5.71779 Y7.72980
X5.71779 Y8.22977
X5.70372 Y8.36477
X5.66153 Y8.49977
X4.20550 Y8.49977
G04 P0 ( dwell for no time -- G64 should not smooth over this point )
G00 Z2.00000 ( retract )

G00 X4.20550 Y5.95977 ( rapid move to begin. )
F100.00000
G01 Z-0.20000
G04 P0 ( dwell for no time -- G64 should not smooth over this point )
F200.00000
G01 X4.20550 Y5.95977
X4.01713 Y6.06811
X3.79138 Y6.26719
X3.86509 Y6.51690
X3.95721 Y6.92675
X4.01431 Y7.09477
X4.06316 Y7.20986
X4.11881 Y7.22977
X5.52866 Y7.22977
X5.75932 Y6.97580
X7.99177 Y6.97580
X7.99177 Y3.92780
X5.79879 Y3.92780
X5.74652 Y4.05879
X5.71482 Y4.25180
X5.65685 Y4.47078
X5.52488 Y4.68977
X5.60925 Y4.81477
X5.66955 Y4.93979
X5.70572 Y5.06478
X5.71779 Y5.18980
X5.71779 Y5.64080
X5.60189 Y5.84647
X5.46285 Y5.95977
X4.20550 Y5.95977
G04 P0 ( dwell for no time -- G64 should not smooth over this point )
G00 Z2.00000 ( retract )

G00 X7.99177 Y0.62580 ( rapid move to begin. )
F100.00000
G01 Z-0.20000
G04 P0 ( dwell for no time -- G64 should not smooth over this point )
F200.00000
G01 X7.99177 Y0.62580
X2.88058 Y0.62580
X3.39242 Y1.28021
X3.49684 Y2.27627
X3.60773 Y3.02610
X3.70883 Y3.47355
X3.86509 Y3.97690
X3.95721 Y4.38675
X4.06316 Y4.66986
X4.11881 Y4.68977
X5.52488 Y4.68977
X5.65685 Y4.47078
X5.71482 Y4.25180
X5.74652 Y4.05879
X5.79879 Y3.92780
X7.99177 Y3.92780
X7.99177 Y0.62580
( Piece #2, position [1;0] )

G04 P0 ( dwell for no time -- G64 should not smooth over this point )
G00 Z2.00000 ( retract )

G00 X11.78340 Y5.96082 ( rapid move to begin. )
F100.00000
G01 Z-0.20000
G04 P0 ( dwell for no time -- G64 should not smooth over this point )
F200.00000
G01 X11.78340 Y5.96082
X14.05556 Y5.95914
X14.59312 Y6.11936
X14.94898 Y6.26719
X15.17473 Y6.06811
X15.36310 Y5.95977
X16.62045 Y5.95977
X16.75949 Y5.84647
X16.85509 Y5.68977
X16.87539 Y5.64080
X16.86332 Y5.06478
X16.82715 Y4.93979
X16.76685 Y4.81477
X16.68248 Y4.68977
X15.27641 Y4.68977
X15.22076 Y4.66986
X15.11481 Y4.38675
X15.02269 Y3.97690
X14.86643 Y3.47355
X14.76533 Y3.02610
X14.65444 Y2.27627
X14.55002 Y1.28021
X14.03821 Y0.62580
X11.78340 Y0.62580
X11.78340 Y5.96082
G04 P0 ( dwell for no time -- G64 should not smooth over this point )
G00 Z2.00000 ( retract )

G00 X11.78340 Y8.50082 ( rapid move to begin. )
F100.00000
G01 Z-0.20000
G04 P0 ( dwell for no time -- G64 should not smooth over this point )
F200.00000
G01 X11.78340 Y8.50082
X14.05556 Y8.49914
X14.59312 Y8.65936
X14.94898 Y8.80719
X15.17473 Y8.60811
X15.36310 Y8.49977
X16.81913 Y8.49977
X16.86132 Y8.36477
X16.87539 Y8.22977
X16.87539 Y7.72980
X16.83970 Y7.51479
X16.68626 Y7.22977
X15.27641 Y7.22977
X15.22076 Y7.20986
X15.11481 Y6.92675
X15.02269 Y6.51690
X14.94898 Y6.26719
X14.70961 Y6.16262
X14.41840 Y6.06455
X14.05556 Y5.95914
X11.78340 Y5.96079
X11.78340 Y8.50082
G04 P0 ( dwell for no time -- G64 should not smooth over this point )
G00 Z2.00000 ( retract )

G00 X11.78340 Y11.04082 ( rapid move to begin. )
F100.00000
G01 Z-0.20000
G04 P0 ( dwell for no time -- G64 should not smooth over this point )
F200.00000
G01 X11.78340 Y11.04082
X14.05556 Y11.03914
X14.59312 Y11.19936
X14.94898 Y11.34719
X15.17473 Y11.14811
X15.36310 Y11.03977
X16.81913 Y11.03977
X16.86132 Y10.90477
X16.87539 Y10.76977
X16.87539 Y10.34780
X16.90968 Y10.02380
X16.68624 Y9.76977
X15.27641 Y9.76977
X15.22076 Y9.74986
X15.11481 Y9.46675
X15.02269 Y9.05690
X14.94898 Y8.80719
X14.70961 Y8.70262
X14.41840 Y8.60455
X14.05556 Y8.49914
X11.78340 Y8.50079
X11.78340 Y11.04082
G04 P0 ( dwell for no time -- G64 should not smooth over this point )
G00 Z2.00000 ( retract )

G00 X11.78340 Y13.58082 ( rapid move to begin. )
F100.00000
G01 Z-0.20000
G04 P0 ( dwell for no time -- G64 should not smooth over this point )
F200.00000
G01 X11.78340 Y13.58082
X14.05556 Y13.57914
X14.59312 Y13.73936
X14.94898 Y13.88719
X15.17473 Y13.68811
X15.36310 Y13.57977
X16.81913 Y13.57977
X16.90780 Y13.19077
X16.95639 Y13.07180
X16.90412 Y12.94079
X16.87242 Y12.74780
X16.81445 Y12.52877
X16.68248 Y12.30977
X15.27641 Y12.30977
X15.22076 Y12.28986
X15.11481 Y12.00675
X15.02269 Y11.59690
X14.94898 Y11.34719
X14.70961 Y11.24262
X14.05556 Y11.03914
X11.78340 Y11.04079
X11.78340 Y13.58082
G04 P0 ( dwell for no time -- G64 should not smooth over this point )
G00 Z2.00000 ( retract )

G00 X11.78340 Y16.12082 ( rapid move to begin. )
F100.00000
G01 Z-0.20000
G04 P0 ( dwell for no time -- G64 should not smooth over this point )
F200.00000
G01 X11.78340 Y16.12082
X16.90010 Y16.11977
X16.87539 Y15.79580
X16.86332 Y15.22478
X16.82715 Y15.09979
X16.76685 Y14.97477
X16.68248 Y14.84977
X15.27641 Y14.84977
X15.22076 Y14.82986
X15.11481 Y14.54675
X15.02269 Y14.13690
X14.94898 Y13.88719
X14.59312 Y13.73936
X14.05556 Y13.57914
X11.78340 Y13.58079
X11.78340 Y16.12082
G04 P0 ( dwell for no time -- G64 should not smooth over this point )
G00 Z2.00000 ( retract )

G00 X11.78340 Y18.66082 ( rapid move to begin. )
F100.00000
G01 Z-0.20000
G04 P0 ( dwell for no time -- G64 should not smooth over this point )
F200.00000
G01 X11.78340 Y18.66082
X14.05916 Y18.65896
X14.56201 Y18.51190
X14.94684 Y18.35144
X15.01659 Y18.12620
X15.12327 Y17.66445
X15.21933 Y17.41025
X15.27641 Y17.38977
X16.68248 Y17.38977
X16.76685 Y17.26478
X16.82715 Y17.13976
X16.86332 Y17.01477
X16.87539 Y16.44380
X16.90013 Y16.11980
X11.78340 Y16.12079
X11.78340 Y18.66082
G04 P0 ( dwell for no time -- G64 should not smooth over this point )
G00 Z2.00000 ( retract )

G00 X11.78340 Y21.20082 ( rapid move to begin. )
F100.00000
G01 Z-0.20000
G04 P0 ( dwell for no time -- G64 should not smooth over this point )
F200.00000
G01 X11.78340 Y21.20082
X14.05916 Y21.19896
X14.56201 Y21.05190
X14.94684 Y20.89144
X15.01659 Y20.66620
X15.12327 Y20.20445
X15.21933 Y19.95025
X15.27641 Y19.92977
X16.68248 Y19.92977
X16.81445 Y19.71078
X16.87242 Y19.49180
X16.90412 Y19.29879
X16.95639 Y19.16780
X16.90780 Y19.04880
X16.81913 Y18.65977
X15.36239 Y18.65977
X15.17384 Y18.55144
X14.94684 Y18.35144
X14.56201 Y18.51190
X14.05916 Y18.65896
X11.78340 Y18.66079
X11.78340 Y21.20082
G04 P0 ( dwell for no time -- G64 should not smooth over this point )
G00 Z2.00000 ( retract )

G00 X11.78340 Y23.74082 ( rapid move to begin. )
F100.00000
G01 Z-0.20000
G04 P0 ( dwell for no time -- G64 should not smooth over this point )
F200.00000
G01 X11.78340 Y23.74082
X14.05916 Y23.73896
X14.56201 Y23.59190
X14.94684 Y23.43144
X15.01659 Y23.20620
X15.12327 Y22.74445
X15.21933 Y22.49025
X15.27641 Y22.46977
X16.68626 Y22.46977
X16.90968 Y22.21580
X16.87539 Y21.89180
X16.87539 Y21.46980
X16.86132 Y21.33478
X16.81913 Y21.19977
X15.36239 Y21.19977
X15.17384 Y21.09144
X14.94684 Y20.89144
X14.56201 Y21.05190
X14.05916 Y21.19896
X11.78340 Y21.20079
X11.78340 Y23.74082
G04 P0 ( dwell for no time -- G64 should not smooth over this point )
G00 Z2.00000 ( retract )

G00 X11.78340 Y26.28082 ( rapid move to begin. )
F100.00000
G01 Z-0.20000
G04 P0 ( dwell for no time -- G64 should not smooth over this point )
F200.00000
G01 X11.78340 Y26.28082
X14.05916 Y26.27896
X14.56201 Y26.13190
X14.94684 Y25.97144
X15.01659 Y25.74620
X15.12327 Y25.28445
X15.21933 Y25.03025
X15.27641 Y25.00977
X16.68624 Y25.00977
X16.83970 Y24.72479
X16.87539 Y24.50978
X16.87539 Y24.00980
X16.86132 Y23.87478
X16.81913 Y23.73977
X15.36239 Y23.73977
X15.17384 Y23.63144
X14.94684 Y23.43144
X14.56201 Y23.59190
X14.05916 Y23.73896
X11.78340 Y23.74079
X11.78340 Y26.28082
G04 P0 ( dwell for no time -- G64 should not smooth over this point )
G00 Z2.00000 ( retract )

G00 X11.78340 Y28.52707 ( rapid move to begin. )
F100.00000
G01 Z-0.20000
G04 P0 ( dwell for no time -- G64 should not smooth over this point )
F200.00000
G01 X11.78340 Y28.52707
X12.19536 Y28.58295
X12.97530 Y28.78198
X13.31700 Y28.81754
X13.75500 Y28.81873
X14.01489 Y28.80121
X14.28294 Y28.75518
X14.92264 Y28.58350
X15.01659 Y28.28620
X15.12327 Y27.82445
X15.21933 Y27.57025
X15.27641 Y27.54977
X16.68248 Y27.54977
X16.76685 Y27.42478
X16.82715 Y27.29976
X16.86332 Y27.17477
X16.87539 Y26.59875
X16.75949 Y26.39308
X16.62045 Y26.27977
X15.36239 Y26.27977
X15.17384 Y26.17144
X14.94684 Y25.97144
X14.56201 Y26.13190
X14.05916 Y26.27896
X11.78340 Y26.28079
X11.78340 Y28.52707
G04 P0 ( dwell for no time -- G64 should not smooth over this point )
G00 Z2.00000 ( retract )

G00 X11.78340 Y28.52709 ( rapid move to begin. )
F100.00000
G01 Z-0.20000
G04 P0 ( dwell for no time -- G64 should not smooth over this point )
F200.00000
G01 X11.78340 Y28.52709
X11.78340 Y32.12180
X21.68940 Y32.12180
X21.68940 Y0.62580
X19.14937 Y-185.74452
X19.14937 Y29.76549
X18.60175 Y31.08360
X18.40056 Y31.21761
X18.29997 Y31.25111
X18.19939 Y31.26229
X17.19939 Y31.26229
X17.08613 Y31.24814
X16.97287 Y31.20567
X16.85962 Y31.13488
X16.63919 Y30.92861
X16.22058 Y29.91797
X15.83117 Y29.52856
X15.40026 Y29.33339
X14.92264 Y28.58350
X14.28294 Y28.75518
X14.01489 Y28.80121
X13.75500 Y28.81873
X13.31700 Y28.81754
X12.97530 Y28.78198
X12.19536 Y28.58295
X11.78340 Y28.52709
G04 P0 ( dwell for no time -- G64 should not smooth over this point )
G00 Z2.00000 ( retract )

G00 X15.27641 Y27.54977 ( rapid move to begin. )
F100.00000
G01 Z-0.20000
G04 P0 ( dwell for no time -- G64 should not smooth over this point )
F200.00000
G01 X15.27641 Y27.54977
X15.21933 Y27.57025
X15.16201 Y27.71076
X15.07971 Y27.99367
X15.01659 Y28.28620
X14.92264 Y28.58350
X15.40026 Y29.33339
X15.83117 Y29.52856
X16.22058 Y29.91797
X16.63919 Y30.92861
X16.85962 Y31.13488
X16.97287 Y31.20567
X17.08613 Y31.24814
X17.19939 Y31.26229
X18.19939 Y31.26229
X18.29997 Y31.25111
X18.40056 Y31.21761
X18.60175 Y31.08360
X19.14937 Y29.76549
X19.14937 Y28.31180
X16.95639 Y28.31180
X16.90412 Y28.18079
X16.87242 Y27.98780
X16.81445 Y27.76877
X16.68248 Y27.54977
X15.27641 Y27.54977
G04 P0 ( dwell for no time -- G64 should not smooth over this point )
G00 Z2.00000 ( retract )

G00 X15.27641 Y25.00977 ( rapid move to begin. )
F100.00000
G01 Z-0.20000
G04 P0 ( dwell for no time -- G64 should not smooth over this point )
F200.00000
G01 X15.27641 Y25.00977
X15.21933 Y25.03025
X15.16201 Y25.17076
X14.94684 Y25.97144
X15.17384 Y26.17144
X15.36239 Y26.27977
X16.62045 Y26.27977
X16.75949 Y26.39308
X16.87539 Y26.59875
X16.87539 Y27.04978
X16.86332 Y27.17477
X16.82715 Y27.29976
X16.76685 Y27.42478
X16.68248 Y27.54977
X16.81445 Y27.76877
X16.87242 Y27.98780
X16.90412 Y28.18079
X16.95639 Y28.31180
X19.14937 Y28.31180
X19.14937 Y25.26380
X16.91697 Y25.26380
X16.68624 Y25.00977
X15.27641 Y25.00977
G04 P0 ( dwell for no time -- G64 should not smooth over this point )
G00 Z2.00000 ( retract )

G00 X15.27641 Y22.46977 ( rapid move to begin. )
F100.00000
G01 Z-0.20000
G04 P0 ( dwell for no time -- G64 should not smooth over this point )
F200.00000
G01 X15.27641 Y22.46977
X15.21933 Y22.49025
X15.16201 Y22.63076
X14.94684 Y23.43144
X15.17384 Y23.63144
X15.36239 Y23.73977
X16.81913 Y23.73977
X16.86132 Y23.87478
X16.87539 Y24.00980
X16.87539 Y24.50978
X16.83970 Y24.72479
X16.68624 Y25.00977
X16.90023 Y25.25306
X16.91697 Y25.26380
X19.14937 Y25.26380
X19.14937 Y22.21580
X16.90968 Y22.21580
X16.68626 Y22.46977
X15.27641 Y22.46977
G04 P0 ( dwell for no time -- G64 should not smooth over this point )
G00 Z2.00000 ( retract )

G00 X15.27641 Y19.92977 ( rapid move to begin. )
F100.00000
G01 Z-0.20000
G04 P0 ( dwell for no time -- G64 should not smooth over this point )
F200.00000
G01 X15.27641 Y19.92977
X15.21933 Y19.95025
X15.16201 Y20.09076
X14.94684 Y20.89144
X15.17384 Y21.09144
X15.36239 Y21.19977
X16.81913 Y21.19977
X16.86132 Y21.33478
X16.87539 Y21.46980
X16.87539 Y21.89180
X16.90968 Y22.21580
X19.14937 Y22.21580
X19.14937 Y19.16780
X16.95639 Y19.16780
X16.90412 Y19.29879
X16.87242 Y19.49180
X16.81445 Y19.71078
X16.68248 Y19.92977
X15.27641 Y19.92977
G04 P0 ( dwell for no time -- G64 should not smooth over this point )
G00 Z2.00000 ( retract )

G00 X15.27641 Y17.38977 ( rapid move to begin. )
F100.00000
G01 Z-0.20000
G04 P0 ( dwell for no time -- G64 should not smooth over this point )
F200.00000
G01 X15.27641 Y17.38977
X15.21933 Y17.41025
X15.16201 Y17.55076
X14.94684 Y18.35144
X15.17384 Y18.55144
X15.36239 Y18.65977
X16.81913 Y18.65977
X16.90780 Y19.04880
X16.95639 Y19.16780
X19.14937 Y19.16780
X19.14937 Y16.11980
X16.90013 Y16.11980
X16.87539 Y16.44380
X16.86332 Y17.01477
X16.82715 Y17.13976
X16.76685 Y17.26478
X16.68248 Y17.38977
X15.27641 Y17.38977
G04 P0 ( dwell for no time -- G64 should not smooth over this point )
G00 Z2.00000 ( retract )

G00 X15.36310 Y13.57977 ( rapid move to begin. )
F100.00000
G01 Z-0.20000
G04 P0 ( dwell for no time -- G64 should not smooth over this point )
F200.00000
G01 X15.36310 Y13.57977
X15.17473 Y13.68811
X14.94898 Y13.88719
X15.02269 Y14.13690
X15.11481 Y14.54675
X15.22076 Y14.82986
X15.27641 Y14.84977
X16.68248 Y14.84977
X16.76685 Y14.97477
X16.82715 Y15.09979
X16.86332 Y15.22478
X16.87539 Y15.79580
X16.90013 Y16.11980
X19.14937 Y16.11980
X19.14937 Y13.07180
X16.95639 Y13.07180
X16.90780 Y13.19077
X16.81913 Y13.57977
X15.36310 Y13.57977
G04 P0 ( dwell for no time -- G64 should not smooth over this point )
G00 Z2.00000 ( retract )

G00 X15.36310 Y11.03977 ( rapid move to begin. )
F100.00000
G01 Z-0.20000
G04 P0 ( dwell for no time -- G64 should not smooth over this point )
F200.00000
G01 X15.36310 Y11.03977
X15.17473 Y11.14811
X14.94898 Y11.34719
X15.02269 Y11.59690
X15.11481 Y12.00675
X15.22076 Y12.28986
X15.27641 Y12.30977
X16.68248 Y12.30977
X16.81445 Y12.52877
X16.87242 Y12.74780
X16.90412 Y12.94079
X16.95639 Y13.07180
X19.14937 Y13.07180
X19.14937 Y10.02380
X16.90968 Y10.02380
X16.87539 Y10.34780
X16.87539 Y10.76977
X16.86132 Y10.90477
X16.81913 Y11.03977
X15.36310 Y11.03977
G04 P0 ( dwell for no time -- G64 should not smooth over this point )
G00 Z2.00000 ( retract )

G00 X15.36310 Y8.49977 ( rapid move to begin. )
F100.00000
G01 Z-0.20000
G04 P0 ( dwell for no time -- G64 should not smooth over this point )
F200.00000
G01 X15.36310 Y8.49977
X15.17473 Y8.60811
X14.94898 Y8.80719
X15.02269 Y9.05690
X15.11481 Y9.46675
X15.22076 Y9.74986
X15.27641 Y9.76977
X16.68624 Y9.76977
X16.90968 Y10.02380
X19.14937 Y10.02380
X19.14937 Y6.97580
X16.91692 Y6.97580
X16.68626 Y7.22977
X16.83970 Y7.51479
X16.87539 Y7.72980
X16.87539 Y8.22977
X16.86132 Y8.36477
X16.81913 Y8.49977
X15.36310 Y8.49977
G04 P0 ( dwell for no time -- G64 should not smooth over this point )
G00 Z2.00000 ( retract )

G00 X15.36310 Y5.95977 ( rapid move to begin. )
F100.00000
G01 Z-0.20000
G04 P0 ( dwell for no time -- G64 should not smooth over this point )
F200.00000
G01 X15.36310 Y5.95977
X15.17473 Y6.06811
X14.94898 Y6.26719
X15.02269 Y6.51690
X15.11481 Y6.92675
X15.17191 Y7.09477
X15.22076 Y7.20986
X15.27641 Y7.22977
X16.68626 Y7.22977
X16.91692 Y6.97580
X19.14937 Y6.97580
X19.14937 Y3.92780
X16.95639 Y3.92780
X16.90412 Y4.05879
X16.87242 Y4.25180
X16.81445 Y4.47078
X16.68248 Y4.68977
X16.76685 Y4.81477
X16.82715 Y4.93979
X16.86332 Y5.06478
X16.87539 Y5.18980
X16.87539 Y5.64080
X16.75949 Y5.84647
X16.62045 Y5.95977
X15.36310 Y5.95977
G04 P0 ( dwell for no time -- G64 should not smooth over this point )
G00 Z2.00000 ( retract )

G00 X19.14937 Y0.62580 ( rapid move to begin. )
F100.00000
G01 Z-0.20000
G04 P0 ( dwell for no time -- G64 should not smooth over this point )
F200.00000
G01 X19.14937 Y0.62580
X14.03818 Y0.62580
X14.55002 Y1.28021
X14.65444 Y2.27627
X14.76533 Y3.02610
X14.86643 Y3.47355
X15.02269 Y3.97690
X15.11481 Y4.38675
X15.22076 Y4.66986
X15.27641 Y4.68977
X16.68248 Y4.68977
X16.81445 Y4.47078
X16.87242 Y4.25180
X16.90412 Y4.05879
X16.95639 Y3.92780
X19.14937 Y3.92780
X19.14937 Y0.62580
( Piece #3, position [2;0] )

G04 P0 ( dwell for no time -- G64 should not smooth over this point )
G00 Z2.00000 ( retract )

G00 X22.94100 Y5.96082 ( rapid move to begin. )
F100.00000
G01 Z-0.20000
G04 P0 ( dwell for no time -- G64 should not smooth over this point )
F200.00000
G01 X22.94100 Y5.96082
X25.21316 Y5.95914
X25.75072 Y6.11936
X26.10658 Y6.26719
X26.33233 Y6.06811
X26.52070 Y5.95977
X27.77805 Y5.95977
X27.91709 Y5.84647
X28.01269 Y5.68977
X28.03299 Y5.64080
X28.02092 Y5.06478
X27.98475 Y4.93979
X27.92445 Y4.81477
X27.84008 Y4.68977
X26.43401 Y4.68977
X26.37836 Y4.66986
X26.27241 Y4.38675
X26.18029 Y3.97690
X26.02403 Y3.47355
X25.92293 Y3.02610
X25.81204 Y2.27627
X25.70762 Y1.28021
X25.19581 Y0.62580
X22.94100 Y0.62580
X22.94100 Y5.96082
G04 P0 ( dwell for no time -- G64 should not smooth over this point )
G00 Z2.00000 ( retract )

G00 X22.94100 Y8.50082 ( rapid move to begin. )
F100.00000
G01 Z-0.20000
G04 P0 ( dwell for no time -- G64 should not smooth over this point )
F200.00000
G01 X22.94100 Y8.50082
X25.21316 Y8.49914
X25.75072 Y8.65936
X26.10658 Y8.80719
X26.33233 Y8.60811
X26.52070 Y8.49977
X27.97673 Y8.49977
X28.01892 Y8.36477
X28.03299 Y8.22977
X28.03299 Y7.72980
X27.99730 Y7.51479
X27.84386 Y7.22977
X26.43401 Y7.22977
X26.37836 Y7.20986
X26.27241 Y6.92675
X26.18029 Y6.51690
X26.10658 Y6.26719
X25.86721 Y6.16262
X25.57600 Y6.06455
X25.21316 Y5.95914
X22.94100 Y5.96079
X22.94100 Y8.50082
G04 P0 ( dwell for no time -- G64 should not smooth over this point )
G00 Z2.00000 ( retract )

G00 X22.94100 Y11.04082 ( rapid move to begin. )
F100.00000
G01 Z-0.20000
G04 P0 ( dwell for no time -- G64 should not smooth over this point )
F200.00000
G01 X22.94100 Y11.04082
X25.21316 Y11.03914
X25.75072 Y11.19936
X26.10658 Y11.34719
X26.33233 Y11.14811
X26.52070 Y11.03977
X27.97673 Y11.03977
X28.01892 Y10.90477
X28.03299 Y10.76977
X28.03299 Y10.34780
X28.06728 Y10.02380
X27.84384 Y9.76977
X26.43401 Y9.76977
X26.37836 Y9.74986
X26.27241 Y9.46675
X26.18029 Y9.05690
X26.10658 Y8.80719
X25.86721 Y8.70262
X25.57600 Y8.60455
X25.21316 Y8.49914
X22.94100 Y8.50079
X22.94100 Y11.04082
G04 P0 ( dwell for no time -- G64 should not smooth over this point )
G00 Z2.00000 ( retract )

G00 X22.94100 Y13.58082 ( rapid move to begin. )
F100.00000
G01 Z-0.20000
G04 P0 ( dwell for no time -- G64 should not smooth over this point )
F200.00000
G01 X22.94100 Y13.58082
X25.21316 Y13.57914
X25.75072 Y13.73936
X26.10658 Y13.88719
X26.33233 Y13.68811
X26.52070 Y13.57977
X27.97673 Y13.57977
X28.06540 Y13.19077
X28.11399 Y13.07180
X28.06172 Y12.94079
X28.03002 Y12.74780
X27.97205 Y12.52877
X27.84008 Y12.30977
X26.43401 Y12.30977
X26.37836 Y12.28986
X26.27241 Y12.00675
X26.18029 Y11.59690
X26.10658 Y11.34719
X25.86721 Y11.24262
X25.21316 Y11.03914
X22.94100 Y11.04079
X22.94100 Y13.58082
G04 P0 ( dwell for no time -- G64 should not smooth over this point )
G00 Z2.00000 ( retract )

G00 X22.94100 Y16.12082 ( rapid move to begin. )
F100.00000
G01 Z-0.20000
G04 P0 ( dwell for no time -- G64 should not smooth over this point )
F200.00000
G01 X22.94100 Y16.12082
X28.05770 Y16.11977
X28.03299 Y15.79580
X28.02092 Y15.22478
X27.98475 Y15.09979
X27.92445 Y14.97477
X27.84008 Y14.84977
X26.43401 Y14.84977
X26.37836 Y14.82986
X26.27241 Y14.54675
X26.18029 Y14.13690
X26.10658 Y13.88719
X25.75072 Y13.73936
X25.21316 Y13.57914
X22.94100 Y13.58079
X22.94100 Y16.12082
G04 P0 ( dwell for no time -- G64 should not smooth over this point )
G00 Z2.00000 ( retract )

G00 X22.94100 Y18.66082 ( rapid move to begin. )
F100.00000
G01 Z-0.20000
G04 P0 ( dwell for no time -- G64 should not smooth over this point )
F200.00000
G01 X22.94100 Y18.66082
X25.21676 Y18.65896
X25.71961 Y18.51190
X26.10444 Y18.35144
X26.17419 Y18.12620
X26.28087 Y17.66445
X26.37693 Y17.41025
X26.43401 Y17.38977
X27.84008 Y17.38977
X27.92445 Y17.26478
X27.98475 Y17.13976
X28.02092 Y17.01477
X28.03299 Y16.44380
X28.05773 Y16.11980
X22.94100 Y16.12079
X22.94100 Y18.66082
G04 P0 ( dwell for no time -- G64 should not smooth over this point )
G00 Z2.00000 ( retract )

G00 X22.94100 Y21.20082 ( rapid move to begin. )
F100.00000
G01 Z-0.20000
G04 P0 ( dwell for no time -- G64 should not smooth over this point )
F200.00000
G01 X22.94100 Y21.20082
X25.21676 Y21.19896
X25.71961 Y21.05190
X26.10444 Y20.89144
X26.17419 Y20.66620
X26.28087 Y20.20445
X26.37693 Y19.95025
X26.43401 Y19.92977
X27.84008 Y19.92977
X27.97205 Y19.71078
X28.03002 Y19.49180
X28.06172 Y19.29879
X28.11399 Y19.16780
X28.06540 Y19.04880
X27.97673 Y18.65977
X26.51999 Y18.65977
X26.33144 Y18.55144
X26.10444 Y18.35144
X25.71961 Y18.51190
X25.21676 Y18.65896
X22.94100 Y18.66079
X22.94100 Y21.20082
G04 P0 ( dwell for no time -- G64 should not smooth over this point )
G00 Z2.00000 ( retract )

G00 X22.94100 Y23.74082 ( rapid move to begin. )
F100.00000
G01 Z-0.20000
G04 P0 ( dwell for no time -- G64 should not smooth over this point )
F200.00000
G01 X22.94100 Y23.74082
X25.21676 Y23.73896
X25.71961 Y23.59190
X26.10444 Y23.43144
X26.17419 Y23.20620
X26.28087 Y22.74445
X26.37693 Y22.49025
X26.43401 Y22.46977
X27.84386 Y22.46977
X28.06728 Y22.21580
X28.03299 Y21.89180
X28.03299 Y21.46980
X28.01892 Y21.33478
X27.97673 Y21.19977
X26.51999 Y21.19977
X26.33144 Y21.09144
X26.10444 Y20.89144
X25.71961 Y21.05190
X25.21676 Y21.19896
X22.94100 Y21.20079
X22.94100 Y23.74082
G04 P0 ( dwell for no time -- G64 should not smooth over this point )
G00 Z2.00000 ( retract )

G00 X22.94100 Y26.28082 ( rapid move to begin. )
F100.00000
G01 Z-0.20000
G04 P0 ( dwell for no time -- G64 should not smooth over this point )
F200.00000
G01 X22.94100 Y26.28082
X25.21676 Y26.27896
X25.71961 Y26.13190
X26.10444 Y25.97144
X26.17419 Y25.74620
X26.28087 Y25.28445
X26.37693 Y25.03025
X26.43401 Y25.00977
X27.84384 Y25.00977
X27.99730 Y24.72479
X28.03299 Y24.50978
X28.03299 Y24.00980
X28.01892 Y23.87478
X27.97673 Y23.73977
X26.51999 Y23.73977
X26.33144 Y23.63144
X26.10444 Y23.43144
X25.71961 Y23.59190
X25.21676 Y23.73896
X22.94100 Y23.74079
X22.94100 Y26.28082
G04 P0 ( dwell for no time -- G64 should not smooth over this point )
G00 Z2.00000 ( retract )

G00 X22.94100 Y28.52707 ( rapid move to begin. )
F100.00000
G01 Z-0.20000
G04 P0 ( dwell for no time -- G64 should not smooth over this point )
F200.00000
G01 X22.94100 Y28.52707
X23.35296 Y28.58295
X24.13290 Y28.78198
X24.47460 Y28.81754
X24.91260 Y28.81873
X25.17249 Y28.80121
X25.44054 Y28.75518
X26.08024 Y28.58350
X26.17419 Y28.28620
X26.28087 Y27.82445
X26.37693 Y27.57025
X26.43401 Y27.54977
X27.84008 Y27.54977
X27.92445 Y27.42478
X27.98475 Y27.29976
X28.02092 Y27.17477
X28.03299 Y26.59875
X27.91709 Y26.39308
X27.77805 Y26.27977
X26.51999 Y26.27977
X26.33144 Y26.17144
X26.10444 Y25.97144
X25.71961 Y26.13190
X25.21676 Y26.27896
X22.94100 Y26.28079
X22.94100 Y28.52707
G04 P0 ( dwell for no time -- G64 should not smooth over this point )
G00 Z2.00000 ( retract )

G00 X22.94100 Y28.52709 ( rapid move to begin. )
F100.00000
G01 Z-0.20000
G04 P0 ( dwell for no time -- G64 should not smooth over this point )
F200.00000
G01 X22.94100 Y28.52709
X22.94100 Y32.12180
X32.84700 Y32.12180
X32.84700 Y0.62580
X30.30697 Y-185.74452
X30.30697 Y29.76549
X29.75935 Y31.08360
X29.55816 Y31.21761
X29.45757 Y31.25111
X29.35699 Y31.26229
X28.35699 Y31.26229
X28.24373 Y31.24814
X28.13047 Y31.20567
X28.01722 Y31.13488
X27.79679 Y30.92861
X27.37818 Y29.91797
X26.98877 Y29.52856
X26.55786 Y29.33339
X26.08024 Y28.58350
X25.44054 Y28.75518
X25.17249 Y28.80121
X24.91260 Y28.81873
X24.47460 Y28.81754
X24.13290 Y28.78198
X23.35296 Y28.58295
X22.94100 Y28.52709
G04 P0 ( dwell for no time -- G64 should not smooth over this point )
G00 Z2.00000 ( retract )

G00 X26.43401 Y27.54977 ( rapid move to begin. )
F100.00000
G01 Z-0.20000
G04 P0 ( dwell for no time -- G64 should not smooth over this point )
F200.00000
G01 X26.43401 Y27.54977
X26.37693 Y27.57025
X26.31961 Y27.71076
X26.23731 Y27.99367
X26.17419 Y28.28620
X26.08024 Y28.58350
X26.55786 Y29.33339
X26.98877 Y29.52856
X27.37818 Y29.91797
X27.79679 Y30.92861
X28.01722 Y31.13488
X28.13047 Y31.20567
X28.24373 Y31.24814
X28.35699 Y31.26229
X29.35699 Y31.26229
X29.45757 Y31.25111
X29.55816 Y31.21761
X29.75935 Y31.08360
X30.30697 Y29.76549
X30.30697 Y28.31180
X28.11399 Y28.31180
X28.06172 Y28.18079
X28.03002 Y27.98780
X27.97205 Y27.76877
X27.84008 Y27.54977
X26.43401 Y27.54977
G04 P0 ( dwell for no time -- G64 should not smooth over this point )
G00 Z2.00000 ( retract )

G00 X26.43401 Y25.00977 ( rapid move to begin. )
F100.00000
G01 Z-0.20000
G04 P0 ( dwell for no time -- G64 should not smooth over this point )
F200.00000
G01 X26.43401 Y25.00977
X26.37693 Y25.03025
X26.31961 Y25.17076
X26.10444 Y25.97144
X26.33144 Y26.17144
X26.51999 Y26.27977
X27.77805 Y26.27977
X27.91709 Y26.39308
X28.03299 Y26.59875
X28.03299 Y27.04978
X28.02092 Y27.17477
X27.98475 Y27.29976
X27.92445 Y27.42478
X27.84008 Y27.54977
X27.97205 Y27.76877
X28.03002 Y27.98780
X28.06172 Y28.18079
X28.11399 Y28.31180
X30.30697 Y28.31180
X30.30697 Y25.26380
X28.07457 Y25.26380
X27.84384 Y25.00977
X26.43401 Y25.00977
G04 P0 ( dwell for no time -- G64 should not smooth over this point )
G00 Z2.00000 ( retract )

G00 X26.43401 Y22.46977 ( rapid move to begin. )
F100.00000
G01 Z-0.20000
G04 P0 ( dwell for no time -- G64 should not smooth over this point )
F200.00000
G01 X26.43401 Y22.46977
X26.37693 Y22.49025
X26.31961 Y22.63076
X26.10444 Y23.43144
X26.33144 Y23.63144
X26.51999 Y23.73977
X27.97673 Y23.73977
X28.01892 Y23.87478
X28.03299 Y24.00980
X28.03299 Y24.50978
X27.99730 Y24.72479
X27.84384 Y25.00977
X28.05783 Y25.25306
X28.07457 Y25.26380
X30.30697 Y25.26380
X30.30697 Y22.21580
X28.06728 Y22.21580
X27.84386 Y22.46977
X26.43401 Y22.46977
G04 P0 ( dwell for no time -- G64 should not smooth over this point )
G00 Z2.00000 ( retract )

G00 X26.43401 Y19.92977 ( rapid move to begin. )
F100.00000
G01 Z-0.20000
G04 P0 ( dwell for no time -- G64 should not smooth over this point )
F200.00000
G01 X26.43401 Y19.92977
X26.37693 Y19.95025
X26.31961 Y20.09076
X26.10444 Y20.89144
X26.33144 Y21.09144
X26.51999 Y21.19977
X27.97673 Y21.19977
X28.01892 Y21.33478
X28.03299 Y21.46980
X28.03299 Y21.89180
X28.06728 Y22.21580
X30.30697 Y22.21580
X30.30697 Y19.16780
X28.11399 Y19.16780
X28.06172 Y19.29879
X28.03002 Y19.49180
X27.97205 Y19.71078
X27.84008 Y19.92977
X26.43401 Y19.92977
G04 P0 ( dwell for no time -- G64 should not smooth over this point )
G00 Z2.00000 ( retract )

G00 X26.43401 Y17.38977 ( rapid move to begin. )
F100.00000
G01 Z-0.20000
G04 P0 ( dwell for no time -- G64 should not smooth over this point )
F200.00000
G01 X26.43401 Y17.38977
X26.37693 Y17.41025
X26.31961 Y17.55076
X26.10444 Y18.35144
X26.33144 Y18.55144
X26.51999 Y18.65977
X27.97673 Y18.65977
X28.06540 Y19.04880
X28.11399 Y19.16780
X30.30697 Y19.16780
X30.30697 Y16.11980
X28.05773 Y16.11980
X28.03299 Y16.44380
X28.02092 Y17.01477
X27.98475 Y17.13976
X27.92445 Y17.26478
X27.84008 Y17.38977
X26.43401 Y17.38977
G04 P0 ( dwell for no time -- G64 should not smooth over this point )
G00 Z2.00000 ( retract )

G00 X26.52070 Y13.57977 ( rapid move to begin. )
F100.00000
G01 Z-0.20000
G04 P0 ( dwell for no time -- G64 should not smooth over this point )
F200.00000
G01 X26.52070 Y13.57977
X26.33233 Y13.68811
X26.10658 Y13.88719
X26.18029 Y14.13690
X26.27241 Y14.54675
X26.37836 Y14.82986
X26.43401 Y14.84977
X27.84008 Y14.84977
X27.92445 Y14.97477
X27.98475 Y15.09979
X28.02092 Y15.22478
X28.03299 Y15.79580
X28.05773 Y16.11980
X30.30697 Y16.11980
X30.30697 Y13.07180
X28.11399 Y13.07180
X28.06540 Y13.19077
X27.97673 Y13.57977
X26.52070 Y13.57977
G04 P0 ( dwell for no time -- G64 should not smooth over this point )
G00 Z2.00000 ( retract )

G00 X26.52070 Y11.03977 ( rapid move to begin. )
F100.00000
G01 Z-0.20000
G04 P0 ( dwell for no time -- G64 should not smooth over this point )
F200.00000
G01 X26.52070 Y11.03977
X26.33233 Y11.14811
X26.10658 Y11.34719
X26.18029 Y11.59690
X26.27241 Y12.00675
X26.37836 Y12.28986
X26.43401 Y12.30977
X27.84008 Y12.30977
X27.97205 Y12.52877
X28.03002 Y12.74780
X28.06172 Y12.94079
X28.11399 Y13.07180
X30.30697 Y13.07180
X30.30697 Y10.02380
X28.06728 Y10.02380
X28.03299 Y10.34780
X28.03299 Y10.76977
X28.01892 Y10.90477
X27.97673 Y11.03977
X26.52070 Y11.03977
G04 P0 ( dwell for no time -- G64 should not smooth over this point )
G00 Z2.00000 ( retract )

G00 X26.52070 Y8.49977 ( rapid move to begin. )
F100.00000
G01 Z-0.20000
G04 P0 ( dwell for no time -- G64 should not smooth over this point )
F200.00000
G01 X26.52070 Y8.49977
X26.33233 Y8.60811
X26.10658 Y8.80719
X26.18029 Y9.05690
X26.27241 Y9.46675
X26.37836 Y9.74986
X26.43401 Y9.76977
X27.84384 Y9.76977
X28.06728 Y10.02380
X30.30697 Y10.02380
X30.30697 Y6.97580
X28.07452 Y6.97580
X27.84386 Y7.22977
X27.99730 Y7.51479
X28.03299 Y7.72980
X28.03299 Y8.22977
X28.01892 Y8.36477
X27.97673 Y8.49977
X26.52070 Y8.49977
G04 P0 ( dwell for no time -- G64 should not smooth over this point )
G00 Z2.00000 ( retract )

G00 X26.52070 Y5.95977 ( rapid move to begin. )
F100.00000
G01 Z-0.20000
G04 P0 ( dwell for no time -- G64 should not smooth over this point )
F200.00000
G01 X26.52070 Y5.95977
X26.33233 Y6.06811
X26.10658 Y6.26719
X26.18029 Y6.51690
X26.27241 Y6.92675
X26.32951 Y7.09477
X26.37836 Y7.20986
X26.43401 Y7.22977
X27.84386 Y7.22977
X28.07452 Y6.97580
X30.30697 Y6.97580
X30.30697 Y3.92780
X28.11399 Y3.92780
X28.06172 Y4.05879
X28.03002 Y4.25180
X27.97205 Y4.47078
X27.84008 Y4.68977
X27.92445 Y4.81477
X27.98475 Y4.93979
X28.02092 Y5.06478
X28.03299 Y5.18980
X28.03299 Y5.64080
X27.91709 Y5.84647
X27.77805 Y5.95977
X26.52070 Y5.95977
G04 P0 ( dwell for no time -- G64 should not smooth over this point )
G00 Z2.00000 ( retract )

G00 X30.30697 Y0.62580 ( rapid move to begin. )
F100.00000
G01 Z-0.20000
G04 P0 ( dwell for no time -- G64 should not smooth over this point )
F200.00000
G01 X30.30697 Y0.62580
X25.19578 Y0.62580
X25.70762 Y1.28021
X25.81204 Y2.27627
X25.92293 Y3.02610
X26.02403 Y3.47355
X26.18029 Y3.97690
X26.27241 Y4.38675
X26.37836 Y4.66986
X26.43401 Y4.68977
X27.84008 Y4.68977
X27.97205 Y4.47078
X28.03002 Y4.25180
X28.06172 Y4.05879
X28.11399 Y3.92780
X30.30697 Y3.92780
X30.30697 Y0.62580
( Piece #4, position [0;1] )

G04 P0 ( dwell for no time -- G64 should not smooth over this point )
G00 Z2.00000 ( retract )

G00 X22.94100 Y38.70841 ( rapid move to begin. )
F100.00000
G01 Z-0.20000
G04 P0 ( dwell for no time -- G64 should not smooth over this point )
F200.00000
G01 X22.94100 Y38.70841
X25.21316 Y38.70674
X25.75072 Y38.86696
X26.10658 Y39.01479
X26.33233 Y38.81570
X26.52070 Y38.70737
X27.77805 Y38.70737
X27.91709 Y38.59406
X28.01269 Y38.43737
X28.03299 Y38.38840
X28.02092 Y37.81238
X27.98475 Y37.68739
X27.92445 Y37.56237
X27.84008 Y37.43737
X26.43401 Y37.43737
X26.37836 Y37.41746
X26.27241 Y37.13435
X26.18029 Y36.72450
X26.02403 Y36.22115
X25.92293 Y35.77370
X25.81204 Y35.02387
X25.70762 Y34.02780
X25.19581 Y33.37340
X22.94100 Y33.37340
X22.94100 Y38.70841
G04 P0 ( dwell for no time -- G64 should not smooth over this point )
G00 Z2.00000 ( retract )

G00 X22.94100 Y41.24841 ( rapid move to begin. )
F100.00000
G01 Z-0.20000
G04 P0 ( dwell for no time -- G64 should not smooth over this point )
F200.00000
G01 X22.94100 Y41.24841
X25.21316 Y41.24674
X25.75072 Y41.40696
X26.10658 Y41.55479
X26.33233 Y41.35570
X26.52070 Y41.24737
X27.97673 Y41.24737
X28.01892 Y41.11237
X28.03299 Y40.97737
X28.03299 Y40.47740
X27.99730 Y40.26239
X27.84386 Y39.97737
X26.43401 Y39.97737
X26.37836 Y39.95746
X26.27241 Y39.67435
X26.18029 Y39.26450
X26.10658 Y39.01479
X25.86721 Y38.91022
X25.57600 Y38.81215
X25.21316 Y38.70674
X22.94100 Y38.70839
X22.94100 Y41.24841
G04 P0 ( dwell for no time -- G64 should not smooth over this point )
G00 Z2.00000 ( retract )

G00 X22.94100 Y43.78841 ( rapid move to begin. )
F100.00000
G01 Z-0.20000
G04 P0 ( dwell for no time -- G64 should not smooth over this point )
F200.00000
G01 X22.94100 Y43.78841
X25.21316 Y43.78674
X25.75072 Y43.94696
X26.10658 Y44.09479
X26.33233 Y43.89570
X26.52070 Y43.78737
X27.97673 Y43.78737
X28.01892 Y43.65237
X28.03299 Y43.51737
X28.03299 Y43.09540
X28.06728 Y42.77140
X27.84384 Y42.51737
X26.43401 Y42.51737
X26.37836 Y42.49746
X26.27241 Y42.21435
X26.18029 Y41.80450
X26.10658 Y41.55479
X25.86721 Y41.45022
X25.57600 Y41.35215
X25.21316 Y41.24674
X22.94100 Y41.24839
X22.94100 Y43.78841
G04 P0 ( dwell for no time -- G64 should not smooth over this point )
G00 Z2.00000 ( retract )

G00 X22.94100 Y46.32841 ( rapid move to begin. )
F100.00000
G01 Z-0.20000
G04 P0 ( dwell for no time -- G64 should not smooth over this point )
F200.00000
G01 X22.94100 Y46.32841
X25.21316 Y46.32674
X25.75072 Y46.48696
X26.10658 Y46.63479
X26.33233 Y46.43570
X26.52070 Y46.32737
X27.97673 Y46.32737
X28.06540 Y45.93837
X28.11399 Y45.81940
X28.06172 Y45.68839
X28.03002 Y45.49540
X27.97205 Y45.27637
X27.84008 Y45.05737
X26.43401 Y45.05737
X26.37836 Y45.03746
X26.27241 Y44.75435
X26.18029 Y44.34450
X26.10658 Y44.09479
X25.86721 Y43.99022
X25.21316 Y43.78674
X22.94100 Y43.78839
X22.94100 Y46.32841
G04 P0 ( dwell for no time -- G64 should not smooth over this point )
G00 Z2.00000 ( retract )

G00 X22.94100 Y48.86841 ( rapid move to begin. )
F100.00000
G01 Z-0.20000
G04 P0 ( dwell for no time -- G64 should not smooth over this point )
F200.00000
G01 X22.94100 Y48.86841
X28.05770 Y48.86737
X28.03299 Y48.54340
X28.02092 Y47.97238
X27.98475 Y47.84739
X27.92445 Y47.72237
X27.84008 Y47.59737
X26.43401 Y47.59737
X26.37836 Y47.57746
X26.27241 Y47.29435
X26.18029 Y46.88450
X26.10658 Y46.63479
X25.75072 Y46.48696
X25.21316 Y46.32674
X22.94100 Y46.32839
X22.94100 Y48.86841
G04 P0 ( dwell for no time -- G64 should not smooth over this point )
G00 Z2.00000 ( retract )

G00 X22.94100 Y51.40841 ( rapid move to begin. )
F100.00000
G01 Z-0.20000
G04 P0 ( dwell for no time -- G64 should not smooth over this point )
F200.00000
G01 X22.94100 Y51.40841
X25.21676 Y51.40656
X25.71961 Y51.25949
X26.10444 Y51.09904
X26.17419 Y50.87380
X26.28087 Y50.41205
X26.37693 Y50.15785
X26.43401 Y50.13737
X27.84008 Y50.13737
X27.92445 Y50.01238
X27.98475 Y49.88736
X28.02092 Y49.76237
X28.03299 Y49.19140
X28.05773 Y48.86740
X22.94100 Y48.86839
X22.94100 Y51.40841
G04 P0 ( dwell for no time -- G64 should not smooth over this point )
G00 Z2.00000 ( retract )

G00 X22.94100 Y53.94841 ( rapid move to begin. )
F100.00000
G01 Z-0.20000
G04 P0 ( dwell for no time -- G64 should not smooth over this point )
F200.00000
G01 X22.94100 Y53.94841
X25.21676 Y53.94656
X25.71961 Y53.79949
X26.10444 Y53.63904
X26.17419 Y53.41380
X26.28087 Y52.95205
X26.37693 Y52.69785
X26.43401 Y52.67737
X27.84008 Y52.67737
X27.97205 Y52.45837
X28.03002 Y52.23940
X28.06172 Y52.04639
X28.11399 Y51.91540
X28.06540 Y51.79640
X27.97673 Y51.40737
X26.51999 Y51.40737
X26.33144 Y51.29904
X26.10444 Y51.09904
X25.71961 Y51.25949
X25.21676 Y51.40656
X22.94100 Y51.40839
X22.94100 Y53.94841
G04 P0 ( dwell for no time -- G64 should not smooth over this point )
G00 Z2.00000 ( retract )

G00 X22.94100 Y56.48841 ( rapid move to begin. )
F100.00000
G01 Z-0.20000
G04 P0 ( dwell for no time -- G64 should not smooth over this point )
F200.00000
G01 X22.94100 Y56.48841
X25.21676 Y56.48656
X25.71961 Y56.33949
X26.10444 Y56.17904
X26.17419 Y55.95380
X26.28087 Y55.49205
X26.37693 Y55.23785
X26.43401 Y55.21737
X27.84386 Y55.21737
X28.06728 Y54.96340
X28.03299 Y54.63940
X28.03299 Y54.21740
X28.01892 Y54.08237
X27.97673 Y53.94737
X26.51999 Y53.94737
X26.33144 Y53.83904
X26.10444 Y53.63904
X25.71961 Y53.79949
X25.21676 Y53.94656
X22.94100 Y53.94839
X22.94100 Y56.48841
G04 P0 ( dwell for no time -- G64 should not smooth over this point )
G00 Z2.00000 ( retract )

G00 X22.94100 Y59.02841 ( rapid move to begin. )
F100.00000
G01 Z-0.20000
G04 P0 ( dwell for no time -- G64 should not smooth over this point )
F200.00000
G01 X22.94100 Y59.02841
X25.21676 Y59.02656
X25.71961 Y58.87949
X26.10444 Y58.71904
X26.17419 Y58.49380
X26.28087 Y58.03205
X26.37693 Y57.77785
X26.43401 Y57.75737
X27.84384 Y57.75737
X27.99730 Y57.47239
X28.03299 Y57.25737
X28.03299 Y56.75740
X28.01892 Y56.62237
X27.97673 Y56.48737
X26.51999 Y56.48737
X26.33144 Y56.37904
X26.10444 Y56.17904
X25.71961 Y56.33949
X25.21676 Y56.48656
X22.94100 Y56.48839
X22.94100 Y59.02841
G04 P0 ( dwell for no time -- G64 should not smooth over this point )
G00 Z2.00000 ( retract )

G00 X22.94100 Y61.27466 ( rapid move to begin. )
F100.00000
G01 Z-0.20000
G04 P0 ( dwell for no time -- G64 should not smooth over this point )
F200.00000
G01 X22.94100 Y61.27466
X23.35296 Y61.33054
X24.13290 Y61.52958
X24.47460 Y61.56514
X24.91260 Y61.56633
X25.17249 Y61.54881
X25.44054 Y61.50278
X26.08024 Y61.33110
X26.17419 Y61.03380
X26.28087 Y60.57205
X26.37693 Y60.31785
X26.43401 Y60.29737
X27.84008 Y60.29737
X27.92445 Y60.17238
X27.98475 Y60.04736
X28.02092 Y59.92237
X28.03299 Y59.34635
X27.91709 Y59.14068
X27.77805 Y59.02737
X26.51999 Y59.02737
X26.33144 Y58.91904
X26.10444 Y58.71904
X25.71961 Y58.87949
X25.21676 Y59.02656
X22.94100 Y59.02839
X22.94100 Y61.27466
G04 P0 ( dwell for no time -- G64 should not smooth over this point )
G00 Z2.00000 ( retract )

G00 X22.94100 Y61.27469 ( rapid move to begin. )
F100.00000
G01 Z-0.20000
G04 P0 ( dwell for no time -- G64 should not smooth over this point )
F200.00000
G01 X22.94100 Y61.27469
X22.94100 Y64.86940
X32.84700 Y64.86940
X32.84700 Y33.37340
X30.30697 Y-152.99692
X30.30697 Y62.51309
X29.75935 Y63.83120
X29.55816 Y63.96521
X29.45757 Y63.99871
X29.35699 Y64.00989
X28.35699 Y64.00989
X28.24373 Y63.99574
X28.13047 Y63.95327
X28.01722 Y63.88248
X27.79679 Y63.67621
X27.37818 Y62.66557
X26.98877 Y62.27616
X26.55786 Y62.08099
X26.08024 Y61.33110
X25.44054 Y61.50278
X25.17249 Y61.54881
X24.91260 Y61.56633
X24.47460 Y61.56514
X24.13290 Y61.52958
X23.35296 Y61.33054
X22.94100 Y61.27469
G04 P0 ( dwell for no time -- G64 should not smooth over this point )
G00 Z2.00000 ( retract )

G00 X26.43401 Y60.29737 ( rapid move to begin. )
F100.00000
G01 Z-0.20000
G04 P0 ( dwell for no time -- G64 should not smooth over this point )
F200.00000
G01 X26.43401 Y60.29737
X26.37693 Y60.31785
X26.31961 Y60.45836
X26.23731 Y60.74126
X26.17419 Y61.03380
X26.08024 Y61.33110
X26.55786 Y62.08099
X26.98877 Y62.27616
X27.37818 Y62.66557
X27.79679 Y63.67621
X28.01722 Y63.88248
X28.13047 Y63.95327
X28.24373 Y63.99574
X28.35699 Y64.00989
X29.35699 Y64.00989
X29.45757 Y63.99871
X29.55816 Y63.96521
X29.75935 Y63.83120
X30.30697 Y62.51309
X30.30697 Y61.05940
X28.11399 Y61.05940
X28.06172 Y60.92839
X28.03002 Y60.73540
X27.97205 Y60.51637
X27.84008 Y60.29737
X26.43401 Y60.29737
G04 P0 ( dwell for no time -- G64 should not smooth over this point )
G00 Z2.00000 ( retract )

G00 X26.43401 Y57.75737 ( rapid move to begin. )
F100.00000
G01 Z-0.20000
G04 P0 ( dwell for no time -- G64 should not smooth over this point )
F200.00000
G01 X26.43401 Y57.75737
X26.37693 Y57.77785
X26.31961 Y57.91836
X26.10444 Y58.71904
X26.33144 Y58.91904
X26.51999 Y59.02737
X27.77805 Y59.02737
X27.91709 Y59.14068
X28.03299 Y59.34635
X28.03299 Y59.79737
X28.02092 Y59.92237
X27.98475 Y60.04736
X27.92445 Y60.17238
X27.84008 Y60.29737
X27.97205 Y60.51637
X28.03002 Y60.73540
X28.06172 Y60.92839
X28.11399 Y61.05940
X30.30697 Y61.05940
X30.30697 Y58.01140
X28.07457 Y58.01140
X27.84384 Y57.75737
X26.43401 Y57.75737
G04 P0 ( dwell for no time -- G64 should not smooth over this point )
G00 Z2.00000 ( retract )

G00 X26.43401 Y55.21737 ( rapid move to begin. )
F100.00000
G01 Z-0.20000
G04 P0 ( dwell for no time -- G64 should not smooth over this point )
F200.00000
G01 X26.43401 Y55.21737
X26.37693 Y55.23785
X26.31961 Y55.37836
X26.10444 Y56.17904
X26.33144 Y56.37904
X26.51999 Y56.48737
X27.97673 Y56.48737
X28.01892 Y56.62237
X28.03299 Y56.75740
X28.03299 Y57.25737
X27.99730 Y57.47239
X27.84384 Y57.75737
X28.05783 Y58.00065
X28.07457 Y58.01140
X30.30697 Y58.01140
X30.30697 Y54.96340
X28.06728 Y54.96340
X27.84386 Y55.21737
X26.43401 Y55.21737
G04 P0 ( dwell for no time -- G64 should not smooth over this point )
G00 Z2.00000 ( retract )

G00 X26.43401 Y52.67737 ( rapid move to begin. )
F100.00000
G01 Z-0.20000
G04 P0 ( dwell for no time -- G64 should not smooth over this point )
F200.00000
G01 X26.43401 Y52.67737
X26.37693 Y52.69785
X26.31961 Y52.83836
X26.10444 Y53.63904
X26.33144 Y53.83904
X26.51999 Y53.94737
X27.97673 Y53.94737
X28.01892 Y54.08237
X28.03299 Y54.21740
X28.03299 Y54.63940
X28.06728 Y54.96340
X30.30697 Y54.96340
X30.30697 Y51.91540
X28.11399 Y51.91540
X28.06172 Y52.04639
X28.03002 Y52.23940
X27.97205 Y52.45837
X27.84008 Y52.67737
X26.43401 Y52.67737
G04 P0 ( dwell for no time -- G64 should not smooth over this point )
G00 Z2.00000 ( retract )

G00 X26.43401 Y50.13737 ( rapid move to begin. )
F100.00000
G01 Z-0.20000
G04 P0 ( dwell for no time -- G64 should not smooth over this point )
F200.00000
G01 X26.43401 Y50.13737
X26.37693 Y50.15785
X26.31961 Y50.29836
X26.10444 Y51.09904
X26.33144 Y51.29904
X26.51999 Y51.40737
X27.97673 Y51.40737
X28.06540 Y51.79640
X28.11399 Y51.91540
X30.30697 Y51.91540
X30.30697 Y48.86740
X28.05773 Y48.86740
X28.03299 Y49.19140
X28.02092 Y49.76237
X27.98475 Y49.88736
X27.92445 Y50.01238
X27.84008 Y50.13737
X26.43401 Y50.13737
G04 P0 ( dwell for no time -- G64 should not smooth over this point )
G00 Z2.00000 ( retract )

G00 X26.52070 Y46.32737 ( rapid move to begin. )
F100.00000
G01 Z-0.20000
G04 P0 ( dwell for no time -- G64 should not smooth over this point )
F200.00000
G01 X26.52070 Y46.32737
X26.33233 Y46.43570
X26.10658 Y46.63479
X26.18029 Y46.88450
X26.27241 Y47.29435
X26.37836 Y47.57746
X26.43401 Y47.59737
X27.84008 Y47.59737
X27.92445 Y47.72237
X27.98475 Y47.84739
X28.02092 Y47.97238
X28.03299 Y48.54340
X28.05773 Y48.86740
X30.30697 Y48.86740
X30.30697 Y45.81940
X28.11399 Y45.81940
X28.06540 Y45.93837
X27.97673 Y46.32737
X26.52070 Y46.32737
G04 P0 ( dwell for no time -- G64 should not smooth over this point )
G00 Z2.00000 ( retract )

G00 X26.52070 Y43.78737 ( rapid move to begin. )
F100.00000
G01 Z-0.20000
G04 P0 ( dwell for no time -- G64 should not smooth over this point )
F200.00000
G01 X26.52070 Y43.78737
X26.33233 Y43.89570
X26.10658 Y44.09479
X26.18029 Y44.34450
X26.27241 Y44.75435
X26.37836 Y45.03746
X26.43401 Y45.05737
X27.84008 Y45.05737
X27.97205 Y45.27637
X28.03002 Y45.49540
X28.06172 Y45.68839
X28.11399 Y45.81940
X30.30697 Y45.81940
X30.30697 Y42.77140
X28.06728 Y42.77140
X28.03299 Y43.09540
X28.03299 Y43.51737
X28.01892 Y43.65237
X27.97673 Y43.78737
X26.52070 Y43.78737
G04 P0 ( dwell for no time -- G64 should not smooth over this point )
G00 Z2.00000 ( retract )

G00 X26.52070 Y41.24737 ( rapid move to begin. )
F100.00000
G01 Z-0.20000
G04 P0 ( dwell for no time -- G64 should not smooth over this point )
F200.00000
G01 X26.52070 Y41.24737
X26.33233 Y41.35570
X26.10658 Y41.55479
X26.18029 Y41.80450
X26.27241 Y42.21435
X26.37836 Y42.49746
X26.43401 Y42.51737
X27.84384 Y42.51737
X28.06728 Y42.77140
X30.30697 Y42.77140
X30.30697 Y39.72340
X28.07452 Y39.72340
X27.84386 Y39.97737
X27.99730 Y40.26239
X28.03299 Y40.47740
X28.03299 Y40.97737
X28.01892 Y41.11237
X27.97673 Y41.24737
X26.52070 Y41.24737
G04 P0 ( dwell for no time -- G64 should not smooth over this point )
G00 Z2.00000 ( retract )

G00 X26.52070 Y38.70737 ( rapid move to begin. )
F100.00000
G01 Z-0.20000
G04 P0 ( dwell for no time -- G64 should not smooth over this point )
F200.00000
G01 X26.52070 Y38.70737
X26.33233 Y38.81570
X26.10658 Y39.01479
X26.18029 Y39.26450
X26.27241 Y39.67435
X26.32951 Y39.84237
X26.37836 Y39.95746
X26.43401 Y39.97737
X27.84386 Y39.97737
X28.07452 Y39.72340
X30.30697 Y39.72340
X30.30697 Y36.67540
X28.11399 Y36.67540
X28.06172 Y36.80639
X28.03002 Y36.99940
X27.97205 Y37.21837
X27.84008 Y37.43737
X27.92445 Y37.56237
X27.98475 Y37.68739
X28.02092 Y37.81238
X28.03299 Y37.93740
X28.03299 Y38.38840
X27.91709 Y38.59406
X27.77805 Y38.70737
X26.52070 Y38.70737
G04 P0 ( dwell for no time -- G64 should not smooth over this point )
G00 Z2.00000 ( retract )

G00 X30.30697 Y33.37340 ( rapid move to begin. )
F100.00000
G01 Z-0.20000
G04 P0 ( dwell for no time -- G64 should not smooth over this point )
F200.00000
G01 X30.30697 Y33.37340
X25.19578 Y33.37340
X25.70762 Y34.02780
X25.81204 Y35.02387
X25.92293 Y35.77370
X26.02403 Y36.22115
X26.18029 Y36.72450
X26.27241 Y37.13435
X26.37836 Y37.41746
X26.43401 Y37.43737
X27.84008 Y37.43737
X27.97205 Y37.21837
X28.03002 Y36.99940
X28.06172 Y36.80639
X28.11399 Y36.67540
X30.30697 Y36.67540
X30.30697 Y33.37340
( Piece #5, position [1;1] )

G04 P0 ( dwell for no time -- G64 should not smooth over this point )
G00 Z2.00000 ( retract )

G00 X11.78340 Y38.70841 ( rapid move to begin. )
F100.00000
G01 Z-0.20000
G04 P0 ( dwell for no time -- G64 should not smooth over this point )
F200.00000
G01 X11.78340 Y38.70841
X14.05556 Y38.70674
X14.59312 Y38.86696
X14.94898 Y39.01479
X15.17473 Y38.81570
X15.36310 Y38.70737
X16.62045 Y38.70737
X16.75949 Y38.59406
X16.85509 Y38.43737
X16.87539 Y38.38840
X16.86332 Y37.81238
X16.82715 Y37.68739
X16.76685 Y37.56237
X16.68248 Y37.43737
X15.27641 Y37.43737
X15.22076 Y37.41746
X15.11481 Y37.13435
X15.02269 Y36.72450
X14.86643 Y36.22115
X14.76533 Y35.77370
X14.65444 Y35.02387
X14.55002 Y34.02780
X14.03821 Y33.37340
X11.78340 Y33.37340
X11.78340 Y38.70841
G04 P0 ( dwell for no time -- G64 should not smooth over this point )
G00 Z2.00000 ( retract )

G00 X11.78340 Y41.24841 ( rapid move to begin. )
F100.00000
G01 Z-0.20000
G04 P0 ( dwell for no time -- G64 should not smooth over this point )
F200.00000
G01 X11.78340 Y41.24841
X14.05556 Y41.24674
X14.59312 Y41.40696
X14.94898 Y41.55479
X15.17473 Y41.35570
X15.36310 Y41.24737
X16.81913 Y41.24737
X16.86132 Y41.11237
X16.87539 Y40.97737
X16.87539 Y40.47740
X16.83970 Y40.26239
X16.68626 Y39.97737
X15.27641 Y39.97737
X15.22076 Y39.95746
X15.11481 Y39.67435
X15.02269 Y39.26450
X14.94898 Y39.01479
X14.70961 Y38.91022
X14.41840 Y38.81215
X14.05556 Y38.70674
X11.78340 Y38.70839
X11.78340 Y41.24841
G04 P0 ( dwell for no time -- G64 should not smooth over this point )
G00 Z2.00000 ( retract )

G00 X11.78340 Y43.78841 ( rapid move to begin. )
F100.00000
G01 Z-0.20000
G04 P0 ( dwell for no time -- G64 should not smooth over this point )
F200.00000
G01 X11.78340 Y43.78841
X14.05556 Y43.78674
X14.59312 Y43.94696
X14.94898 Y44.09479
X15.17473 Y43.89570
X15.36310 Y43.78737
X16.81913 Y43.78737
X16.86132 Y43.65237
X16.87539 Y43.51737
X16.87539 Y43.09540
X16.90968 Y42.77140
X16.68624 Y42.51737
X15.27641 Y42.51737
X15.22076 Y42.49746
X15.11481 Y42.21435
X15.02269 Y41.80450
X14.94898 Y41.55479
X14.70961 Y41.45022
X14.41840 Y41.35215
X14.05556 Y41.24674
X11.78340 Y41.24839
X11.78340 Y43.78841
G04 P0 ( dwell for no time -- G64 should not smooth over this point )
G00 Z2.00000 ( retract )

G00 X11.78340 Y46.32841 ( rapid move to begin. )
F100.00000
G01 Z-0.20000
G04 P0 ( dwell for no time -- G64 should not smooth over this point )
F200.00000
G01 X11.78340 Y46.32841
X14.05556 Y46.32674
X14.59312 Y46.48696
X14.94898 Y46.63479
X15.17473 Y46.43570
X15.36310 Y46.32737
X16.81913 Y46.32737
X16.90780 Y45.93837
X16.95639 Y45.81940
X16.90412 Y45.68839
X16.87242 Y45.49540
X16.81445 Y45.27637
X16.68248 Y45.05737
X15.27641 Y45.05737
X15.22076 Y45.03746
X15.11481 Y44.75435
X15.02269 Y44.34450
X14.94898 Y44.09479
X14.70961 Y43.99022
X14.05556 Y43.78674
X11.78340 Y43.78839
X11.78340 Y46.32841
G04 P0 ( dwell for no time -- G64 should not smooth over this point )
G00 Z2.00000 ( retract )

G00 X11.78340 Y48.86841 ( rapid move to begin. )
F100.00000
G01 Z-0.20000
G04 P0 ( dwell for no time -- G64 should not smooth over this point )
F200.00000
G01 X11.78340 Y48.86841
X16.90010 Y48.86737
X16.87539 Y48.54340
X16.86332 Y47.97238
X16.82715 Y47.84739
X16.76685 Y47.72237
X16.68248 Y47.59737
X15.27641 Y47.59737
X15.22076 Y47.57746
X15.11481 Y47.29435
X15.02269 Y46.88450
X14.94898 Y46.63479
X14.59312 Y46.48696
X14.05556 Y46.32674
X11.78340 Y46.32839
X11.78340 Y48.86841
G04 P0 ( dwell for no time -- G64 should not smooth over this point )
G00 Z2.00000 ( retract )

G00 X11.78340 Y51.40841 ( rapid move to begin. )
F100.00000
G01 Z-0.20000
G04 P0 ( dwell for no time -- G64 should not smooth over this point )
F200.00000
G01 X11.78340 Y51.40841
X14.05916 Y51.40656
X14.56201 Y51.25949
X14.94684 Y51.09904
X15.01659 Y50.87380
X15.12327 Y50.41205
X15.21933 Y50.15785
X15.27641 Y50.13737
X16.68248 Y50.13737
X16.76685 Y50.01238
X16.82715 Y49.88736
X16.86332 Y49.76237
X16.87539 Y49.19140
X16.90013 Y48.86740
X11.78340 Y48.86839
X11.78340 Y51.40841
G04 P0 ( dwell for no time -- G64 should not smooth over this point )
G00 Z2.00000 ( retract )

G00 X11.78340 Y53.94841 ( rapid move to begin. )
F100.00000
G01 Z-0.20000
G04 P0 ( dwell for no time -- G64 should not smooth over this point )
F200.00000
G01 X11.78340 Y53.94841
X14.05916 Y53.94656
X14.56201 Y53.79949
X14.94684 Y53.63904
X15.01659 Y53.41380
X15.12327 Y52.95205
X15.21933 Y52.69785
X15.27641 Y52.67737
X16.68248 Y52.67737
X16.81445 Y52.45837
X16.87242 Y52.23940
X16.90412 Y52.04639
X16.95639 Y51.91540
X16.90780 Y51.79640
X16.81913 Y51.40737
X15.36239 Y51.40737
X15.17384 Y51.29904
X14.94684 Y51.09904
X14.56201 Y51.25949
X14.05916 Y51.40656
X11.78340 Y51.40839
X11.78340 Y53.94841
G04 P0 ( dwell for no time -- G64 should not smooth over this point )
G00 Z2.00000 ( retract )

G00 X11.78340 Y56.48841 ( rapid move to begin. )
F100.00000
G01 Z-0.20000
G04 P0 ( dwell for no time -- G64 should not smooth over this point )
F200.00000
G01 X11.78340 Y56.48841
X14.05916 Y56.48656
X14.56201 Y56.33949
X14.94684 Y56.17904
X15.01659 Y55.95380
X15.12327 Y55.49205
X15.21933 Y55.23785
X15.27641 Y55.21737
X16.68626 Y55.21737
X16.90968 Y54.96340
X16.87539 Y54.63940
X16.87539 Y54.21740
X16.86132 Y54.08237
X16.81913 Y53.94737
X15.36239 Y53.94737
X15.17384 Y53.83904
X14.94684 Y53.63904
X14.56201 Y53.79949
X14.05916 Y53.94656
X11.78340 Y53.94839
X11.78340 Y56.48841
G04 P0 ( dwell for no time -- G64 should not smooth over this point )
G00 Z2.00000 ( retract )

G00 X11.78340 Y59.02841 ( rapid move to begin. )
F100.00000
G01 Z-0.20000
G04 P0 ( dwell for no time -- G64 should not smooth over this point )
F200.00000
G01 X11.78340 Y59.02841
X14.05916 Y59.02656
X14.56201 Y58.87949
X14.94684 Y58.71904
X15.01659 Y58.49380
X15.12327 Y58.03205
X15.21933 Y57.77785
X15.27641 Y57.75737
X16.68624 Y57.75737
X16.83970 Y57.47239
X16.87539 Y57.25737
X16.87539 Y56.75740
X16.86132 Y56.62237
X16.81913 Y56.48737
X15.36239 Y56.48737
X15.17384 Y56.37904
X14.94684 Y56.17904
X14.56201 Y56.33949
X14.05916 Y56.48656
X11.78340 Y56.48839
X11.78340 Y59.02841
G04 P0 ( dwell for no time -- G64 should not smooth over this point )
G00 Z2.00000 ( retract )

G00 X11.78340 Y61.27466 ( rapid move to begin. )
F100.00000
G01 Z-0.20000
G04 P0 ( dwell for no time -- G64 should not smooth over this point )
F200.00000
G01 X11.78340 Y61.27466
X12.19536 Y61.33054
X12.97530 Y61.52958
X13.31700 Y61.56514
X13.75500 Y61.56633
X14.01489 Y61.54881
X14.28294 Y61.50278
X14.92264 Y61.33110
X15.01659 Y61.03380
X15.12327 Y60.57205
X15.21933 Y60.31785
X15.27641 Y60.29737
X16.68248 Y60.29737
X16.76685 Y60.17238
X16.82715 Y60.04736
X16.86332 Y59.92237
X16.87539 Y59.34635
X16.75949 Y59.14068
X16.62045 Y59.02737
X15.36239 Y59.02737
X15.17384 Y58.91904
X14.94684 Y58.71904
X14.56201 Y58.87949
X14.05916 Y59.02656
X11.78340 Y59.02839
X11.78340 Y61.27466
G04 P0 ( dwell for no time -- G64 should not smooth over this point )
G00 Z2.00000 ( retract )

G00 X11.78340 Y61.27469 ( rapid move to begin. )
F100.00000
G01 Z-0.20000
G04 P0 ( dwell for no time -- G64 should not smooth over this point )
F200.00000
G01 X11.78340 Y61.27469
X11.78340 Y64.86940
X21.68940 Y64.86940
X21.68940 Y33.37340
X19.14937 Y-152.99692
X19.14937 Y62.51309
X18.60175 Y63.83120
X18.40056 Y63.96521
X18.29997 Y63.99871
X18.19939 Y64.00989
X17.19939 Y64.00989
X17.08613 Y63.99574
X16.97287 Y63.95327
X16.85962 Y63.88248
X16.63919 Y63.67621
X16.22058 Y62.66557
X15.83117 Y62.27616
X15.40026 Y62.08099
X14.92264 Y61.33110
X14.28294 Y61.50278
X14.01489 Y61.54881
X13.75500 Y61.56633
X13.31700 Y61.56514
X12.97530 Y61.52958
X12.19536 Y61.33054
X11.78340 Y61.27469
G04 P0 ( dwell for no time -- G64 should not smooth over this point )
G00 Z2.00000 ( retract )

G00 X15.27641 Y60.29737 ( rapid move to begin. )
F100.00000
G01 Z-0.20000
G04 P0 ( dwell for no time -- G64 should not smooth over this point )
F200.00000
G01 X15.27641 Y60.29737
X15.21933 Y60.31785
X15.16201 Y60.45836
X15.07971 Y60.74126
X15.01659 Y61.03380
X14.92264 Y61.33110
X15.40026 Y62.08099
X15.83117 Y62.27616
X16.22058 Y62.66557
X16.63919 Y63.67621
X16.85962 Y63.88248
X16.97287 Y63.95327
X17.08613 Y63.99574
X17.19939 Y64.00989
X18.19939 Y64.00989
X18.29997 Y63.99871
X18.40056 Y63.96521
X18.60175 Y63.83120
X19.14937 Y62.51309
X19.14937 Y61.05940
X16.95639 Y61.05940
X16.90412 Y60.92839
X16.87242 Y60.73540
X16.81445 Y60.51637
X16.68248 Y60.29737
X15.27641 Y60.29737
G04 P0 ( dwell for no time -- G64 should not smooth over this point )
G00 Z2.00000 ( retract )

G00 X15.27641 Y57.75737 ( rapid move to begin. )
F100.00000
G01 Z-0.20000
G04 P0 ( dwell for no time -- G64 should not smooth over this point )
F200.00000
G01 X15.27641 Y57.75737
X15.21933 Y57.77785
X15.16201 Y57.91836
X14.94684 Y58.71904
X15.17384 Y58.91904
X15.36239 Y59.02737
X16.62045 Y59.02737
X16.75949 Y59.14068
X16.87539 Y59.34635
X16.87539 Y59.79737
X16.86332 Y59.92237
X16.82715 Y60.04736
X16.76685 Y60.17238
X16.68248 Y60.29737
X16.81445 Y60.51637
X16.87242 Y60.73540
X16.90412 Y60.92839
X16.95639 Y61.05940
X19.14937 Y61.05940
X19.14937 Y58.01140
X16.91697 Y58.01140
X16.68624 Y57.75737
X15.27641 Y57.75737
G04 P0 ( dwell for no time -- G64 should not smooth over this point )
G00 Z2.00000 ( retract )

G00 X15.27641 Y55.21737 ( rapid move to begin. )
F100.00000
G01 Z-0.20000
G04 P0 ( dwell for no time -- G64 should not smooth over this point )
F200.00000
G01 X15.27641 Y55.21737
X15.21933 Y55.23785
X15.16201 Y55.37836
X14.94684 Y56.17904
X15.17384 Y56.37904
X15.36239 Y56.48737
X16.81913 Y56.48737
X16.86132 Y56.62237
X16.87539 Y56.75740
X16.87539 Y57.25737
X16.83970 Y57.47239
X16.68624 Y57.75737
X16.90023 Y58.00065
X16.91697 Y58.01140
X19.14937 Y58.01140
X19.14937 Y54.96340
X16.90968 Y54.96340
X16.68626 Y55.21737
X15.27641 Y55.21737
G04 P0 ( dwell for no time -- G64 should not smooth over this point )
G00 Z2.00000 ( retract )

G00 X15.27641 Y52.67737 ( rapid move to begin. )
F100.00000
G01 Z-0.20000
G04 P0 ( dwell for no time -- G64 should not smooth over this point )
F200.00000
G01 X15.27641 Y52.67737
X15.21933 Y52.69785
X15.16201 Y52.83836
X14.94684 Y53.63904
X15.17384 Y53.83904
X15.36239 Y53.94737
X16.81913 Y53.94737
X16.86132 Y54.08237
X16.87539 Y54.21740
X16.87539 Y54.63940
X16.90968 Y54.96340
X19.14937 Y54.96340
X19.14937 Y51.91540
X16.95639 Y51.91540
X16.90412 Y52.04639
X16.87242 Y52.23940
X16.81445 Y52.45837
X16.68248 Y52.67737
X15.27641 Y52.67737
G04 P0 ( dwell for no time -- G64 should not smooth over this point )
G00 Z2.00000 ( retract )

G00 X15.27641 Y50.13737 ( rapid move to begin. )
F100.00000
G01 Z-0.20000
G04 P0 ( dwell for no time -- G64 should not smooth over this point )
F200.00000
G01 X15.27641 Y50.13737
X15.21933 Y50.15785
X15.16201 Y50.29836
X14.94684 Y51.09904
X15.17384 Y51.29904
X15.36239 Y51.40737
X16.81913 Y51.40737
X16.90780 Y51.79640
X16.95639 Y51.91540
X19.14937 Y51.91540
X19.14937 Y48.86740
X16.90013 Y48.86740
X16.87539 Y49.19140
X16.86332 Y49.76237
X16.82715 Y49.88736
X16.76685 Y50.01238
X16.68248 Y50.13737
X15.27641 Y50.13737
G04 P0 ( dwell for no time -- G64 should not smooth over this point )
G00 Z2.00000 ( retract )

G00 X15.36310 Y46.32737 ( rapid move to begin. )
F100.00000
G01 Z-0.20000
G04 P0 ( dwell for no time -- G64 should not smooth over this point )
F200.00000
G01 X15.36310 Y46.32737
X15.17473 Y46.43570
X14.94898 Y46.63479
X15.02269 Y46.88450
X15.11481 Y47.29435
X15.22076 Y47.57746
X15.27641 Y47.59737
X16.68248 Y47.59737
X16.76685 Y47.72237
X16.82715 Y47.84739
X16.86332 Y47.97238
X16.87539 Y48.54340
X16.90013 Y48.86740
X19.14937 Y48.86740
X19.14937 Y45.81940
X16.95639 Y45.81940
X16.90780 Y45.93837
X16.81913 Y46.32737
X15.36310 Y46.32737
G04 P0 ( dwell for no time -- G64 should not smooth over this point )
G00 Z2.00000 ( retract )

G00 X15.36310 Y43.78737 ( rapid move to begin. )
F100.00000
G01 Z-0.20000
G04 P0 ( dwell for no time -- G64 should not smooth over this point )
F200.00000
G01 X15.36310 Y43.78737
X15.17473 Y43.89570
X14.94898 Y44.09479
X15.02269 Y44.34450
X15.11481 Y44.75435
X15.22076 Y45.03746
X15.27641 Y45.05737
X16.68248 Y45.05737
X16.81445 Y45.27637
X16.87242 Y45.49540
X16.90412 Y45.68839
X16.95639 Y45.81940
X19.14937 Y45.81940
X19.14937 Y42.77140
X16.90968 Y42.77140
X16.87539 Y43.09540
X16.87539 Y43.51737
X16.86132 Y43.65237
X16.81913 Y43.78737
X15.36310 Y43.78737
G04 P0 ( dwell for no time -- G64 should not smooth over this point )
G00 Z2.00000 ( retract )

G00 X15.36310 Y41.24737 ( rapid move to begin. )
F100.00000
G01 Z-0.20000
G04 P0 ( dwell for no time -- G64 should not smooth over this point )
F200.00000
G01 X15.36310 Y41.24737
X15.17473 Y41.35570
X14.94898 Y41.55479
X15.02269 Y41.80450
X15.11481 Y42.21435
X15.22076 Y42.49746
X15.27641 Y42.51737
X16.68624 Y42.51737
X16.90968 Y42.77140
X19.14937 Y42.77140
X19.14937 Y39.72340
X16.91692 Y39.72340
X16.68626 Y39.97737
X16.83970 Y40.26239
X16.87539 Y40.47740
X16.87539 Y40.97737
X16.86132 Y41.11237
X16.81913 Y41.24737
X15.36310 Y41.24737
G04 P0 ( dwell for no time -- G64 should not smooth over this point )
G00 Z2.00000 ( retract )

G00 X15.36310 Y38.70737 ( rapid move to begin. )
F100.00000
G01 Z-0.20000
G04 P0 ( dwell for no time -- G64 should not smooth over this point )
F200.00000
G01 X15.36310 Y38.70737
X15.17473 Y38.81570
X14.94898 Y39.01479
X15.02269 Y39.26450
X15.11481 Y39.67435
X15.17191 Y39.84237
X15.22076 Y39.95746
X15.27641 Y39.97737
X16.68626 Y39.97737
X16.91692 Y39.72340
X19.14937 Y39.72340
X19.14937 Y36.67540
X16.95639 Y36.67540
X16.90412 Y36.80639
X16.87242 Y36.99940
X16.81445 Y37.21837
X16.68248 Y37.43737
X16.76685 Y37.56237
X16.82715 Y37.68739
X16.86332 Y37.81238
X16.87539 Y37.93740
X16.87539 Y38.38840
X16.75949 Y38.59406
X16.62045 Y38.70737
X15.36310 Y38.70737
G04 P0 ( dwell for no time -- G64 should not smooth over this point )
G00 Z2.00000 ( retract )

G00 X19.14937 Y33.37340 ( rapid move to begin. )
F100.00000
G01 Z-0.20000
G04 P0 ( dwell for no time -- G64 should not smooth over this point )
F200.00000
G01 X19.14937 Y33.37340
X14.03818 Y33.37340
X14.55002 Y34.02780
X14.65444 Y35.02387
X14.76533 Y35.77370
X14.86643 Y36.22115
X15.02269 Y36.72450
X15.11481 Y37.13435
X15.22076 Y37.41746
X15.27641 Y37.43737
X16.68248 Y37.43737
X16.81445 Y37.21837
X16.87242 Y36.99940
X16.90412 Y36.80639
X16.95639 Y36.67540
X19.14937 Y36.67540
X19.14937 Y33.37340
( Piece #6, position [2;1] )

G04 P0 ( dwell for no time -- G64 should not smooth over this point )
G00 Z2.00000 ( retract )

G00 X0.62580 Y38.70841 ( rapid move to begin. )
F100.00000
G01 Z-0.20000
G04 P0 ( dwell for no time -- G64 should not smooth over this point )
F200.00000
G01 X0.62580 Y38.70841
X2.89796 Y38.70674
X3.43552 Y38.86696
X3.79138 Y39.01479
X4.01713 Y38.81570
X4.20550 Y38.70737
X5.46285 Y38.70737
X5.60189 Y38.59406
X5.69749 Y38.43737
X5.71779 Y38.38840
X5.70572 Y37.81238
X5.66955 Y37.68739
X5.60925 Y37.56237
X5.52488 Y37.43737
X4.11881 Y37.43737
X4.06316 Y37.41746
X3.95721 Y37.13435
X3.86509 Y36.72450
X3.70883 Y36.22115
X3.60773 Y35.77370
X3.49684 Y35.02387
X3.39242 Y34.02780
X2.88061 Y33.37340
X0.62580 Y33.37340
X0.62580 Y38.70841
G04 P0 ( dwell for no time -- G64 should not smooth over this point )
G00 Z2.00000 ( retract )

G00 X0.62580 Y41.24841 ( rapid move to begin. )
F100.00000
G01 Z-0.20000
G04 P0 ( dwell for no time -- G64 should not smooth over this point )
F200.00000
G01 X0.62580 Y41.24841
X2.89796 Y41.24674
X3.43552 Y41.40696
X3.79138 Y41.55479
X4.01713 Y41.35570
X4.20550 Y41.24737
X5.66153 Y41.24737
X5.70372 Y41.11237
X5.71779 Y40.97737
X5.71779 Y40.47740
X5.68210 Y40.26239
X5.52866 Y39.97737
X4.11881 Y39.97737
X4.06316 Y39.95746
X3.95721 Y39.67435
X3.86509 Y39.26450
X3.79138 Y39.01479
X3.55201 Y38.91022
X3.26080 Y38.81215
X2.89796 Y38.70674
X0.62580 Y38.70839
X0.62580 Y41.24841
G04 P0 ( dwell for no time -- G64 should not smooth over this point )
G00 Z2.00000 ( retract )

G00 X0.62580 Y43.78841 ( rapid move to begin. )
F100.00000
G01 Z-0.20000
G04 P0 ( dwell for no time -- G64 should not smooth over this point )
F200.00000
G01 X0.62580 Y43.78841
X2.89796 Y43.78674
X3.43552 Y43.94696
X3.79138 Y44.09479
X4.01713 Y43.89570
X4.20550 Y43.78737
X5.66153 Y43.78737
X5.70372 Y43.65237
X5.71779 Y43.51737
X5.71779 Y43.09540
X5.75208 Y42.77140
X5.52864 Y42.51737
X4.11881 Y42.51737
X4.06316 Y42.49746
X3.95721 Y42.21435
X3.86509 Y41.80450
X3.79138 Y41.55479
X3.55201 Y41.45022
X3.26080 Y41.35215
X2.89796 Y41.24674
X0.62580 Y41.24839
X0.62580 Y43.78841
G04 P0 ( dwell for no time -- G64 should not smooth over this point )
G00 Z2.00000 ( retract )

G00 X0.62580 Y46.32841 ( rapid move to begin. )
F100.00000
G01 Z-0.20000
G04 P0 ( dwell for no time -- G64 should not smooth over this point )
F200.00000
G01 X0.62580 Y46.32841
X2.89796 Y46.32674
X3.43552 Y46.48696
X3.79138 Y46.63479
X4.01713 Y46.43570
X4.20550 Y46.32737
X5.66153 Y46.32737
X5.75020 Y45.93837
X5.79879 Y45.81940
X5.74652 Y45.68839
X5.71482 Y45.49540
X5.65685 Y45.27637
X5.52488 Y45.05737
X4.11881 Y45.05737
X4.06316 Y45.03746
X3.95721 Y44.75435
X3.86509 Y44.34450
X3.79138 Y44.09479
X3.55201 Y43.99022
X2.89796 Y43.78674
X0.62580 Y43.78839
X0.62580 Y46.32841
G04 P0 ( dwell for no time -- G64 should not smooth over this point )
G00 Z2.00000 ( retract )

G00 X0.62580 Y48.86841 ( rapid move to begin. )
F100.00000
G01 Z-0.20000
G04 P0 ( dwell for no time -- G64 should not smooth over this point )
F200.00000
G01 X0.62580 Y48.86841
X5.74250 Y48.86737
X5.71779 Y48.54340
X5.70572 Y47.97238
X5.66955 Y47.84739
X5.60925 Y47.72237
X5.52488 Y47.59737
X4.11881 Y47.59737
X4.06316 Y47.57746
X3.95721 Y47.29435
X3.86509 Y46.88450
X3.79138 Y46.63479
X3.43552 Y46.48696
X2.89796 Y46.32674
X0.62580 Y46.32839
X0.62580 Y48.86841
G04 P0 ( dwell for no time -- G64 should not smooth over this point )
G00 Z2.00000 ( retract )

G00 X0.62580 Y51.40841 ( rapid move to begin. )
F100.00000
G01 Z-0.20000
G04 P0 ( dwell for no time -- G64 should not smooth over this point )
F200.00000
G01 X0.62580 Y51.40841
X2.90156 Y51.40656
X3.40441 Y51.25949
X3.78924 Y51.09904
X3.85899 Y50.87380
X3.96567 Y50.41205
X4.06173 Y50.15785
X4.11881 Y50.13737
X5.52488 Y50.13737
X5.60925 Y50.01238
X5.66955 Y49.88736
X5.70572 Y49.76237
X5.71779 Y49.19140
X5.74253 Y48.86740
X0.62580 Y48.86839
X0.62580 Y51.40841
G04 P0 ( dwell for no time -- G64 should not smooth over this point )
G00 Z2.00000 ( retract )

G00 X0.62580 Y53.94841 ( rapid move to begin. )
F100.00000
G01 Z-0.20000
G04 P0 ( dwell for no time -- G64 should not smooth over this point )
F200.00000
G01 X0.62580 Y53.94841
X2.90156 Y53.94656
X3.40441 Y53.79949
X3.78924 Y53.63904
X3.85899 Y53.41380
X3.96567 Y52.95205
X4.06173 Y52.69785
X4.11881 Y52.67737
X5.52488 Y52.67737
X5.65685 Y52.45837
X5.71482 Y52.23940
X5.74652 Y52.04639
X5.79879 Y51.91540
X5.75020 Y51.79640
X5.66153 Y51.40737
X4.20479 Y51.40737
X4.01624 Y51.29904
X3.78924 Y51.09904
X3.40441 Y51.25949
X2.90156 Y51.40656
X0.62580 Y51.40839
X0.62580 Y53.94841
G04 P0 ( dwell for no time -- G64 should not smooth over this point )
G00 Z2.00000 ( retract )

G00 X0.62580 Y56.48841 ( rapid move to begin. )
F100.00000
G01 Z-0.20000
G04 P0 ( dwell for no time -- G64 should not smooth over this point )
F200.00000
G01 X0.62580 Y56.48841
X2.90156 Y56.48656
X3.40441 Y56.33949
X3.78924 Y56.17904
X3.85899 Y55.95380
X3.96567 Y55.49205
X4.06173 Y55.23785
X4.11881 Y55.21737
X5.52866 Y55.21737
X5.75208 Y54.96340
X5.71779 Y54.63940
X5.71779 Y54.21740
X5.70372 Y54.08237
X5.66153 Y53.94737
X4.20479 Y53.94737
X4.01624 Y53.83904
X3.78924 Y53.63904
X3.40441 Y53.79949
X2.90156 Y53.94656
X0.62580 Y53.94839
X0.62580 Y56.48841
G04 P0 ( dwell for no time -- G64 should not smooth over this point )
G00 Z2.00000 ( retract )

G00 X0.62580 Y59.02841 ( rapid move to begin. )
F100.00000
G01 Z-0.20000
G04 P0 ( dwell for no time -- G64 should not smooth over this point )
F200.00000
G01 X0.62580 Y59.02841
X2.90156 Y59.02656
X3.40441 Y58.87949
X3.78924 Y58.71904
X3.85899 Y58.49380
X3.96567 Y58.03205
X4.06173 Y57.77785
X4.11881 Y57.75737
X5.52864 Y57.75737
X5.68210 Y57.47239
X5.71779 Y57.25737
X5.71779 Y56.75740
X5.70372 Y56.62237
X5.66153 Y56.48737
X4.20479 Y56.48737
X4.01624 Y56.37904
X3.78924 Y56.17904
X3.40441 Y56.33949
X2.90156 Y56.48656
X0.62580 Y56.48839
X0.62580 Y59.02841
G04 P0 ( dwell for no time -- G64 should not smooth over this point )
G00 Z2.00000 ( retract )

G00 X0.62580 Y61.27466 ( rapid move to begin. )
F100.00000
G01 Z-0.20000
G04 P0 ( dwell for no time -- G64 should not smooth over this point )
F200.00000
G01 X0.62580 Y61.27466
X1.03776 Y61.33054
X1.81770 Y61.52958
X2.15940 Y61.56514
X2.59740 Y61.56633
X2.85729 Y61.54881
X3.12534 Y61.50278
X3.76504 Y61.33110
X3.85899 Y61.03380
X3.96567 Y60.57205
X4.06173 Y60.31785
X4.11881 Y60.29737
X5.52488 Y60.29737
X5.60925 Y60.17238
X5.66955 Y60.04736
X5.70572 Y59.92237
X5.71779 Y59.34635
X5.60189 Y59.14068
X5.46285 Y59.02737
X4.20479 Y59.02737
X4.01624 Y58.91904
X3.78924 Y58.71904
X3.40441 Y58.87949
X2.90156 Y59.02656
X0.62580 Y59.02839
X0.62580 Y61.27466
G04 P0 ( dwell for no time -- G64 should not smooth over this point )
G00 Z2.00000 ( retract )

G00 X0.62580 Y61.27469 ( rapid move to begin. )
F100.00000
G01 Z-0.20000
G04 P0 ( dwell for no time -- G64 should not smooth over this point )
F200.00000
G01 X0.62580 Y61.27469
X0.62580 Y64.86940
X10.53180 Y64.86940
X10.53180 Y33.37340
X7.99177 Y-152.99692
X7.99177 Y62.51309
X7.44415 Y63.83120
X7.24296 Y63.96521
X7.14237 Y63.99871
X7.04179 Y64.00989
X6.04179 Y64.00989
X5.92853 Y63.99574
X5.81527 Y63.95327
X5.70202 Y63.88248
X5.48159 Y63.67621
X5.06298 Y62.66557
X4.67357 Y62.27616
X4.24266 Y62.08099
X3.76504 Y61.33110
X3.12534 Y61.50278
X2.85729 Y61.54881
X2.59740 Y61.56633
X2.15940 Y61.56514
X1.81770 Y61.52958
X1.03776 Y61.33054
X0.62580 Y61.27469
G04 P0 ( dwell for no time -- G64 should not smooth over this point )
G00 Z2.00000 ( retract )

G00 X4.11881 Y60.29737 ( rapid move to begin. )
F100.00000
G01 Z-0.20000
G04 P0 ( dwell for no time -- G64 should not smooth over this point )
F200.00000
G01 X4.11881 Y60.29737
X4.06173 Y60.31785
X4.00441 Y60.45836
X3.92211 Y60.74126
X3.85899 Y61.03380
X3.76504 Y61.33110
X4.24266 Y62.08099
X4.67357 Y62.27616
X5.06298 Y62.66557
X5.48159 Y63.67621
X5.70202 Y63.88248
X5.81527 Y63.95327
X5.92853 Y63.99574
X6.04179 Y64.00989
X7.04179 Y64.00989
X7.14237 Y63.99871
X7.24296 Y63.96521
X7.44415 Y63.83120
X7.99177 Y62.51309
X7.99177 Y61.05940
X5.79879 Y61.05940
X5.74652 Y60.92839
X5.71482 Y60.73540
X5.65685 Y60.51637
X5.52488 Y60.29737
X4.11881 Y60.29737
G04 P0 ( dwell for no time -- G64 should not smooth over this point )
G00 Z2.00000 ( retract )

G00 X4.11881 Y57.75737 ( rapid move to begin. )
F100.00000
G01 Z-0.20000
G04 P0 ( dwell for no time -- G64 should not smooth over this point )
F200.00000
G01 X4.11881 Y57.75737
X4.06173 Y57.77785
X4.00441 Y57.91836
X3.78924 Y58.71904
X4.01624 Y58.91904
X4.20479 Y59.02737
X5.46285 Y59.02737
X5.60189 Y59.14068
X5.71779 Y59.34635
X5.71779 Y59.79737
X5.70572 Y59.92237
X5.66955 Y60.04736
X5.60925 Y60.17238
X5.52488 Y60.29737
X5.65685 Y60.51637
X5.71482 Y60.73540
X5.74652 Y60.92839
X5.79879 Y61.05940
X7.99177 Y61.05940
X7.99177 Y58.01140
X5.75937 Y58.01140
X5.52864 Y57.75737
X4.11881 Y57.75737
G04 P0 ( dwell for no time -- G64 should not smooth over this point )
G00 Z2.00000 ( retract )

G00 X4.11881 Y55.21737 ( rapid move to begin. )
F100.00000
G01 Z-0.20000
G04 P0 ( dwell for no time -- G64 should not smooth over this point )
F200.00000
G01 X4.11881 Y55.21737
X4.06173 Y55.23785
X4.00441 Y55.37836
X3.78924 Y56.17904
X4.01624 Y56.37904
X4.20479 Y56.48737
X5.66153 Y56.48737
X5.70372 Y56.62237
X5.71779 Y56.75740
X5.71779 Y57.25737
X5.68210 Y57.47239
X5.52864 Y57.75737
X5.74263 Y58.00065
X5.75937 Y58.01140
X7.99177 Y58.01140
X7.99177 Y54.96340
X5.75208 Y54.96340
X5.52866 Y55.21737
X4.11881 Y55.21737
G04 P0 ( dwell for no time -- G64 should not smooth over this point )
G00 Z2.00000 ( retract )

G00 X4.11881 Y52.67737 ( rapid move to begin. )
F100.00000
G01 Z-0.20000
G04 P0 ( dwell for no time -- G64 should not smooth over this point )
F200.00000
G01 X4.11881 Y52.67737
X4.06173 Y52.69785
X4.00441 Y52.83836
X3.78924 Y53.63904
X4.01624 Y53.83904
X4.20479 Y53.94737
X5.66153 Y53.94737
X5.70372 Y54.08237
X5.71779 Y54.21740
X5.71779 Y54.63940
X5.75208 Y54.96340
X7.99177 Y54.96340
X7.99177 Y51.91540
X5.79879 Y51.91540
X5.74652 Y52.04639
X5.71482 Y52.23940
X5.65685 Y52.45837
X5.52488 Y52.67737
X4.11881 Y52.67737
G04 P0 ( dwell for no time -- G64 should not smooth over this point )
G00 Z2.00000 ( retract )

G00 X4.11881 Y50.13737 ( rapid move to begin. )
F100.00000
G01 Z-0.20000
G04 P0 ( dwell for no time -- G64 should not smooth over this point )
F200.00000
G01 X4.11881 Y50.13737
X4.06173 Y50.15785
X4.00441 Y50.29836
X3.78924 Y51.09904
X4.01624 Y51.29904
X4.20479 Y51.40737
X5.66153 Y51.40737
X5.75020 Y51.79640
X5.79879 Y51.91540
X7.99177 Y51.91540
X7.99177 Y48.86740
X5.74253 Y48.86740
X5.71779 Y49.19140
X5.70572 Y49.76237
X5.66955 Y49.88736
X5.60925 Y50.01238
X5.52488 Y50.13737
X4.11881 Y50.13737
G04 P0 ( dwell for no time -- G64 should not smooth over this point )
G00 Z2.00000 ( retract )

G00 X4.20550 Y46.32737 ( rapid move to begin. )
F100.00000
G01 Z-0.20000
G04 P0 ( dwell for no time -- G64 should not smooth over this point )
F200.00000
G01 X4.20550 Y46.32737
X4.01713 Y46.43570
X3.79138 Y46.63479
X3.86509 Y46.88450
X3.95721 Y47.29435
X4.06316 Y47.57746
X4.11881 Y47.59737
X5.52488 Y47.59737
X5.60925 Y47.72237
X5.66955 Y47.84739
X5.70572 Y47.97238
X5.71779 Y48.54340
X5.74253 Y48.86740
X7.99177 Y48.86740
X7.99177 Y45.81940
X5.79879 Y45.81940
X5.75020 Y45.93837
X5.66153 Y46.32737
X4.20550 Y46.32737
G04 P0 ( dwell for no time -- G64 should not smooth over this point )
G00 Z2.00000 ( retract )

G00 X4.20550 Y43.78737 ( rapid move to begin. )
F100.00000
G01 Z-0.20000
G04 P0 ( dwell for no time -- G64 should not smooth over this point )
F200.00000
G01 X4.20550 Y43.78737
X4.01713 Y43.89570
X3.79138 Y44.09479
X3.86509 Y44.34450
X3.95721 Y44.75435
X4.06316 Y45.03746
X4.11881 Y45.05737
X5.52488 Y45.05737
X5.65685 Y45.27637
X5.71482 Y45.49540
X5.74652 Y45.68839
X5.79879 Y45.81940
X7.99177 Y45.81940
X7.99177 Y42.77140
X5.75208 Y42.77140
X5.71779 Y43.09540
X5.71779 Y43.51737
X5.70372 Y43.65237
X5.66153 Y43.78737
X4.20550 Y43.78737
G04 P0 ( dwell for no time -- G64 should not smooth over this point )
G00 Z2.00000 ( retract )

G00 X4.20550 Y41.24737 ( rapid move to begin. )
F100.00000
G01 Z-0.20000
G04 P0 ( dwell for no time -- G64 should not smooth over this point )
F200.00000
G01 X4.20550 Y41.24737
X4.01713 Y41.35570
X3.79138 Y41.55479
X3.86509 Y41.80450
X3.95721 Y42.21435
X4.06316 Y42.49746
X4.11881 Y42.51737
X5.52864 Y42.51737
X5.75208 Y42.77140
X7.99177 Y42.77140
X7.99177 Y39.72340
X5.75932 Y39.72340
X5.52866 Y39.97737
X5.68210 Y40.26239
X5.71779 Y40.47740
X5.71779 Y40.97737
X5.70372 Y41.11237
X5.66153 Y41.24737
X4.20550 Y41.24737
G04 P0 ( dwell for no time -- G64 should not smooth over this point )
G00 Z2.00000 ( retract )

G00 X4.20550 Y38.70737 ( rapid move to begin. )
F100.00000
G01 Z-0.20000
G04 P0 ( dwell for no time -- G64 should not smooth over this point )
F200.00000
G01 X4.20550 Y38.70737
X4.01713 Y38.81570
X3.79138 Y39.01479
X3.86509 Y39.26450
X3.95721 Y39.67435
X4.01431 Y39.84237
X4.06316 Y39.95746
X4.11881 Y39.97737
X5.52866 Y39.97737
X5.75932 Y39.72340
X7.99177 Y39.72340
X7.99177 Y36.67540
X5.79879 Y36.67540
X5.74652 Y36.80639
X5.71482 Y36.99940
X5.65685 Y37.21837
X5.52488 Y37.43737
X5.60925 Y37.56237
X5.66955 Y37.68739
X5.70572 Y37.81238
X5.71779 Y37.93740
X5.71779 Y38.38840
X5.60189 Y38.59406
X5.46285 Y38.70737
X4.20550 Y38.70737
G04 P0 ( dwell for no time -- G64 should not smooth over this point )
G00 Z2.00000 ( retract )

G00 X7.99177 Y33.37340 ( rapid move to begin. )
F100.00000
G01 Z-0.20000
G04 P0 ( dwell for no time -- G64 should not smooth over this point )
F200.00000
G01 X7.99177 Y33.37340
X2.88058 Y33.37340
X3.39242 Y34.02780
X3.49684 Y35.02387
X3.60773 Y35.77370
X3.70883 Y36.22115
X3.86509 Y36.72450
X3.95721 Y37.13435
X4.06316 Y37.41746
X4.11881 Y37.43737
X5.52488 Y37.43737
X5.65685 Y37.21837
X5.71482 Y36.99940
X5.74652 Y36.80639
X5.79879 Y36.67540
X7.99177 Y36.67540
X7.99177 Y33.37340
( Piece #7, position [0;2] )

G04 P0 ( dwell for no time -- G64 should not smooth over this point )
G00 Z2.00000 ( retract )

G00 X0.62580 Y71.45601 ( rapid move to begin. )
F100.00000
G01 Z-0.20000
G04 P0 ( dwell for no time -- G64 should not smooth over this point )
F200.00000
G01 X0.62580 Y71.45601
X2.89796 Y71.45434
X3.43552 Y71.61456
X3.79138 Y71.76239
X4.01713 Y71.56330
X4.20550 Y71.45497
X5.46285 Y71.45497
X5.60189 Y71.34166
X5.69749 Y71.18497
X5.71779 Y71.13600
X5.70572 Y70.55998
X5.66955 Y70.43498
X5.60925 Y70.30997
X5.52488 Y70.18497
X4.11881 Y70.18497
X4.06316 Y70.16506
X3.95721 Y69.88195
X3.86509 Y69.47210
X3.70883 Y68.96874
X3.60773 Y68.52130
X3.49684 Y67.77146
X3.39242 Y66.77540
X2.88061 Y66.12100
X0.62580 Y66.12100
X0.62580 Y71.45601
G04 P0 ( dwell for no time -- G64 should not smooth over this point )
G00 Z2.00000 ( retract )

G00 X0.62580 Y73.99601 ( rapid move to begin. )
F100.00000
G01 Z-0.20000
G04 P0 ( dwell for no time -- G64 should not smooth over this point )
F200.00000
G01 X0.62580 Y73.99601
X2.89796 Y73.99434
X3.43552 Y74.15456
X3.79138 Y74.30239
X4.01713 Y74.10330
X4.20550 Y73.99497
X5.66153 Y73.99497
X5.70372 Y73.85997
X5.71779 Y73.72497
X5.71779 Y73.22500
X5.68210 Y73.00999
X5.52866 Y72.72497
X4.11881 Y72.72497
X4.06316 Y72.70506
X3.95721 Y72.42195
X3.86509 Y72.01210
X3.79138 Y71.76239
X3.55201 Y71.65782
X3.26080 Y71.55975
X2.89796 Y71.45434
X0.62580 Y71.45599
X0.62580 Y73.99601
G04 P0 ( dwell for no time -- G64 should not smooth over this point )
G00 Z2.00000 ( retract )

G00 X0.62580 Y76.53601 ( rapid move to begin. )
F100.00000
G01 Z-0.20000
G04 P0 ( dwell for no time -- G64 should not smooth over this point )
F200.00000
G01 X0.62580 Y76.53601
X2.89796 Y76.53434
X3.43552 Y76.69456
X3.79138 Y76.84239
X4.01713 Y76.64330
X4.20550 Y76.53497
X5.66153 Y76.53497
X5.70372 Y76.39997
X5.71779 Y76.26497
X5.71779 Y75.84300
X5.75208 Y75.51900
X5.52864 Y75.26497
X4.11881 Y75.26497
X4.06316 Y75.24506
X3.95721 Y74.96195
X3.86509 Y74.55210
X3.79138 Y74.30239
X3.55201 Y74.19782
X3.26080 Y74.09975
X2.89796 Y73.99434
X0.62580 Y73.99599
X0.62580 Y76.53601
G04 P0 ( dwell for no time -- G64 should not smooth over this point )
G00 Z2.00000 ( retract )

G00 X0.62580 Y79.07601 ( rapid move to begin. )
F100.00000
G01 Z-0.20000
G04 P0 ( dwell for no time -- G64 should not smooth over this point )
F200.00000
G01 X0.62580 Y79.07601
X2.89796 Y79.07434
X3.43552 Y79.23456
X3.79138 Y79.38239
X4.01713 Y79.18330
X4.20550 Y79.07497
X5.66153 Y79.07497
X5.75020 Y78.68597
X5.79879 Y78.56700
X5.74652 Y78.43598
X5.71482 Y78.24300
X5.65685 Y78.02397
X5.52488 Y77.80497
X4.11881 Y77.80497
X4.06316 Y77.78506
X3.95721 Y77.50195
X3.86509 Y77.09210
X3.79138 Y76.84239
X3.55201 Y76.73782
X2.89796 Y76.53434
X0.62580 Y76.53599
X0.62580 Y79.07601
G04 P0 ( dwell for no time -- G64 should not smooth over this point )
G00 Z2.00000 ( retract )

G00 X0.62580 Y81.61601 ( rapid move to begin. )
F100.00000
G01 Z-0.20000
G04 P0 ( dwell for no time -- G64 should not smooth over this point )
F200.00000
G01 X0.62580 Y81.61601
X5.74250 Y81.61497
X5.71779 Y81.29100
X5.70572 Y80.71998
X5.66955 Y80.59498
X5.60925 Y80.46997
X5.52488 Y80.34497
X4.11881 Y80.34497
X4.06316 Y80.32506
X3.95721 Y80.04195
X3.86509 Y79.63210
X3.79138 Y79.38239
X3.43552 Y79.23456
X2.89796 Y79.07434
X0.62580 Y79.07599
X0.62580 Y81.61601
G04 P0 ( dwell for no time -- G64 should not smooth over this point )
G00 Z2.00000 ( retract )

G00 X0.62580 Y84.15601 ( rapid move to begin. )
F100.00000
G01 Z-0.20000
G04 P0 ( dwell for no time -- G64 should not smooth over this point )
F200.00000
G01 X0.62580 Y84.15601
X2.90156 Y84.15416
X3.40441 Y84.00709
X3.78924 Y83.84664
X3.85899 Y83.62139
X3.96567 Y83.15965
X4.06173 Y82.90544
X4.11881 Y82.88497
X5.52488 Y82.88497
X5.60925 Y82.75998
X5.66955 Y82.63496
X5.70572 Y82.50997
X5.71779 Y81.93900
X5.74253 Y81.61500
X0.62580 Y81.61599
X0.62580 Y84.15601
G04 P0 ( dwell for no time -- G64 should not smooth over this point )
G00 Z2.00000 ( retract )

G00 X0.62580 Y86.69601 ( rapid move to begin. )
F100.00000
G01 Z-0.20000
G04 P0 ( dwell for no time -- G64 should not smooth over this point )
F200.00000
G01 X0.62580 Y86.69601
X2.90156 Y86.69416
X3.40441 Y86.54709
X3.78924 Y86.38664
X3.85899 Y86.16139
X3.96567 Y85.69965
X4.06173 Y85.44544
X4.11881 Y85.42497
X5.52488 Y85.42497
X5.65685 Y85.20597
X5.71482 Y84.98700
X5.74652 Y84.79399
X5.79879 Y84.66300
X5.75020 Y84.54400
X5.66153 Y84.15497
X4.20479 Y84.15497
X4.01624 Y84.04664
X3.78924 Y83.84664
X3.40441 Y84.00709
X2.90156 Y84.15416
X0.62580 Y84.15599
X0.62580 Y86.69601
G04 P0 ( dwell for no time -- G64 should not smooth over this point )
G00 Z2.00000 ( retract )

G00 X0.62580 Y89.23601 ( rapid move to begin. )
F100.00000
G01 Z-0.20000
G04 P0 ( dwell for no time -- G64 should not smooth over this point )
F200.00000
G01 X0.62580 Y89.23601
X2.90156 Y89.23416
X3.40441 Y89.08709
X3.78924 Y88.92664
X3.85899 Y88.70139
X3.96567 Y88.23965
X4.06173 Y87.98544
X4.11881 Y87.96497
X5.52866 Y87.96497
X5.75208 Y87.71100
X5.71779 Y87.38700
X5.71779 Y86.96500
X5.70372 Y86.82997
X5.66153 Y86.69497
X4.20479 Y86.69497
X4.01624 Y86.58664
X3.78924 Y86.38664
X3.40441 Y86.54709
X2.90156 Y86.69416
X0.62580 Y86.69599
X0.62580 Y89.23601
G04 P0 ( dwell for no time -- G64 should not smooth over this point )
G00 Z2.00000 ( retract )

G00 X0.62580 Y91.77601 ( rapid move to begin. )
F100.00000
G01 Z-0.20000
G04 P0 ( dwell for no time -- G64 should not smooth over this point )
F200.00000
G01 X0.62580 Y91.77601
X2.90156 Y91.77416
X3.40441 Y91.62709
X3.78924 Y91.46664
X3.85899 Y91.24139
X3.96567 Y90.77965
X4.06173 Y90.52544
X4.11881 Y90.50497
X5.52864 Y90.50497
X5.68210 Y90.21998
X5.71779 Y90.00497
X5.71779 Y89.50500
X5.70372 Y89.36997
X5.66153 Y89.23497
X4.20479 Y89.23497
X4.01624 Y89.12664
X3.78924 Y88.92664
X3.40441 Y89.08709
X2.90156 Y89.23416
X0.62580 Y89.23599
X0.62580 Y91.77601
G04 P0 ( dwell for no time -- G64 should not smooth over this point )
G00 Z2.00000 ( retract )

G00 X0.62580 Y94.02226 ( rapid move to begin. )
F100.00000
G01 Z-0.20000
G04 P0 ( dwell for no time -- G64 should not smooth over this point )
F200.00000
G01 X0.62580 Y94.02226
X1.03776 Y94.07814
X1.81770 Y94.27718
X2.15940 Y94.31274
X2.59740 Y94.31393
X2.85729 Y94.29641
X3.12534 Y94.25038
X3.76504 Y94.07870
X3.85899 Y93.78139
X3.96567 Y93.31965
X4.06173 Y93.06544
X4.11881 Y93.04497
X5.52488 Y93.04497
X5.60925 Y92.91998
X5.66955 Y92.79496
X5.70572 Y92.66997
X5.71779 Y92.09395
X5.60189 Y91.88828
X5.46285 Y91.77497
X4.20479 Y91.77497
X4.01624 Y91.66664
X3.78924 Y91.46664
X3.40441 Y91.62709
X2.90156 Y91.77416
X0.62580 Y91.77599
X0.62580 Y94.02226
G04 P0 ( dwell for no time -- G64 should not smooth over this point )
G00 Z2.00000 ( retract )

G00 X0.62580 Y94.02229 ( rapid move to begin. )
F100.00000
G01 Z-0.20000
G04 P0 ( dwell for no time -- G64 should not smooth over this point )
F200.00000
G01 X0.62580 Y94.02229
X0.62580 Y97.61700
X10.53180 Y97.61700
X10.53180 Y66.12100
X7.99177 Y-120.24932
X7.99177 Y95.26069
X7.44415 Y96.57880
X7.24296 Y96.71281
X7.14237 Y96.74631
X7.04179 Y96.75749
X6.04179 Y96.75749
X5.92853 Y96.74334
X5.81527 Y96.70087
X5.70202 Y96.63008
X5.48159 Y96.42381
X5.06298 Y95.41317
X4.67357 Y95.02376
X4.24266 Y94.82859
X3.76504 Y94.07870
X3.12534 Y94.25038
X2.85729 Y94.29641
X2.59740 Y94.31393
X2.15940 Y94.31274
X1.81770 Y94.27718
X1.03776 Y94.07814
X0.62580 Y94.02229
G04 P0 ( dwell for no time -- G64 should not smooth over this point )
G00 Z2.00000 ( retract )

G00 X4.11881 Y93.04497 ( rapid move to begin. )
F100.00000
G01 Z-0.20000
G04 P0 ( dwell for no time -- G64 should not smooth over this point )
F200.00000
G01 X4.11881 Y93.04497
X4.06173 Y93.06544
X4.00441 Y93.20596
X3.92211 Y93.48886
X3.85899 Y93.78139
X3.76504 Y94.07870
X4.24266 Y94.82859
X4.67357 Y95.02376
X5.06298 Y95.41317
X5.48159 Y96.42381
X5.70202 Y96.63008
X5.81527 Y96.70087
X5.92853 Y96.74334
X6.04179 Y96.75749
X7.04179 Y96.75749
X7.14237 Y96.74631
X7.24296 Y96.71281
X7.44415 Y96.57880
X7.99177 Y95.26069
X7.99177 Y93.80700
X5.79879 Y93.80700
X5.74652 Y93.67598
X5.71482 Y93.48300
X5.65685 Y93.26397
X5.52488 Y93.04497
X4.11881 Y93.04497
G04 P0 ( dwell for no time -- G64 should not smooth over this point )
G00 Z2.00000 ( retract )

G00 X4.11881 Y90.50497 ( rapid move to begin. )
F100.00000
G01 Z-0.20000
G04 P0 ( dwell for no time -- G64 should not smooth over this point )
F200.00000
G01 X4.11881 Y90.50497
X4.06173 Y90.52544
X4.00441 Y90.66596
X3.78924 Y91.46664
X4.01624 Y91.66664
X4.20479 Y91.77497
X5.46285 Y91.77497
X5.60189 Y91.88828
X5.71779 Y92.09395
X5.71779 Y92.54497
X5.70572 Y92.66997
X5.66955 Y92.79496
X5.60925 Y92.91998
X5.52488 Y93.04497
X5.65685 Y93.26397
X5.71482 Y93.48300
X5.74652 Y93.67598
X5.79879 Y93.80700
X7.99177 Y93.80700
X7.99177 Y90.75900
X5.75937 Y90.75900
X5.52864 Y90.50497
X4.11881 Y90.50497
G04 P0 ( dwell for no time -- G64 should not smooth over this point )
G00 Z2.00000 ( retract )

G00 X4.11881 Y87.96497 ( rapid move to begin. )
F100.00000
G01 Z-0.20000
G04 P0 ( dwell for no time -- G64 should not smooth over this point )
F200.00000
G01 X4.11881 Y87.96497
X4.06173 Y87.98544
X4.00441 Y88.12596
X3.78924 Y88.92664
X4.01624 Y89.12664
X4.20479 Y89.23497
X5.66153 Y89.23497
X5.70372 Y89.36997
X5.71779 Y89.50500
X5.71779 Y90.00497
X5.68210 Y90.21998
X5.52864 Y90.50497
X5.74263 Y90.74825
X5.75937 Y90.75900
X7.99177 Y90.75900
X7.99177 Y87.71100
X5.75208 Y87.71100
X5.52866 Y87.96497
X4.11881 Y87.96497
G04 P0 ( dwell for no time -- G64 should not smooth over this point )
G00 Z2.00000 ( retract )

G00 X4.11881 Y85.42497 ( rapid move to begin. )
F100.00000
G01 Z-0.20000
G04 P0 ( dwell for no time -- G64 should not smooth over this point )
F200.00000
G01 X4.11881 Y85.42497
X4.06173 Y85.44544
X4.00441 Y85.58596
X3.78924 Y86.38664
X4.01624 Y86.58664
X4.20479 Y86.69497
X5.66153 Y86.69497
X5.70372 Y86.82997
X5.71779 Y86.96500
X5.71779 Y87.38700
X5.75208 Y87.71100
X7.99177 Y87.71100
X7.99177 Y84.66300
X5.79879 Y84.66300
X5.74652 Y84.79399
X5.71482 Y84.98700
X5.65685 Y85.20597
X5.52488 Y85.42497
X4.11881 Y85.42497
G04 P0 ( dwell for no time -- G64 should not smooth over this point )
G00 Z2.00000 ( retract )

G00 X4.11881 Y82.88497 ( rapid move to begin. )
F100.00000
G01 Z-0.20000
G04 P0 ( dwell for no time -- G64 should not smooth over this point )
F200.00000
G01 X4.11881 Y82.88497
X4.06173 Y82.90544
X4.00441 Y83.04596
X3.78924 Y83.84664
X4.01624 Y84.04664
X4.20479 Y84.15497
X5.66153 Y84.15497
X5.75020 Y84.54400
X5.79879 Y84.66300
X7.99177 Y84.66300
X7.99177 Y81.61500
X5.74253 Y81.61500
X5.71779 Y81.93900
X5.70572 Y82.50997
X5.66955 Y82.63496
X5.60925 Y82.75998
X5.52488 Y82.88497
X4.11881 Y82.88497
G04 P0 ( dwell for no time -- G64 should not smooth over this point )
G00 Z2.00000 ( retract )

G00 X4.20550 Y79.07497 ( rapid move to begin. )
F100.00000
G01 Z-0.20000
G04 P0 ( dwell for no time -- G64 should not smooth over this point )
F200.00000
G01 X4.20550 Y79.07497
X4.01713 Y79.18330
X3.79138 Y79.38239
X3.86509 Y79.63210
X3.95721 Y80.04195
X4.06316 Y80.32506
X4.11881 Y80.34497
X5.52488 Y80.34497
X5.60925 Y80.46997
X5.66955 Y80.59498
X5.70572 Y80.71998
X5.71779 Y81.29100
X5.74253 Y81.61500
X7.99177 Y81.61500
X7.99177 Y78.56700
X5.79879 Y78.56700
X5.75020 Y78.68597
X5.66153 Y79.07497
X4.20550 Y79.07497
G04 P0 ( dwell for no time -- G64 should not smooth over this point )
G00 Z2.00000 ( retract )

G00 X4.20550 Y76.53497 ( rapid move to begin. )
F100.00000
G01 Z-0.20000
G04 P0 ( dwell for no time -- G64 should not smooth over this point )
F200.00000
G01 X4.20550 Y76.53497
X4.01713 Y76.64330
X3.79138 Y76.84239
X3.86509 Y77.09210
X3.95721 Y77.50195
X4.06316 Y77.78506
X4.11881 Y77.80497
X5.52488 Y77.80497
X5.65685 Y78.02397
X5.71482 Y78.24300
X5.74652 Y78.43598
X5.79879 Y78.56700
X7.99177 Y78.56700
X7.99177 Y75.51900
X5.75208 Y75.51900
X5.71779 Y75.84300
X5.71779 Y76.26497
X5.70372 Y76.39997
X5.66153 Y76.53497
X4.20550 Y76.53497
G04 P0 ( dwell for no time -- G64 should not smooth over this point )
G00 Z2.00000 ( retract )

G00 X4.20550 Y73.99497 ( rapid move to begin. )
F100.00000
G01 Z-0.20000
G04 P0 ( dwell for no time -- G64 should not smooth over this point )
F200.00000
G01 X4.20550 Y73.99497
X4.01713 Y74.10330
X3.79138 Y74.30239
X3.86509 Y74.55210
X3.95721 Y74.96195
X4.06316 Y75.24506
X4.11881 Y75.26497
X5.52864 Y75.26497
X5.75208 Y75.51900
X7.99177 Y75.51900
X7.99177 Y72.47100
X5.75932 Y72.47100
X5.52866 Y72.72497
X5.68210 Y73.00999
X5.71779 Y73.22500
X5.71779 Y73.72497
X5.70372 Y73.85997
X5.66153 Y73.99497
X4.20550 Y73.99497
G04 P0 ( dwell for no time -- G64 should not smooth over this point )
G00 Z2.00000 ( retract )

G00 X4.20550 Y71.45497 ( rapid move to begin. )
F100.00000
G01 Z-0.20000
G04 P0 ( dwell for no time -- G64 should not smooth over this point )
F200.00000
G01 X4.20550 Y71.45497
X4.01713 Y71.56330
X3.79138 Y71.76239
X3.86509 Y72.01210
X3.95721 Y72.42195
X4.01431 Y72.58997
X4.06316 Y72.70506
X4.11881 Y72.72497
X5.52866 Y72.72497
X5.75932 Y72.47100
X7.99177 Y72.47100
X7.99177 Y69.42300
X5.79879 Y69.42300
X5.74652 Y69.55399
X5.71482 Y69.74700
X5.65685 Y69.96597
X5.52488 Y70.18497
X5.60925 Y70.30997
X5.66955 Y70.43498
X5.70572 Y70.55998
X5.71779 Y70.68500
X5.71779 Y71.13600
X5.60189 Y71.34166
X5.46285 Y71.45497
X4.20550 Y71.45497
G04 P0 ( dwell for no time -- G64 should not smooth over this point )
G00 Z2.00000 ( retract )

G00 X7.99177 Y66.12100 ( rapid move to begin. )
F100.00000
G01 Z-0.20000
G04 P0 ( dwell for no time -- G64 should not smooth over this point )
F200.00000
G01 X7.99177 Y66.12100
X2.88058 Y66.12100
X3.39242 Y66.77540
X3.49684 Y67.77146
X3.60773 Y68.52130
X3.70883 Y68.96874
X3.86509 Y69.47210
X3.95721 Y69.88195
X4.06316 Y70.16506
X4.11881 Y70.18497
X5.52488 Y70.18497
X5.65685 Y69.96597
X5.71482 Y69.74700
X5.74652 Y69.55399
X5.79879 Y69.42300
X7.99177 Y69.42300
X7.99177 Y66.12100
( Piece #8, position [1;2] )

G04 P0 ( dwell for no time -- G64 should not smooth over this point )
G00 Z2.00000 ( retract )

G00 X11.78340 Y71.45601 ( rapid move to begin. )
F100.00000
G01 Z-0.20000
G04 P0 ( dwell for no time -- G64 should not smooth over this point )
F200.00000
G01 X11.78340 Y71.45601
X14.05556 Y71.45434
X14.59312 Y71.61456
X14.94898 Y71.76239
X15.17473 Y71.56330
X15.36310 Y71.45497
X16.62045 Y71.45497
X16.75949 Y71.34166
X16.85509 Y71.18497
X16.87539 Y71.13600
X16.86332 Y70.55998
X16.82715 Y70.43498
X16.76685 Y70.30997
X16.68248 Y70.18497
X15.27641 Y70.18497
X15.22076 Y70.16506
X15.11481 Y69.88195
X15.02269 Y69.47210
X14.86643 Y68.96874
X14.76533 Y68.52130
X14.65444 Y67.77146
X14.55002 Y66.77540
X14.03821 Y66.12100
X11.78340 Y66.12100
X11.78340 Y71.45601
G04 P0 ( dwell for no time -- G64 should not smooth over this point )
G00 Z2.00000 ( retract )

G00 X11.78340 Y73.99601 ( rapid move to begin. )
F100.00000
G01 Z-0.20000
G04 P0 ( dwell for no time -- G64 should not smooth over this point )
F200.00000
G01 X11.78340 Y73.99601
X14.05556 Y73.99434
X14.59312 Y74.15456
X14.94898 Y74.30239
X15.17473 Y74.10330
X15.36310 Y73.99497
X16.81913 Y73.99497
X16.86132 Y73.85997
X16.87539 Y73.72497
X16.87539 Y73.22500
X16.83970 Y73.00999
X16.68626 Y72.72497
X15.27641 Y72.72497
X15.22076 Y72.70506
X15.11481 Y72.42195
X15.02269 Y72.01210
X14.94898 Y71.76239
X14.70961 Y71.65782
X14.41840 Y71.55975
X14.05556 Y71.45434
X11.78340 Y71.45599
X11.78340 Y73.99601
G04 P0 ( dwell for no time -- G64 should not smooth over this point )
G00 Z2.00000 ( retract )

