( pcb2gcode 1.3.2 )
( Software-independent Gcode )

G94 ( Millimeters per minute feed rate. )
G21 ( Units == Millimeters. )

G90 ( Absolute coordinates. )
S10000 ( RPM spindle speed. )
F60.00000 ( Feedrate. )

F60.00000 ( Feedrate. )
M3 ( Spindle on clockwise. )
( Piece #1, position [0;0] )

G04 P0 ( dwell for no time -- G64 should not smooth over this point )
G00 Z2.00000 ( retract )

G00 X0.12580 Y0.62580 ( rapid move to begin. )
G01 Z-0.25000 F30.00000 ( plunge. )
G04 P0 ( dwell for no time -- G64 should not smooth over this point )
F60.00000
G01 X0.12580 Y0.62580
X0.12580 Y15.62380
X0.12580 Y17.12380
X0.12580 Y32.12180
X0.16388 Y32.31314
X0.27226 Y32.47534
X0.34803 Y32.53752
X0.43446 Y32.58372
X0.62580 Y32.62180
X4.82880 Y32.62180
X6.32880 Y32.62180
X10.53180 Y32.62180
X10.72314 Y32.58372
X10.88534 Y32.47534
X10.94752 Y32.39957
X10.99372 Y32.31314
X11.03180 Y32.12180
X11.03180 Y17.12380
X11.03180 Y15.62380
X11.03180 Y0.62580
X10.99372 Y0.43446
X10.88534 Y0.27226
X10.80957 Y0.21008
X10.72314 Y0.16388
X10.53180 Y0.12580
X6.32880 Y0.12580
X4.82880 Y0.12580
X0.62580 Y0.12580
X0.43446 Y0.16388
X0.27226 Y0.27226
X0.16388 Y0.43446
X0.12580 Y0.62580
G01 Z-0.50000 F30.00000 ( plunge. )
G04 P0 ( dwell for no time -- G64 should not smooth over this point )
F60.00000
G01 X0.12580 Y0.62580
X0.12580 Y15.62380
X0.12580 Y17.12380
X0.12580 Y32.12180
X0.16388 Y32.31314
X0.27226 Y32.47534
X0.34803 Y32.53752
X0.43446 Y32.58372
X0.62580 Y32.62180
X4.82880 Y32.62180
X6.32880 Y32.62180
X10.53180 Y32.62180
X10.72314 Y32.58372
X10.88534 Y32.47534
X10.94752 Y32.39957
X10.99372 Y32.31314
X11.03180 Y32.12180
X11.03180 Y17.12380
X11.03180 Y15.62380
X11.03180 Y0.62580
X10.99372 Y0.43446
X10.88534 Y0.27226
X10.80957 Y0.21008
X10.72314 Y0.16388
X10.53180 Y0.12580
X6.32880 Y0.12580
X4.82880 Y0.12580
X0.62580 Y0.12580
X0.43446 Y0.16388
X0.27226 Y0.27226
X0.16388 Y0.43446
X0.12580 Y0.62580
G01 Z-0.75000 F30.00000 ( plunge. )
G04 P0 ( dwell for no time -- G64 should not smooth over this point )
F60.00000
G01 X0.12580 Y0.62580
X0.12580 Y15.62380
Z-0.60000
X0.12580 Y17.12380
Z-0.75000 F30.00000
F60.00000
G01 X0.12580 Y32.12180
X0.16388 Y32.31314
X0.27226 Y32.47534
X0.34803 Y32.53752
X0.43446 Y32.58372
X0.62580 Y32.62180
X4.82880 Y32.62180
Z-0.60000
X6.32880 Y32.62180
Z-0.75000 F30.00000
F60.00000
G01 X10.53180 Y32.62180
X10.72314 Y32.58372
X10.88534 Y32.47534
X10.94752 Y32.39957
X10.99372 Y32.31314
X11.03180 Y32.12180
X11.03180 Y17.12380
Z-0.60000
X11.03180 Y15.62380
Z-0.75000 F30.00000
F60.00000
G01 X11.03180 Y0.62580
X10.99372 Y0.43446
X10.88534 Y0.27226
X10.80957 Y0.21008
X10.72314 Y0.16388
X10.53180 Y0.12580
X6.32880 Y0.12580
Z-0.60000
X4.82880 Y0.12580
Z-0.75000 F30.00000
F60.00000
G01 X0.62580 Y0.12580
X0.43446 Y0.16388
X0.27226 Y0.27226
X0.16388 Y0.43446
X0.12580 Y0.62580
G01 Z-1.00000 F30.00000 ( plunge. )
G04 P0 ( dwell for no time -- G64 should not smooth over this point )
F60.00000
G01 X0.12580 Y0.62580
X0.12580 Y15.62380
Z-0.60000
X0.12580 Y17.12380
Z-1.00000 F30.00000
F60.00000
G01 X0.12580 Y32.12180
X0.16388 Y32.31314
X0.27226 Y32.47534
X0.34803 Y32.53752
X0.43446 Y32.58372
X0.62580 Y32.62180
X4.82880 Y32.62180
Z-0.60000
X6.32880 Y32.62180
Z-1.00000 F30.00000
F60.00000
G01 X10.53180 Y32.62180
X10.72314 Y32.58372
X10.88534 Y32.47534
X10.94752 Y32.39957
X10.99372 Y32.31314
X11.03180 Y32.12180
X11.03180 Y17.12380
Z-0.60000
X11.03180 Y15.62380
Z-1.00000 F30.00000
F60.00000
G01 X11.03180 Y0.62580
X10.99372 Y0.43446
X10.88534 Y0.27226
X10.80957 Y0.21008
X10.72314 Y0.16388
X10.53180 Y0.12580
X6.32880 Y0.12580
Z-0.60000
X4.82880 Y0.12580
Z-1.00000 F30.00000
F60.00000
G01 X0.62580 Y0.12580
X0.43446 Y0.16388
X0.27226 Y0.27226
X0.16388 Y0.43446
X0.12580 Y0.62580
G01 Z-1.25000 F30.00000 ( plunge. )
G04 P0 ( dwell for no time -- G64 should not smooth over this point )
F60.00000
G01 X0.12580 Y0.62580
X0.12580 Y15.62380
Z-0.60000
X0.12580 Y17.12380
Z-1.25000 F30.00000
F60.00000
G01 X0.12580 Y32.12180
X0.16388 Y32.31314
X0.27226 Y32.47534
X0.34803 Y32.53752
X0.43446 Y32.58372
X0.62580 Y32.62180
X4.82880 Y32.62180
Z-0.60000
X6.32880 Y32.62180
Z-1.25000 F30.00000
F60.00000
G01 X10.53180 Y32.62180
X10.72314 Y32.58372
X10.88534 Y32.47534
X10.94752 Y32.39957
X10.99372 Y32.31314
X11.03180 Y32.12180
X11.03180 Y17.12380
Z-0.60000
X11.03180 Y15.62380
Z-1.25000 F30.00000
F60.00000
G01 X11.03180 Y0.62580
X10.99372 Y0.43446
X10.88534 Y0.27226
X10.80957 Y0.21008
X10.72314 Y0.16388
X10.53180 Y0.12580
X6.32880 Y0.12580
Z-0.60000
X4.82880 Y0.12580
Z-1.25000 F30.00000
F60.00000
G01 X0.62580 Y0.12580
X0.43446 Y0.16388
X0.27226 Y0.27226
X0.16388 Y0.43446
X0.12580 Y0.62580
G01 Z-1.50000 F30.00000 ( plunge. )
G04 P0 ( dwell for no time -- G64 should not smooth over this point )
F60.00000
G01 X0.12580 Y0.62580
X0.12580 Y15.62380
Z-0.60000
X0.12580 Y17.12380
Z-1.50000 F30.00000
F60.00000
G01 X0.12580 Y32.12180
X0.16388 Y32.31314
X0.27226 Y32.47534
X0.34803 Y32.53752
X0.43446 Y32.58372
X0.62580 Y32.62180
X4.82880 Y32.62180
Z-0.60000
X6.32880 Y32.62180
Z-1.50000 F30.00000
F60.00000
G01 X10.53180 Y32.62180
X10.72314 Y32.58372
X10.88534 Y32.47534
X10.94752 Y32.39957
X10.99372 Y32.31314
X11.03180 Y32.12180
X11.03180 Y17.12380
Z-0.60000
X11.03180 Y15.62380
Z-1.50000 F30.00000
F60.00000
G01 X11.03180 Y0.62580
X10.99372 Y0.43446
X10.88534 Y0.27226
X10.80957 Y0.21008
X10.72314 Y0.16388
X10.53180 Y0.12580
X6.32880 Y0.12580
Z-0.60000
X4.82880 Y0.12580
Z-1.50000 F30.00000
F60.00000
G01 X0.62580 Y0.12580
X0.43446 Y0.16388
X0.27226 Y0.27226
X0.16388 Y0.43446
X0.12580 Y0.62580
G01 Z-1.75000 F30.00000 ( plunge. )
G04 P0 ( dwell for no time -- G64 should not smooth over this point )
F60.00000
G01 X0.12580 Y0.62580
X0.12580 Y15.62380
Z-0.60000
X0.12580 Y17.12380
Z-1.75000 F30.00000
F60.00000
G01 X0.12580 Y32.12180
X0.16388 Y32.31314
X0.27226 Y32.47534
X0.34803 Y32.53752
X0.43446 Y32.58372
X0.62580 Y32.62180
X4.82880 Y32.62180
Z-0.60000
X6.32880 Y32.62180
Z-1.75000 F30.00000
F60.00000
G01 X10.53180 Y32.62180
X10.72314 Y32.58372
X10.88534 Y32.47534
X10.94752 Y32.39957
X10.99372 Y32.31314
X11.03180 Y32.12180
X11.03180 Y17.12380
Z-0.60000
X11.03180 Y15.62380
Z-1.75000 F30.00000
F60.00000
G01 X11.03180 Y0.62580
X10.99372 Y0.43446
X10.88534 Y0.27226
X10.80957 Y0.21008
X10.72314 Y0.16388
X10.53180 Y0.12580
X6.32880 Y0.12580
Z-0.60000
X4.82880 Y0.12580
Z-1.75000 F30.00000
F60.00000
G01 X0.62580 Y0.12580
X0.43446 Y0.16388
X0.27226 Y0.27226
X0.16388 Y0.43446
X0.12580 Y0.62580
G01 Z-2.00000 F30.00000 ( plunge. )
G04 P0 ( dwell for no time -- G64 should not smooth over this point )
F60.00000
G01 X0.12580 Y0.62580
X0.12580 Y15.62380
Z-0.60000
X0.12580 Y17.12380
Z-2.00000 F30.00000
F60.00000
G01 X0.12580 Y32.12180
X0.16388 Y32.31314
X0.27226 Y32.47534
X0.34803 Y32.53752
X0.43446 Y32.58372
X0.62580 Y32.62180
X4.82880 Y32.62180
Z-0.60000
X6.32880 Y32.62180
Z-2.00000 F30.00000
F60.00000
G01 X10.53180 Y32.62180
X10.72314 Y32.58372
X10.88534 Y32.47534
X10.94752 Y32.39957
X10.99372 Y32.31314
X11.03180 Y32.12180
X11.03180 Y17.12380
Z-0.60000
X11.03180 Y15.62380
Z-2.00000 F30.00000
F60.00000
G01 X11.03180 Y0.62580
X10.99372 Y0.43446
X10.88534 Y0.27226
X10.80957 Y0.21008
X10.72314 Y0.16388
X10.53180 Y0.12580
X6.32880 Y0.12580
Z-0.60000
X4.82880 Y0.12580
Z-2.00000 F30.00000
F60.00000
G01 X0.62580 Y0.12580
X0.43446 Y0.16388
X0.27226 Y0.27226
X0.16388 Y0.43446
X0.12580 Y0.62580
( Piece #2, position [1;0] )

G04 P0 ( dwell for no time -- G64 should not smooth over this point )
G00 Z2.00000 ( retract )

G00 X11.28340 Y0.62580 ( rapid move to begin. )
G01 Z-0.25000 F30.00000 ( plunge. )
G04 P0 ( dwell for no time -- G64 should not smooth over this point )
F60.00000
G01 X11.28340 Y0.62580
X11.28340 Y15.62380
X11.28340 Y17.12380
X11.28340 Y32.12180
X11.32148 Y32.31314
X11.42986 Y32.47534
X11.50563 Y32.53752
X11.59206 Y32.58372
X11.78340 Y32.62180
X15.98640 Y32.62180
X17.48640 Y32.62180
X21.68940 Y32.62180
X21.88074 Y32.58372
X22.04294 Y32.47534
X22.10512 Y32.39957
X22.15132 Y32.31314
X22.18940 Y32.12180
X22.18940 Y17.12380
X22.18940 Y15.62380
X22.18940 Y0.62580
X22.15132 Y0.43446
X22.04294 Y0.27226
X21.96717 Y0.21008
X21.88074 Y0.16388
X21.68940 Y0.12580
X17.48640 Y0.12580
X15.98640 Y0.12580
X11.78340 Y0.12580
X11.59206 Y0.16388
X11.42986 Y0.27226
X11.32148 Y0.43446
X11.28340 Y0.62580
G01 Z-0.50000 F30.00000 ( plunge. )
G04 P0 ( dwell for no time -- G64 should not smooth over this point )
F60.00000
G01 X11.28340 Y0.62580
X11.28340 Y15.62380
X11.28340 Y17.12380
X11.28340 Y32.12180
X11.32148 Y32.31314
X11.42986 Y32.47534
X11.50563 Y32.53752
X11.59206 Y32.58372
X11.78340 Y32.62180
X15.98640 Y32.62180
X17.48640 Y32.62180
X21.68940 Y32.62180
X21.88074 Y32.58372
X22.04294 Y32.47534
X22.10512 Y32.39957
X22.15132 Y32.31314
X22.18940 Y32.12180
X22.18940 Y17.12380
X22.18940 Y15.62380
X22.18940 Y0.62580
X22.15132 Y0.43446
X22.04294 Y0.27226
X21.96717 Y0.21008
X21.88074 Y0.16388
X21.68940 Y0.12580
X17.48640 Y0.12580
X15.98640 Y0.12580
X11.78340 Y0.12580
X11.59206 Y0.16388
X11.42986 Y0.27226
X11.32148 Y0.43446
X11.28340 Y0.62580
G01 Z-0.75000 F30.00000 ( plunge. )
G04 P0 ( dwell for no time -- G64 should not smooth over this point )
F60.00000
G01 X11.28340 Y0.62580
X11.28340 Y15.62380
Z-0.60000
X11.28340 Y17.12380
Z-0.75000 F30.00000
F60.00000
G01 X11.28340 Y32.12180
X11.32148 Y32.31314
X11.42986 Y32.47534
X11.50563 Y32.53752
X11.59206 Y32.58372
X11.78340 Y32.62180
X15.98640 Y32.62180
Z-0.60000
X17.48640 Y32.62180
Z-0.75000 F30.00000
F60.00000
G01 X21.68940 Y32.62180
X21.88074 Y32.58372
X22.04294 Y32.47534
X22.10512 Y32.39957
X22.15132 Y32.31314
X22.18940 Y32.12180
X22.18940 Y17.12380
Z-0.60000
X22.18940 Y15.62380
Z-0.75000 F30.00000
F60.00000
G01 X22.18940 Y0.62580
X22.15132 Y0.43446
X22.04294 Y0.27226
X21.96717 Y0.21008
X21.88074 Y0.16388
X21.68940 Y0.12580
X17.48640 Y0.12580
Z-0.60000
X15.98640 Y0.12580
Z-0.75000 F30.00000
F60.00000
G01 X11.78340 Y0.12580
X11.59206 Y0.16388
X11.42986 Y0.27226
X11.32148 Y0.43446
X11.28340 Y0.62580
G01 Z-1.00000 F30.00000 ( plunge. )
G04 P0 ( dwell for no time -- G64 should not smooth over this point )
F60.00000
G01 X11.28340 Y0.62580
X11.28340 Y15.62380
Z-0.60000
X11.28340 Y17.12380
Z-1.00000 F30.00000
F60.00000
G01 X11.28340 Y32.12180
X11.32148 Y32.31314
X11.42986 Y32.47534
X11.50563 Y32.53752
X11.59206 Y32.58372
X11.78340 Y32.62180
X15.98640 Y32.62180
Z-0.60000
X17.48640 Y32.62180
Z-1.00000 F30.00000
F60.00000
G01 X21.68940 Y32.62180
X21.88074 Y32.58372
X22.04294 Y32.47534
X22.10512 Y32.39957
X22.15132 Y32.31314
X22.18940 Y32.12180
X22.18940 Y17.12380
Z-0.60000
X22.18940 Y15.62380
Z-1.00000 F30.00000
F60.00000
G01 X22.18940 Y0.62580
X22.15132 Y0.43446
X22.04294 Y0.27226
X21.96717 Y0.21008
X21.88074 Y0.16388
X21.68940 Y0.12580
X17.48640 Y0.12580
Z-0.60000
X15.98640 Y0.12580
Z-1.00000 F30.00000
F60.00000
G01 X11.78340 Y0.12580
X11.59206 Y0.16388
X11.42986 Y0.27226
X11.32148 Y0.43446
X11.28340 Y0.62580
G01 Z-1.25000 F30.00000 ( plunge. )
G04 P0 ( dwell for no time -- G64 should not smooth over this point )
F60.00000
G01 X11.28340 Y0.62580
X11.28340 Y15.62380
Z-0.60000
X11.28340 Y17.12380
Z-1.25000 F30.00000
F60.00000
G01 X11.28340 Y32.12180
X11.32148 Y32.31314
X11.42986 Y32.47534
X11.50563 Y32.53752
X11.59206 Y32.58372
X11.78340 Y32.62180
X15.98640 Y32.62180
Z-0.60000
X17.48640 Y32.62180
Z-1.25000 F30.00000
F60.00000
G01 X21.68940 Y32.62180
X21.88074 Y32.58372
X22.04294 Y32.47534
X22.10512 Y32.39957
X22.15132 Y32.31314
X22.18940 Y32.12180
X22.18940 Y17.12380
Z-0.60000
X22.18940 Y15.62380
Z-1.25000 F30.00000
F60.00000
G01 X22.18940 Y0.62580
X22.15132 Y0.43446
X22.04294 Y0.27226
X21.96717 Y0.21008
X21.88074 Y0.16388
X21.68940 Y0.12580
X17.48640 Y0.12580
Z-0.60000
X15.98640 Y0.12580
Z-1.25000 F30.00000
F60.00000
G01 X11.78340 Y0.12580
X11.59206 Y0.16388
X11.42986 Y0.27226
X11.32148 Y0.43446
X11.28340 Y0.62580
G01 Z-1.50000 F30.00000 ( plunge. )
G04 P0 ( dwell for no time -- G64 should not smooth over this point )
F60.00000
G01 X11.28340 Y0.62580
X11.28340 Y15.62380
Z-0.60000
X11.28340 Y17.12380
Z-1.50000 F30.00000
F60.00000
G01 X11.28340 Y32.12180
X11.32148 Y32.31314
X11.42986 Y32.47534
X11.50563 Y32.53752
X11.59206 Y32.58372
X11.78340 Y32.62180
X15.98640 Y32.62180
Z-0.60000
X17.48640 Y32.62180
Z-1.50000 F30.00000
F60.00000
G01 X21.68940 Y32.62180
X21.88074 Y32.58372
X22.04294 Y32.47534
X22.10512 Y32.39957
X22.15132 Y32.31314
X22.18940 Y32.12180
X22.18940 Y17.12380
Z-0.60000
X22.18940 Y15.62380
Z-1.50000 F30.00000
F60.00000
G01 X22.18940 Y0.62580
X22.15132 Y0.43446
X22.04294 Y0.27226
X21.96717 Y0.21008
X21.88074 Y0.16388
X21.68940 Y0.12580
X17.48640 Y0.12580
Z-0.60000
X15.98640 Y0.12580
Z-1.50000 F30.00000
F60.00000
G01 X11.78340 Y0.12580
X11.59206 Y0.16388
X11.42986 Y0.27226
X11.32148 Y0.43446
X11.28340 Y0.62580
G01 Z-1.75000 F30.00000 ( plunge. )
G04 P0 ( dwell for no time -- G64 should not smooth over this point )
F60.00000
G01 X11.28340 Y0.62580
X11.28340 Y15.62380
Z-0.60000
X11.28340 Y17.12380
Z-1.75000 F30.00000
F60.00000
G01 X11.28340 Y32.12180
X11.32148 Y32.31314
X11.42986 Y32.47534
X11.50563 Y32.53752
X11.59206 Y32.58372
X11.78340 Y32.62180
X15.98640 Y32.62180
Z-0.60000
X17.48640 Y32.62180
Z-1.75000 F30.00000
F60.00000
G01 X21.68940 Y32.62180
X21.88074 Y32.58372
X22.04294 Y32.47534
X22.10512 Y32.39957
X22.15132 Y32.31314
X22.18940 Y32.12180
X22.18940 Y17.12380
Z-0.60000
X22.18940 Y15.62380
Z-1.75000 F30.00000
F60.00000
G01 X22.18940 Y0.62580
X22.15132 Y0.43446
X22.04294 Y0.27226
X21.96717 Y0.21008
X21.88074 Y0.16388
X21.68940 Y0.12580
X17.48640 Y0.12580
Z-0.60000
X15.98640 Y0.12580
Z-1.75000 F30.00000
F60.00000
G01 X11.78340 Y0.12580
X11.59206 Y0.16388
X11.42986 Y0.27226
X11.32148 Y0.43446
X11.28340 Y0.62580
G01 Z-2.00000 F30.00000 ( plunge. )
G04 P0 ( dwell for no time -- G64 should not smooth over this point )
F60.00000
G01 X11.28340 Y0.62580
X11.28340 Y15.62380
Z-0.60000
X11.28340 Y17.12380
Z-2.00000 F30.00000
F60.00000
G01 X11.28340 Y32.12180
X11.32148 Y32.31314
X11.42986 Y32.47534
X11.50563 Y32.53752
X11.59206 Y32.58372
X11.78340 Y32.62180
X15.98640 Y32.62180
Z-0.60000
X17.48640 Y32.62180
Z-2.00000 F30.00000
F60.00000
G01 X21.68940 Y32.62180
X21.88074 Y32.58372
X22.04294 Y32.47534
X22.10512 Y32.39957
X22.15132 Y32.31314
X22.18940 Y32.12180
X22.18940 Y17.12380
Z-0.60000
X22.18940 Y15.62380
Z-2.00000 F30.00000
F60.00000
G01 X22.18940 Y0.62580
X22.15132 Y0.43446
X22.04294 Y0.27226
X21.96717 Y0.21008
X21.88074 Y0.16388
X21.68940 Y0.12580
X17.48640 Y0.12580
Z-0.60000
X15.98640 Y0.12580
Z-2.00000 F30.00000
F60.00000
G01 X11.78340 Y0.12580
X11.59206 Y0.16388
X11.42986 Y0.27226
X11.32148 Y0.43446
X11.28340 Y0.62580
( Piece #3, position [2;0] )

G04 P0 ( dwell for no time -- G64 should not smooth over this point )
G00 Z2.00000 ( retract )

G00 X22.44100 Y0.62580 ( rapid move to begin. )
G01 Z-0.25000 F30.00000 ( plunge. )
G04 P0 ( dwell for no time -- G64 should not smooth over this point )
F60.00000
G01 X22.44100 Y0.62580
X22.44100 Y15.62380
X22.44100 Y17.12380
X22.44100 Y32.12180
X22.47908 Y32.31314
X22.58746 Y32.47534
X22.66323 Y32.53752
X22.74966 Y32.58372
X22.94100 Y32.62180
X27.14400 Y32.62180
X28.64400 Y32.62180
X32.84700 Y32.62180
X33.03834 Y32.58372
X33.20054 Y32.47534
X33.26272 Y32.39957
X33.30892 Y32.31314
X33.34700 Y32.12180
X33.34700 Y17.12380
X33.34700 Y15.62380
X33.34700 Y0.62580
X33.30892 Y0.43446
X33.20054 Y0.27226
X33.12477 Y0.21008
X33.03834 Y0.16388
X32.84700 Y0.12580
X28.64400 Y0.12580
X27.14400 Y0.12580
X22.94100 Y0.12580
X22.74966 Y0.16388
X22.58746 Y0.27226
X22.47908 Y0.43446
X22.44100 Y0.62580
G01 Z-0.50000 F30.00000 ( plunge. )
G04 P0 ( dwell for no time -- G64 should not smooth over this point )
F60.00000
G01 X22.44100 Y0.62580
X22.44100 Y15.62380
X22.44100 Y17.12380
X22.44100 Y32.12180
X22.47908 Y32.31314
X22.58746 Y32.47534
X22.66323 Y32.53752
X22.74966 Y32.58372
X22.94100 Y32.62180
X27.14400 Y32.62180
X28.64400 Y32.62180
X32.84700 Y32.62180
X33.03834 Y32.58372
X33.20054 Y32.47534
X33.26272 Y32.39957
X33.30892 Y32.31314
X33.34700 Y32.12180
X33.34700 Y17.12380
X33.34700 Y15.62380
X33.34700 Y0.62580
X33.30892 Y0.43446
X33.20054 Y0.27226
X33.12477 Y0.21008
X33.03834 Y0.16388
X32.84700 Y0.12580
X28.64400 Y0.12580
X27.14400 Y0.12580
X22.94100 Y0.12580
X22.74966 Y0.16388
X22.58746 Y0.27226
X22.47908 Y0.43446
X22.44100 Y0.62580
G01 Z-0.75000 F30.00000 ( plunge. )
G04 P0 ( dwell for no time -- G64 should not smooth over this point )
F60.00000
G01 X22.44100 Y0.62580
X22.44100 Y15.62380
Z-0.60000
X22.44100 Y17.12380
Z-0.75000 F30.00000
F60.00000
G01 X22.44100 Y32.12180
X22.47908 Y32.31314
X22.58746 Y32.47534
X22.66323 Y32.53752
X22.74966 Y32.58372
X22.94100 Y32.62180
X27.14400 Y32.62180
Z-0.60000
X28.64400 Y32.62180
Z-0.75000 F30.00000
F60.00000
G01 X32.84700 Y32.62180
X33.03834 Y32.58372
X33.20054 Y32.47534
X33.26272 Y32.39957
X33.30892 Y32.31314
X33.34700 Y32.12180
X33.34700 Y17.12380
Z-0.60000
X33.34700 Y15.62380
Z-0.75000 F30.00000
F60.00000
G01 X33.34700 Y0.62580
X33.30892 Y0.43446
X33.20054 Y0.27226
X33.12477 Y0.21008
X33.03834 Y0.16388
X32.84700 Y0.12580
X28.64400 Y0.12580
Z-0.60000
X27.14400 Y0.12580
Z-0.75000 F30.00000
F60.00000
G01 X22.94100 Y0.12580
X22.74966 Y0.16388
X22.58746 Y0.27226
X22.47908 Y0.43446
X22.44100 Y0.62580
G01 Z-1.00000 F30.00000 ( plunge. )
G04 P0 ( dwell for no time -- G64 should not smooth over this point )
F60.00000
G01 X22.44100 Y0.62580
X22.44100 Y15.62380
Z-0.60000
X22.44100 Y17.12380
Z-1.00000 F30.00000
F60.00000
G01 X22.44100 Y32.12180
X22.47908 Y32.31314
X22.58746 Y32.47534
X22.66323 Y32.53752
X22.74966 Y32.58372
X22.94100 Y32.62180
X27.14400 Y32.62180
Z-0.60000
X28.64400 Y32.62180
Z-1.00000 F30.00000
F60.00000
G01 X32.84700 Y32.62180
X33.03834 Y32.58372
X33.20054 Y32.47534
X33.26272 Y32.39957
X33.30892 Y32.31314
X33.34700 Y32.12180
X33.34700 Y17.12380
Z-0.60000
X33.34700 Y15.62380
Z-1.00000 F30.00000
F60.00000
G01 X33.34700 Y0.62580
X33.30892 Y0.43446
X33.20054 Y0.27226
X33.12477 Y0.21008
X33.03834 Y0.16388
X32.84700 Y0.12580
X28.64400 Y0.12580
Z-0.60000
X27.14400 Y0.12580
Z-1.00000 F30.00000
F60.00000
G01 X22.94100 Y0.12580
X22.74966 Y0.16388
X22.58746 Y0.27226
X22.47908 Y0.43446
X22.44100 Y0.62580
G01 Z-1.25000 F30.00000 ( plunge. )
G04 P0 ( dwell for no time -- G64 should not smooth over this point )
F60.00000
G01 X22.44100 Y0.62580
X22.44100 Y15.62380
Z-0.60000
X22.44100 Y17.12380
Z-1.25000 F30.00000
F60.00000
G01 X22.44100 Y32.12180
X22.47908 Y32.31314
X22.58746 Y32.47534
X22.66323 Y32.53752
X22.74966 Y32.58372
X22.94100 Y32.62180
X27.14400 Y32.62180
Z-0.60000
X28.64400 Y32.62180
Z-1.25000 F30.00000
F60.00000
G01 X32.84700 Y32.62180
X33.03834 Y32.58372
X33.20054 Y32.47534
X33.26272 Y32.39957
X33.30892 Y32.31314
X33.34700 Y32.12180
X33.34700 Y17.12380
Z-0.60000
X33.34700 Y15.62380
Z-1.25000 F30.00000
F60.00000
G01 X33.34700 Y0.62580
X33.30892 Y0.43446
X33.20054 Y0.27226
X33.12477 Y0.21008
X33.03834 Y0.16388
X32.84700 Y0.12580
X28.64400 Y0.12580
Z-0.60000
X27.14400 Y0.12580
Z-1.25000 F30.00000
F60.00000
G01 X22.94100 Y0.12580
X22.74966 Y0.16388
X22.58746 Y0.27226
X22.47908 Y0.43446
X22.44100 Y0.62580
G01 Z-1.50000 F30.00000 ( plunge. )
G04 P0 ( dwell for no time -- G64 should not smooth over this point )
F60.00000
G01 X22.44100 Y0.62580
X22.44100 Y15.62380
Z-0.60000
X22.44100 Y17.12380
Z-1.50000 F30.00000
F60.00000
G01 X22.44100 Y32.12180
X22.47908 Y32.31314
X22.58746 Y32.47534
X22.66323 Y32.53752
X22.74966 Y32.58372
X22.94100 Y32.62180
X27.14400 Y32.62180
Z-0.60000
X28.64400 Y32.62180
Z-1.50000 F30.00000
F60.00000
G01 X32.84700 Y32.62180
X33.03834 Y32.58372
X33.20054 Y32.47534
X33.26272 Y32.39957
X33.30892 Y32.31314
X33.34700 Y32.12180
X33.34700 Y17.12380
Z-0.60000
X33.34700 Y15.62380
Z-1.50000 F30.00000
F60.00000
G01 X33.34700 Y0.62580
X33.30892 Y0.43446
X33.20054 Y0.27226
X33.12477 Y0.21008
X33.03834 Y0.16388
X32.84700 Y0.12580
X28.64400 Y0.12580
Z-0.60000
X27.14400 Y0.12580
Z-1.50000 F30.00000
F60.00000
G01 X22.94100 Y0.12580
X22.74966 Y0.16388
X22.58746 Y0.27226
X22.47908 Y0.43446
X22.44100 Y0.62580
G01 Z-1.75000 F30.00000 ( plunge. )
G04 P0 ( dwell for no time -- G64 should not smooth over this point )
F60.00000
G01 X22.44100 Y0.62580
X22.44100 Y15.62380
Z-0.60000
X22.44100 Y17.12380
Z-1.75000 F30.00000
F60.00000
G01 X22.44100 Y32.12180
X22.47908 Y32.31314
X22.58746 Y32.47534
X22.66323 Y32.53752
X22.74966 Y32.58372
X22.94100 Y32.62180
X27.14400 Y32.62180
Z-0.60000
X28.64400 Y32.62180
Z-1.75000 F30.00000
F60.00000
G01 X32.84700 Y32.62180
X33.03834 Y32.58372
X33.20054 Y32.47534
X33.26272 Y32.39957
X33.30892 Y32.31314
X33.34700 Y32.12180
X33.34700 Y17.12380
Z-0.60000
X33.34700 Y15.62380
Z-1.75000 F30.00000
F60.00000
G01 X33.34700 Y0.62580
X33.30892 Y0.43446
X33.20054 Y0.27226
X33.12477 Y0.21008
X33.03834 Y0.16388
X32.84700 Y0.12580
X28.64400 Y0.12580
Z-0.60000
X27.14400 Y0.12580
Z-1.75000 F30.00000
F60.00000
G01 X22.94100 Y0.12580
X22.74966 Y0.16388
X22.58746 Y0.27226
X22.47908 Y0.43446
X22.44100 Y0.62580
G01 Z-2.00000 F30.00000 ( plunge. )
G04 P0 ( dwell for no time -- G64 should not smooth over this point )
F60.00000
G01 X22.44100 Y0.62580
X22.44100 Y15.62380
Z-0.60000
X22.44100 Y17.12380
Z-2.00000 F30.00000
F60.00000
G01 X22.44100 Y32.12180
X22.47908 Y32.31314
X22.58746 Y32.47534
X22.66323 Y32.53752
X22.74966 Y32.58372
X22.94100 Y32.62180
X27.14400 Y32.62180
Z-0.60000
X28.64400 Y32.62180
Z-2.00000 F30.00000
F60.00000
G01 X32.84700 Y32.62180
X33.03834 Y32.58372
X33.20054 Y32.47534
X33.26272 Y32.39957
X33.30892 Y32.31314
X33.34700 Y32.12180
X33.34700 Y17.12380
Z-0.60000
X33.34700 Y15.62380
Z-2.00000 F30.00000
F60.00000
G01 X33.34700 Y0.62580
X33.30892 Y0.43446
X33.20054 Y0.27226
X33.12477 Y0.21008
X33.03834 Y0.16388
X32.84700 Y0.12580
X28.64400 Y0.12580
Z-0.60000
X27.14400 Y0.12580
Z-2.00000 F30.00000
F60.00000
G01 X22.94100 Y0.12580
X22.74966 Y0.16388
X22.58746 Y0.27226
X22.47908 Y0.43446
X22.44100 Y0.62580
( Piece #4, position [0;1] )

G04 P0 ( dwell for no time -- G64 should not smooth over this point )
G00 Z2.00000 ( retract )

G00 X22.44100 Y33.37340 ( rapid move to begin. )
G01 Z-0.25000 F30.00000 ( plunge. )
G04 P0 ( dwell for no time -- G64 should not smooth over this point )
F60.00000
G01 X22.44100 Y33.37340
X22.44100 Y48.37140
X22.44100 Y49.87140
X22.44100 Y64.86940
X22.47908 Y65.06074
X22.58746 Y65.22294
X22.66323 Y65.28512
X22.74966 Y65.33132
X22.94100 Y65.36940
X27.14400 Y65.36940
X28.64400 Y65.36940
X32.84700 Y65.36940
X33.03834 Y65.33132
X33.20054 Y65.22294
X33.26272 Y65.14717
X33.30892 Y65.06074
X33.34700 Y64.86940
X33.34700 Y49.87140
X33.34700 Y48.37140
X33.34700 Y33.37340
X33.30892 Y33.18206
X33.20054 Y33.01986
X33.12477 Y32.95768
X33.03834 Y32.91147
X32.84700 Y32.87340
X28.64400 Y32.87340
X27.14400 Y32.87340
X22.94100 Y32.87340
X22.74966 Y32.91147
X22.58746 Y33.01986
X22.47908 Y33.18206
X22.44100 Y33.37340
G01 Z-0.50000 F30.00000 ( plunge. )
G04 P0 ( dwell for no time -- G64 should not smooth over this point )
F60.00000
G01 X22.44100 Y33.37340
X22.44100 Y48.37140
X22.44100 Y49.87140
X22.44100 Y64.86940
X22.47908 Y65.06074
X22.58746 Y65.22294
X22.66323 Y65.28512
X22.74966 Y65.33132
X22.94100 Y65.36940
X27.14400 Y65.36940
X28.64400 Y65.36940
X32.84700 Y65.36940
X33.03834 Y65.33132
X33.20054 Y65.22294
X33.26272 Y65.14717
X33.30892 Y65.06074
X33.34700 Y64.86940
X33.34700 Y49.87140
X33.34700 Y48.37140
X33.34700 Y33.37340
X33.30892 Y33.18206
X33.20054 Y33.01986
X33.12477 Y32.95768
X33.03834 Y32.91147
X32.84700 Y32.87340
X28.64400 Y32.87340
X27.14400 Y32.87340
X22.94100 Y32.87340
X22.74966 Y32.91147
X22.58746 Y33.01986
X22.47908 Y33.18206
X22.44100 Y33.37340
G01 Z-0.75000 F30.00000 ( plunge. )
G04 P0 ( dwell for no time -- G64 should not smooth over this point )
F60.00000
G01 X22.44100 Y33.37340
X22.44100 Y48.37140
Z-0.60000
X22.44100 Y49.87140
Z-0.75000 F30.00000
F60.00000
G01 X22.44100 Y64.86940
X22.47908 Y65.06074
X22.58746 Y65.22294
X22.66323 Y65.28512
X22.74966 Y65.33132
X22.94100 Y65.36940
X27.14400 Y65.36940
Z-0.60000
X28.64400 Y65.36940
Z-0.75000 F30.00000
F60.00000
G01 X32.84700 Y65.36940
X33.03834 Y65.33132
X33.20054 Y65.22294
X33.26272 Y65.14717
X33.30892 Y65.06074
X33.34700 Y64.86940
X33.34700 Y49.87140
Z-0.60000
X33.34700 Y48.37140
Z-0.75000 F30.00000
F60.00000
G01 X33.34700 Y33.37340
X33.30892 Y33.18206
X33.20054 Y33.01986
X33.12477 Y32.95768
X33.03834 Y32.91147
X32.84700 Y32.87340
X28.64400 Y32.87340
Z-0.60000
X27.14400 Y32.87340
Z-0.75000 F30.00000
F60.00000
G01 X22.94100 Y32.87340
X22.74966 Y32.91147
X22.58746 Y33.01986
X22.47908 Y33.18206
X22.44100 Y33.37340
G01 Z-1.00000 F30.00000 ( plunge. )
G04 P0 ( dwell for no time -- G64 should not smooth over this point )
F60.00000
G01 X22.44100 Y33.37340
X22.44100 Y48.37140
Z-0.60000
X22.44100 Y49.87140
Z-1.00000 F30.00000
F60.00000
G01 X22.44100 Y64.86940
X22.47908 Y65.06074
X22.58746 Y65.22294
X22.66323 Y65.28512
X22.74966 Y65.33132
X22.94100 Y65.36940
X27.14400 Y65.36940
Z-0.60000
X28.64400 Y65.36940
Z-1.00000 F30.00000
F60.00000
G01 X32.84700 Y65.36940
X33.03834 Y65.33132
X33.20054 Y65.22294
X33.26272 Y65.14717
X33.30892 Y65.06074
X33.34700 Y64.86940
X33.34700 Y49.87140
Z-0.60000
X33.34700 Y48.37140
Z-1.00000 F30.00000
F60.00000
G01 X33.34700 Y33.37340
X33.30892 Y33.18206
X33.20054 Y33.01986
X33.12477 Y32.95768
X33.03834 Y32.91147
X32.84700 Y32.87340
X28.64400 Y32.87340
Z-0.60000
X27.14400 Y32.87340
Z-1.00000 F30.00000
F60.00000
G01 X22.94100 Y32.87340
X22.74966 Y32.91147
X22.58746 Y33.01986
X22.47908 Y33.18206
X22.44100 Y33.37340
G01 Z-1.25000 F30.00000 ( plunge. )
G04 P0 ( dwell for no time -- G64 should not smooth over this point )
F60.00000
G01 X22.44100 Y33.37340
X22.44100 Y48.37140
Z-0.60000
X22.44100 Y49.87140
Z-1.25000 F30.00000
F60.00000
G01 X22.44100 Y64.86940
X22.47908 Y65.06074
X22.58746 Y65.22294
X22.66323 Y65.28512
X22.74966 Y65.33132
X22.94100 Y65.36940
X27.14400 Y65.36940
Z-0.60000
X28.64400 Y65.36940
Z-1.25000 F30.00000
F60.00000
G01 X32.84700 Y65.36940
X33.03834 Y65.33132
X33.20054 Y65.22294
X33.26272 Y65.14717
X33.30892 Y65.06074
X33.34700 Y64.86940
X33.34700 Y49.87140
Z-0.60000
X33.34700 Y48.37140
Z-1.25000 F30.00000
F60.00000
G01 X33.34700 Y33.37340
X33.30892 Y33.18206
X33.20054 Y33.01986
X33.12477 Y32.95768
X33.03834 Y32.91147
X32.84700 Y32.87340
X28.64400 Y32.87340
Z-0.60000
X27.14400 Y32.87340
Z-1.25000 F30.00000
F60.00000
G01 X22.94100 Y32.87340
X22.74966 Y32.91147
X22.58746 Y33.01986
X22.47908 Y33.18206
X22.44100 Y33.37340
G01 Z-1.50000 F30.00000 ( plunge. )
G04 P0 ( dwell for no time -- G64 should not smooth over this point )
F60.00000
G01 X22.44100 Y33.37340
X22.44100 Y48.37140
Z-0.60000
X22.44100 Y49.87140
Z-1.50000 F30.00000
F60.00000
G01 X22.44100 Y64.86940
X22.47908 Y65.06074
X22.58746 Y65.22294
X22.66323 Y65.28512
X22.74966 Y65.33132
X22.94100 Y65.36940
X27.14400 Y65.36940
Z-0.60000
X28.64400 Y65.36940
Z-1.50000 F30.00000
F60.00000
G01 X32.84700 Y65.36940
X33.03834 Y65.33132
X33.20054 Y65.22294
X33.26272 Y65.14717
X33.30892 Y65.06074
X33.34700 Y64.86940
X33.34700 Y49.87140
Z-0.60000
X33.34700 Y48.37140
Z-1.50000 F30.00000
F60.00000
G01 X33.34700 Y33.37340
X33.30892 Y33.18206
X33.20054 Y33.01986
X33.12477 Y32.95768
X33.03834 Y32.91147
X32.84700 Y32.87340
X28.64400 Y32.87340
Z-0.60000
X27.14400 Y32.87340
Z-1.50000 F30.00000
F60.00000
G01 X22.94100 Y32.87340
X22.74966 Y32.91147
X22.58746 Y33.01986
X22.47908 Y33.18206
X22.44100 Y33.37340
G01 Z-1.75000 F30.00000 ( plunge. )
G04 P0 ( dwell for no time -- G64 should not smooth over this point )
F60.00000
G01 X22.44100 Y33.37340
X22.44100 Y48.37140
Z-0.60000
X22.44100 Y49.87140
Z-1.75000 F30.00000
F60.00000
G01 X22.44100 Y64.86940
X22.47908 Y65.06074
X22.58746 Y65.22294
X22.66323 Y65.28512
X22.74966 Y65.33132
X22.94100 Y65.36940
X27.14400 Y65.36940
Z-0.60000
X28.64400 Y65.36940
Z-1.75000 F30.00000
F60.00000
G01 X32.84700 Y65.36940
X33.03834 Y65.33132
X33.20054 Y65.22294
X33.26272 Y65.14717
X33.30892 Y65.06074
X33.34700 Y64.86940
X33.34700 Y49.87140
Z-0.60000
X33.34700 Y48.37140
Z-1.75000 F30.00000
F60.00000
G01 X33.34700 Y33.37340
X33.30892 Y33.18206
X33.20054 Y33.01986
X33.12477 Y32.95768
X33.03834 Y32.91147
X32.84700 Y32.87340
X28.64400 Y32.87340
Z-0.60000
X27.14400 Y32.87340
Z-1.75000 F30.00000
F60.00000
G01 X22.94100 Y32.87340
X22.74966 Y32.91147
X22.58746 Y33.01986
X22.47908 Y33.18206
X22.44100 Y33.37340
G01 Z-2.00000 F30.00000 ( plunge. )
G04 P0 ( dwell for no time -- G64 should not smooth over this point )
F60.00000
G01 X22.44100 Y33.37340
X22.44100 Y48.37140
Z-0.60000
X22.44100 Y49.87140
Z-2.00000 F30.00000
F60.00000
G01 X22.44100 Y64.86940
X22.47908 Y65.06074
X22.58746 Y65.22294
X22.66323 Y65.28512
X22.74966 Y65.33132
X22.94100 Y65.36940
X27.14400 Y65.36940
Z-0.60000
X28.64400 Y65.36940
Z-2.00000 F30.00000
F60.00000
G01 X32.84700 Y65.36940
X33.03834 Y65.33132
X33.20054 Y65.22294
X33.26272 Y65.14717
X33.30892 Y65.06074
X33.34700 Y64.86940
X33.34700 Y49.87140
Z-0.60000
X33.34700 Y48.37140
Z-2.00000 F30.00000
F60.00000
G01 X33.34700 Y33.37340
X33.30892 Y33.18206
X33.20054 Y33.01986
X33.12477 Y32.95768
X33.03834 Y32.91147
X32.84700 Y32.87340
X28.64400 Y32.87340
Z-0.60000
X27.14400 Y32.87340
Z-2.00000 F30.00000
F60.00000
G01 X22.94100 Y32.87340
X22.74966 Y32.91147
X22.58746 Y33.01986
X22.47908 Y33.18206
X22.44100 Y33.37340
( Piece #5, position [1;1] )

G04 P0 ( dwell for no time -- G64 should not smooth over this point )
G00 Z2.00000 ( retract )

G00 X11.28340 Y33.37340 ( rapid move to begin. )
G01 Z-0.25000 F30.00000 ( plunge. )
G04 P0 ( dwell for no time -- G64 should not smooth over this point )
F60.00000
G01 X11.28340 Y33.37340
X11.28340 Y48.37140
X11.28340 Y49.87140
X11.28340 Y64.86940
X11.32148 Y65.06074
X11.42986 Y65.22294
X11.50563 Y65.28512
X11.59206 Y65.33132
X11.78340 Y65.36940
X15.98640 Y65.36940
X17.48640 Y65.36940
X21.68940 Y65.36940
X21.88074 Y65.33132
X22.04294 Y65.22294
X22.10512 Y65.14717
X22.15132 Y65.06074
X22.18940 Y64.86940
X22.18940 Y49.87140
X22.18940 Y48.37140
X22.18940 Y33.37340
X22.15132 Y33.18206
X22.04294 Y33.01986
X21.96717 Y32.95768
X21.88074 Y32.91147
X21.68940 Y32.87340
X17.48640 Y32.87340
X15.98640 Y32.87340
X11.78340 Y32.87340
X11.59206 Y32.91147
X11.42986 Y33.01986
X11.32148 Y33.18206
X11.28340 Y33.37340
G01 Z-0.50000 F30.00000 ( plunge. )
G04 P0 ( dwell for no time -- G64 should not smooth over this point )
F60.00000
G01 X11.28340 Y33.37340
X11.28340 Y48.37140
X11.28340 Y49.87140
X11.28340 Y64.86940
X11.32148 Y65.06074
X11.42986 Y65.22294
X11.50563 Y65.28512
X11.59206 Y65.33132
X11.78340 Y65.36940
X15.98640 Y65.36940
X17.48640 Y65.36940
X21.68940 Y65.36940
X21.88074 Y65.33132
X22.04294 Y65.22294
X22.10512 Y65.14717
X22.15132 Y65.06074
X22.18940 Y64.86940
X22.18940 Y49.87140
X22.18940 Y48.37140
X22.18940 Y33.37340
X22.15132 Y33.18206
X22.04294 Y33.01986
X21.96717 Y32.95768
X21.88074 Y32.91147
X21.68940 Y32.87340
X17.48640 Y32.87340
X15.98640 Y32.87340
X11.78340 Y32.87340
X11.59206 Y32.91147
X11.42986 Y33.01986
X11.32148 Y33.18206
X11.28340 Y33.37340
G01 Z-0.75000 F30.00000 ( plunge. )
G04 P0 ( dwell for no time -- G64 should not smooth over this point )
F60.00000
G01 X11.28340 Y33.37340
X11.28340 Y48.37140
Z-0.60000
X11.28340 Y49.87140
Z-0.75000 F30.00000
F60.00000
G01 X11.28340 Y64.86940
X11.32148 Y65.06074
X11.42986 Y65.22294
X11.50563 Y65.28512
X11.59206 Y65.33132
X11.78340 Y65.36940
X15.98640 Y65.36940
Z-0.60000
X17.48640 Y65.36940
Z-0.75000 F30.00000
F60.00000
G01 X21.68940 Y65.36940
X21.88074 Y65.33132
X22.04294 Y65.22294
X22.10512 Y65.14717
X22.15132 Y65.06074
X22.18940 Y64.86940
X22.18940 Y49.87140
Z-0.60000
X22.18940 Y48.37140
Z-0.75000 F30.00000
F60.00000
G01 X22.18940 Y33.37340
X22.15132 Y33.18206
X22.04294 Y33.01986
X21.96717 Y32.95768
X21.88074 Y32.91147
X21.68940 Y32.87340
X17.48640 Y32.87340
Z-0.60000
X15.98640 Y32.87340
Z-0.75000 F30.00000
F60.00000
G01 X11.78340 Y32.87340
X11.59206 Y32.91147
X11.42986 Y33.01986
X11.32148 Y33.18206
X11.28340 Y33.37340
G01 Z-1.00000 F30.00000 ( plunge. )
G04 P0 ( dwell for no time -- G64 should not smooth over this point )
F60.00000
G01 X11.28340 Y33.37340
X11.28340 Y48.37140
Z-0.60000
X11.28340 Y49.87140
Z-1.00000 F30.00000
F60.00000
G01 X11.28340 Y64.86940
X11.32148 Y65.06074
X11.42986 Y65.22294
X11.50563 Y65.28512
X11.59206 Y65.33132
X11.78340 Y65.36940
X15.98640 Y65.36940
Z-0.60000
X17.48640 Y65.36940
Z-1.00000 F30.00000
F60.00000
G01 X21.68940 Y65.36940
X21.88074 Y65.33132
X22.04294 Y65.22294
X22.10512 Y65.14717
X22.15132 Y65.06074
X22.18940 Y64.86940
X22.18940 Y49.87140
Z-0.60000
X22.18940 Y48.37140
Z-1.00000 F30.00000
F60.00000
G01 X22.18940 Y33.37340
X22.15132 Y33.18206
X22.04294 Y33.01986
X21.96717 Y32.95768
X21.88074 Y32.91147
X21.68940 Y32.87340
X17.48640 Y32.87340
Z-0.60000
X15.98640 Y32.87340
Z-1.00000 F30.00000
F60.00000
G01 X11.78340 Y32.87340
X11.59206 Y32.91147
X11.42986 Y33.01986
X11.32148 Y33.18206
X11.28340 Y33.37340
G01 Z-1.25000 F30.00000 ( plunge. )
G04 P0 ( dwell for no time -- G64 should not smooth over this point )
F60.00000
G01 X11.28340 Y33.37340
X11.28340 Y48.37140
Z-0.60000
X11.28340 Y49.87140
Z-1.25000 F30.00000
F60.00000
G01 X11.28340 Y64.86940
X11.32148 Y65.06074
X11.42986 Y65.22294
X11.50563 Y65.28512
X11.59206 Y65.33132
X11.78340 Y65.36940
X15.98640 Y65.36940
Z-0.60000
X17.48640 Y65.36940
Z-1.25000 F30.00000
F60.00000
G01 X21.68940 Y65.36940
X21.88074 Y65.33132
X22.04294 Y65.22294
X22.10512 Y65.14717
X22.15132 Y65.06074
X22.18940 Y64.86940
X22.18940 Y49.87140
Z-0.60000
X22.18940 Y48.37140
Z-1.25000 F30.00000
F60.00000
G01 X22.18940 Y33.37340
X22.15132 Y33.18206
X22.04294 Y33.01986
X21.96717 Y32.95768
X21.88074 Y32.91147
X21.68940 Y32.87340
X17.48640 Y32.87340
Z-0.60000
X15.98640 Y32.87340
Z-1.25000 F30.00000
F60.00000
G01 X11.78340 Y32.87340
X11.59206 Y32.91147
X11.42986 Y33.01986
X11.32148 Y33.18206
X11.28340 Y33.37340
G01 Z-1.50000 F30.00000 ( plunge. )
G04 P0 ( dwell for no time -- G64 should not smooth over this point )
F60.00000
G01 X11.28340 Y33.37340
X11.28340 Y48.37140
Z-0.60000
X11.28340 Y49.87140
Z-1.50000 F30.00000
F60.00000
G01 X11.28340 Y64.86940
X11.32148 Y65.06074
X11.42986 Y65.22294
X11.50563 Y65.28512
X11.59206 Y65.33132
X11.78340 Y65.36940
X15.98640 Y65.36940
Z-0.60000
X17.48640 Y65.36940
Z-1.50000 F30.00000
F60.00000
G01 X21.68940 Y65.36940
X21.88074 Y65.33132
X22.04294 Y65.22294
X22.10512 Y65.14717
X22.15132 Y65.06074
X22.18940 Y64.86940
X22.18940 Y49.87140
Z-0.60000
X22.18940 Y48.37140
Z-1.50000 F30.00000
F60.00000
G01 X22.18940 Y33.37340
X22.15132 Y33.18206
X22.04294 Y33.01986
X21.96717 Y32.95768
X21.88074 Y32.91147
X21.68940 Y32.87340
X17.48640 Y32.87340
Z-0.60000
X15.98640 Y32.87340
Z-1.50000 F30.00000
F60.00000
G01 X11.78340 Y32.87340
X11.59206 Y32.91147
X11.42986 Y33.01986
X11.32148 Y33.18206
X11.28340 Y33.37340
G01 Z-1.75000 F30.00000 ( plunge. )
G04 P0 ( dwell for no time -- G64 should not smooth over this point )
F60.00000
G01 X11.28340 Y33.37340
X11.28340 Y48.37140
Z-0.60000
X11.28340 Y49.87140
Z-1.75000 F30.00000
F60.00000
G01 X11.28340 Y64.86940
X11.32148 Y65.06074
X11.42986 Y65.22294
X11.50563 Y65.28512
X11.59206 Y65.33132
X11.78340 Y65.36940
X15.98640 Y65.36940
Z-0.60000
X17.48640 Y65.36940
Z-1.75000 F30.00000
F60.00000
G01 X21.68940 Y65.36940
X21.88074 Y65.33132
X22.04294 Y65.22294
X22.10512 Y65.14717
X22.15132 Y65.06074
X22.18940 Y64.86940
X22.18940 Y49.87140
Z-0.60000
X22.18940 Y48.37140
Z-1.75000 F30.00000
F60.00000
G01 X22.18940 Y33.37340
X22.15132 Y33.18206
X22.04294 Y33.01986
X21.96717 Y32.95768
X21.88074 Y32.91147
X21.68940 Y32.87340
X17.48640 Y32.87340
Z-0.60000
X15.98640 Y32.87340
Z-1.75000 F30.00000
F60.00000
G01 X11.78340 Y32.87340
X11.59206 Y32.91147
X11.42986 Y33.01986
X11.32148 Y33.18206
X11.28340 Y33.37340
G01 Z-2.00000 F30.00000 ( plunge. )
G04 P0 ( dwell for no time -- G64 should not smooth over this point )
F60.00000
G01 X11.28340 Y33.37340
X11.28340 Y48.37140
Z-0.60000
X11.28340 Y49.87140
Z-2.00000 F30.00000
F60.00000
G01 X11.28340 Y64.86940
X11.32148 Y65.06074
X11.42986 Y65.22294
X11.50563 Y65.28512
X11.59206 Y65.33132
X11.78340 Y65.36940
X15.98640 Y65.36940
Z-0.60000
X17.48640 Y65.36940
Z-2.00000 F30.00000
F60.00000
G01 X21.68940 Y65.36940
X21.88074 Y65.33132
X22.04294 Y65.22294
X22.10512 Y65.14717
X22.15132 Y65.06074
X22.18940 Y64.86940
X22.18940 Y49.87140
Z-0.60000
X22.18940 Y48.37140
Z-2.00000 F30.00000
F60.00000
G01 X22.18940 Y33.37340
X22.15132 Y33.18206
X22.04294 Y33.01986
X21.96717 Y32.95768
X21.88074 Y32.91147
X21.68940 Y32.87340
X17.48640 Y32.87340
Z-0.60000
X15.98640 Y32.87340
Z-2.00000 F30.00000
F60.00000
G01 X11.78340 Y32.87340
X11.59206 Y32.91147
X11.42986 Y33.01986
X11.32148 Y33.18206
X11.28340 Y33.37340
( Piece #6, position [2;1] )

G04 P0 ( dwell for no time -- G64 should not smooth over this point )
G00 Z2.00000 ( retract )

G00 X0.12580 Y33.37340 ( rapid move to begin. )
G01 Z-0.25000 F30.00000 ( plunge. )
G04 P0 ( dwell for no time -- G64 should not smooth over this point )
F60.00000
G01 X0.12580 Y33.37340
X0.12580 Y48.37140
X0.12580 Y49.87140
X0.12580 Y64.86940
X0.16388 Y65.06074
X0.27226 Y65.22294
X0.34803 Y65.28512
X0.43446 Y65.33132
X0.62580 Y65.36940
X4.82880 Y65.36940
X6.32880 Y65.36940
X10.53180 Y65.36940
X10.72314 Y65.33132
X10.88534 Y65.22294
X10.94752 Y65.14717
X10.99372 Y65.06074
X11.03180 Y64.86940
X11.03180 Y49.87140
X11.03180 Y48.37140
X11.03180 Y33.37340
X10.99372 Y33.18206
X10.88534 Y33.01986
X10.80957 Y32.95768
X10.72314 Y32.91147
X10.53180 Y32.87340
X6.32880 Y32.87340
X4.82880 Y32.87340
X0.62580 Y32.87340
X0.43446 Y32.91147
X0.27226 Y33.01986
X0.16388 Y33.18206
X0.12580 Y33.37340
G01 Z-0.50000 F30.00000 ( plunge. )
G04 P0 ( dwell for no time -- G64 should not smooth over this point )
F60.00000
G01 X0.12580 Y33.37340
X0.12580 Y48.37140
X0.12580 Y49.87140
X0.12580 Y64.86940
X0.16388 Y65.06074
X0.27226 Y65.22294
X0.34803 Y65.28512
X0.43446 Y65.33132
X0.62580 Y65.36940
X4.82880 Y65.36940
X6.32880 Y65.36940
X10.53180 Y65.36940
X10.72314 Y65.33132
X10.88534 Y65.22294
X10.94752 Y65.14717
X10.99372 Y65.06074
X11.03180 Y64.86940
X11.03180 Y49.87140
X11.03180 Y48.37140
X11.03180 Y33.37340
X10.99372 Y33.18206
X10.88534 Y33.01986
X10.80957 Y32.95768
X10.72314 Y32.91147
X10.53180 Y32.87340
X6.32880 Y32.87340
X4.82880 Y32.87340
X0.62580 Y32.87340
X0.43446 Y32.91147
X0.27226 Y33.01986
X0.16388 Y33.18206
X0.12580 Y33.37340
G01 Z-0.75000 F30.00000 ( plunge. )
G04 P0 ( dwell for no time -- G64 should not smooth over this point )
F60.00000
G01 X0.12580 Y33.37340
X0.12580 Y48.37140
Z-0.60000
X0.12580 Y49.87140
Z-0.75000 F30.00000
F60.00000
G01 X0.12580 Y64.86940
X0.16388 Y65.06074
X0.27226 Y65.22294
X0.34803 Y65.28512
X0.43446 Y65.33132
X0.62580 Y65.36940
X4.82880 Y65.36940
Z-0.60000
X6.32880 Y65.36940
Z-0.75000 F30.00000
F60.00000
G01 X10.53180 Y65.36940
X10.72314 Y65.33132
X10.88534 Y65.22294
X10.94752 Y65.14717
X10.99372 Y65.06074
X11.03180 Y64.86940
X11.03180 Y49.87140
Z-0.60000
X11.03180 Y48.37140
Z-0.75000 F30.00000
F60.00000
G01 X11.03180 Y33.37340
X10.99372 Y33.18206
X10.88534 Y33.01986
X10.80957 Y32.95768
X10.72314 Y32.91147
X10.53180 Y32.87340
X6.32880 Y32.87340
Z-0.60000
X4.82880 Y32.87340
Z-0.75000 F30.00000
F60.00000
G01 X0.62580 Y32.87340
X0.43446 Y32.91147
X0.27226 Y33.01986
X0.16388 Y33.18206
X0.12580 Y33.37340
G01 Z-1.00000 F30.00000 ( plunge. )
G04 P0 ( dwell for no time -- G64 should not smooth over this point )
F60.00000
G01 X0.12580 Y33.37340
X0.12580 Y48.37140
Z-0.60000
X0.12580 Y49.87140
Z-1.00000 F30.00000
F60.00000
G01 X0.12580 Y64.86940
X0.16388 Y65.06074
X0.27226 Y65.22294
X0.34803 Y65.28512
X0.43446 Y65.33132
X0.62580 Y65.36940
X4.82880 Y65.36940
Z-0.60000
X6.32880 Y65.36940
Z-1.00000 F30.00000
F60.00000
G01 X10.53180 Y65.36940
X10.72314 Y65.33132
X10.88534 Y65.22294
X10.94752 Y65.14717
X10.99372 Y65.06074
X11.03180 Y64.86940
X11.03180 Y49.87140
Z-0.60000
X11.03180 Y48.37140
Z-1.00000 F30.00000
F60.00000
G01 X11.03180 Y33.37340
X10.99372 Y33.18206
X10.88534 Y33.01986
X10.80957 Y32.95768
X10.72314 Y32.91147
X10.53180 Y32.87340
X6.32880 Y32.87340
Z-0.60000
X4.82880 Y32.87340
Z-1.00000 F30.00000
F60.00000
G01 X0.62580 Y32.87340
X0.43446 Y32.91147
X0.27226 Y33.01986
X0.16388 Y33.18206
X0.12580 Y33.37340
G01 Z-1.25000 F30.00000 ( plunge. )
G04 P0 ( dwell for no time -- G64 should not smooth over this point )
F60.00000
G01 X0.12580 Y33.37340
X0.12580 Y48.37140
Z-0.60000
X0.12580 Y49.87140
Z-1.25000 F30.00000
F60.00000
G01 X0.12580 Y64.86940
X0.16388 Y65.06074
X0.27226 Y65.22294
X0.34803 Y65.28512
X0.43446 Y65.33132
X0.62580 Y65.36940
X4.82880 Y65.36940
Z-0.60000
X6.32880 Y65.36940
Z-1.25000 F30.00000
F60.00000
G01 X10.53180 Y65.36940
X10.72314 Y65.33132
X10.88534 Y65.22294
X10.94752 Y65.14717
X10.99372 Y65.06074
X11.03180 Y64.86940
X11.03180 Y49.87140
Z-0.60000
X11.03180 Y48.37140
Z-1.25000 F30.00000
F60.00000
G01 X11.03180 Y33.37340
X10.99372 Y33.18206
X10.88534 Y33.01986
X10.80957 Y32.95768
X10.72314 Y32.91147
X10.53180 Y32.87340
X6.32880 Y32.87340
Z-0.60000
X4.82880 Y32.87340
Z-1.25000 F30.00000
F60.00000
G01 X0.62580 Y32.87340
X0.43446 Y32.91147
X0.27226 Y33.01986
X0.16388 Y33.18206
X0.12580 Y33.37340
G01 Z-1.50000 F30.00000 ( plunge. )
G04 P0 ( dwell for no time -- G64 should not smooth over this point )
F60.00000
G01 X0.12580 Y33.37340
X0.12580 Y48.37140
Z-0.60000
X0.12580 Y49.87140
Z-1.50000 F30.00000
F60.00000
G01 X0.12580 Y64.86940
X0.16388 Y65.06074
X0.27226 Y65.22294
X0.34803 Y65.28512
X0.43446 Y65.33132
X0.62580 Y65.36940
X4.82880 Y65.36940
Z-0.60000
X6.32880 Y65.36940
Z-1.50000 F30.00000
F60.00000
G01 X10.53180 Y65.36940
X10.72314 Y65.33132
X10.88534 Y65.22294
X10.94752 Y65.14717
X10.99372 Y65.06074
X11.03180 Y64.86940
X11.03180 Y49.87140
Z-0.60000
X11.03180 Y48.37140
Z-1.50000 F30.00000
F60.00000
G01 X11.03180 Y33.37340
X10.99372 Y33.18206
X10.88534 Y33.01986
X10.80957 Y32.95768
X10.72314 Y32.91147
X10.53180 Y32.87340
X6.32880 Y32.87340
Z-0.60000
X4.82880 Y32.87340
Z-1.50000 F30.00000
F60.00000
G01 X0.62580 Y32.87340
X0.43446 Y32.91147
X0.27226 Y33.01986
X0.16388 Y33.18206
X0.12580 Y33.37340
G01 Z-1.75000 F30.00000 ( plunge. )
G04 P0 ( dwell for no time -- G64 should not smooth over this point )
F60.00000
G01 X0.12580 Y33.37340
X0.12580 Y48.37140
Z-0.60000
X0.12580 Y49.87140
Z-1.75000 F30.00000
F60.00000
G01 X0.12580 Y64.86940
X0.16388 Y65.06074
X0.27226 Y65.22294
X0.34803 Y65.28512
X0.43446 Y65.33132
X0.62580 Y65.36940
X4.82880 Y65.36940
Z-0.60000
X6.32880 Y65.36940
Z-1.75000 F30.00000
F60.00000
G01 X10.53180 Y65.36940
X10.72314 Y65.33132
X10.88534 Y65.22294
X10.94752 Y65.14717
X10.99372 Y65.06074
X11.03180 Y64.86940
X11.03180 Y49.87140
Z-0.60000
X11.03180 Y48.37140
Z-1.75000 F30.00000
F60.00000
G01 X11.03180 Y33.37340
X10.99372 Y33.18206
X10.88534 Y33.01986
X10.80957 Y32.95768
X10.72314 Y32.91147
X10.53180 Y32.87340
X6.32880 Y32.87340
Z-0.60000
X4.82880 Y32.87340
Z-1.75000 F30.00000
F60.00000
G01 X0.62580 Y32.87340
X0.43446 Y32.91147
X0.27226 Y33.01986
X0.16388 Y33.18206
X0.12580 Y33.37340
G01 Z-2.00000 F30.00000 ( plunge. )
G04 P0 ( dwell for no time -- G64 should not smooth over this point )
F60.00000
G01 X0.12580 Y33.37340
X0.12580 Y48.37140
Z-0.60000
X0.12580 Y49.87140
Z-2.00000 F30.00000
F60.00000
G01 X0.12580 Y64.86940
X0.16388 Y65.06074
X0.27226 Y65.22294
X0.34803 Y65.28512
X0.43446 Y65.33132
X0.62580 Y65.36940
X4.82880 Y65.36940
Z-0.60000
X6.32880 Y65.36940
Z-2.00000 F30.00000
F60.00000
G01 X10.53180 Y65.36940
X10.72314 Y65.33132
X10.88534 Y65.22294
X10.94752 Y65.14717
X10.99372 Y65.06074
X11.03180 Y64.86940
X11.03180 Y49.87140
Z-0.60000
X11.03180 Y48.37140
Z-2.00000 F30.00000
F60.00000
G01 X11.03180 Y33.37340
X10.99372 Y33.18206
X10.88534 Y33.01986
X10.80957 Y32.95768
X10.72314 Y32.91147
X10.53180 Y32.87340
X6.32880 Y32.87340
Z-0.60000
X4.82880 Y32.87340
Z-2.00000 F30.00000
F60.00000
G01 X0.62580 Y32.87340
X0.43446 Y32.91147
X0.27226 Y33.01986
X0.16388 Y33.18206
X0.12580 Y33.37340
( Piece #7, position [0;2] )

G04 P0 ( dwell for no time -- G64 should not smooth over this point )
G00 Z2.00000 ( retract )

G00 X0.12580 Y66.12100 ( rapid move to begin. )
G01 Z-0.25000 F30.00000 ( plunge. )
G04 P0 ( dwell for no time -- G64 should not smooth over this point )
F60.00000
G01 X0.12580 Y66.12100
X0.12580 Y81.11900
X0.12580 Y82.61900
X0.12580 Y97.61700
X0.16388 Y97.80834
X0.27226 Y97.97054
X0.34803 Y98.03272
X0.43446 Y98.07892
X0.62580 Y98.11700
X4.82880 Y98.11700
X6.32880 Y98.11700
X10.53180 Y98.11700
X10.72314 Y98.07892
X10.88534 Y97.97054
X10.94752 Y97.89477
X10.99372 Y97.80834
X11.03180 Y97.61700
X11.03180 Y82.61900
X11.03180 Y81.11900
X11.03180 Y66.12100
X10.99372 Y65.92966
X10.88534 Y65.76746
X10.80957 Y65.70528
X10.72314 Y65.65907
X10.53180 Y65.62100
X6.32880 Y65.62100
X4.82880 Y65.62100
X0.62580 Y65.62100
X0.43446 Y65.65907
X0.27226 Y65.76746
X0.16388 Y65.92966
X0.12580 Y66.12100
G01 Z-0.50000 F30.00000 ( plunge. )
G04 P0 ( dwell for no time -- G64 should not smooth over this point )
F60.00000
G01 X0.12580 Y66.12100
X0.12580 Y81.11900
X0.12580 Y82.61900
X0.12580 Y97.61700
X0.16388 Y97.80834
X0.27226 Y97.97054
X0.34803 Y98.03272
X0.43446 Y98.07892
X0.62580 Y98.11700
X4.82880 Y98.11700
X6.32880 Y98.11700
X10.53180 Y98.11700
X10.72314 Y98.07892
X10.88534 Y97.97054
X10.94752 Y97.89477
X10.99372 Y97.80834
X11.03180 Y97.61700
X11.03180 Y82.61900
X11.03180 Y81.11900
X11.03180 Y66.12100
X10.99372 Y65.92966
X10.88534 Y65.76746
X10.80957 Y65.70528
X10.72314 Y65.65907
X10.53180 Y65.62100
X6.32880 Y65.62100
X4.82880 Y65.62100
X0.62580 Y65.62100
X0.43446 Y65.65907
X0.27226 Y65.76746
X0.16388 Y65.92966
X0.12580 Y66.12100
G01 Z-0.75000 F30.00000 ( plunge. )
G04 P0 ( dwell for no time -- G64 should not smooth over this point )
F60.00000
G01 X0.12580 Y66.12100
X0.12580 Y81.11900
Z-0.60000
X0.12580 Y82.61900
Z-0.75000 F30.00000
F60.00000
G01 X0.12580 Y97.61700
X0.16388 Y97.80834
X0.27226 Y97.97054
X0.34803 Y98.03272
X0.43446 Y98.07892
X0.62580 Y98.11700
X4.82880 Y98.11700
Z-0.60000
X6.32880 Y98.11700
Z-0.75000 F30.00000
F60.00000
G01 X10.53180 Y98.11700
X10.72314 Y98.07892
X10.88534 Y97.97054
X10.94752 Y97.89477
X10.99372 Y97.80834
X11.03180 Y97.61700
X11.03180 Y82.61900
Z-0.60000
X11.03180 Y81.11900
Z-0.75000 F30.00000
F60.00000
G01 X11.03180 Y66.12100
X10.99372 Y65.92966
X10.88534 Y65.76746
X10.80957 Y65.70528
X10.72314 Y65.65907
X10.53180 Y65.62100
X6.32880 Y65.62100
Z-0.60000
X4.82880 Y65.62100
Z-0.75000 F30.00000
F60.00000
G01 X0.62580 Y65.62100
X0.43446 Y65.65907
X0.27226 Y65.76746
X0.16388 Y65.92966
X0.12580 Y66.12100
G01 Z-1.00000 F30.00000 ( plunge. )
G04 P0 ( dwell for no time -- G64 should not smooth over this point )
F60.00000
G01 X0.12580 Y66.12100
X0.12580 Y81.11900
Z-0.60000
X0.12580 Y82.61900
Z-1.00000 F30.00000
F60.00000
G01 X0.12580 Y97.61700
X0.16388 Y97.80834
X0.27226 Y97.97054
X0.34803 Y98.03272
X0.43446 Y98.07892
X0.62580 Y98.11700
X4.82880 Y98.11700
Z-0.60000
X6.32880 Y98.11700
Z-1.00000 F30.00000
F60.00000
G01 X10.53180 Y98.11700
X10.72314 Y98.07892
X10.88534 Y97.97054
X10.94752 Y97.89477
X10.99372 Y97.80834
X11.03180 Y97.61700
X11.03180 Y82.61900
Z-0.60000
X11.03180 Y81.11900
Z-1.00000 F30.00000
F60.00000
G01 X11.03180 Y66.12100
X10.99372 Y65.92966
X10.88534 Y65.76746
X10.80957 Y65.70528
X10.72314 Y65.65907
X10.53180 Y65.62100
X6.32880 Y65.62100
Z-0.60000
X4.82880 Y65.62100
Z-1.00000 F30.00000
F60.00000
G01 X0.62580 Y65.62100
X0.43446 Y65.65907
X0.27226 Y65.76746
X0.16388 Y65.92966
X0.12580 Y66.12100
G01 Z-1.25000 F30.00000 ( plunge. )
G04 P0 ( dwell for no time -- G64 should not smooth over this point )
F60.00000
G01 X0.12580 Y66.12100
X0.12580 Y81.11900
Z-0.60000
X0.12580 Y82.61900
Z-1.25000 F30.00000
F60.00000
G01 X0.12580 Y97.61700
X0.16388 Y97.80834
X0.27226 Y97.97054
X0.34803 Y98.03272
X0.43446 Y98.07892
X0.62580 Y98.11700
X4.82880 Y98.11700
Z-0.60000
X6.32880 Y98.11700
Z-1.25000 F30.00000
F60.00000
G01 X10.53180 Y98.11700
X10.72314 Y98.07892
X10.88534 Y97.97054
X10.94752 Y97.89477
X10.99372 Y97.80834
X11.03180 Y97.61700
X11.03180 Y82.61900
Z-0.60000
X11.03180 Y81.11900
Z-1.25000 F30.00000
F60.00000
G01 X11.03180 Y66.12100
X10.99372 Y65.92966
X10.88534 Y65.76746
X10.80957 Y65.70528
X10.72314 Y65.65907
X10.53180 Y65.62100
X6.32880 Y65.62100
Z-0.60000
X4.82880 Y65.62100
Z-1.25000 F30.00000
F60.00000
G01 X0.62580 Y65.62100
X0.43446 Y65.65907
X0.27226 Y65.76746
X0.16388 Y65.92966
X0.12580 Y66.12100
G01 Z-1.50000 F30.00000 ( plunge. )
G04 P0 ( dwell for no time -- G64 should not smooth over this point )
F60.00000
G01 X0.12580 Y66.12100
X0.12580 Y81.11900
Z-0.60000
X0.12580 Y82.61900
Z-1.50000 F30.00000
F60.00000
G01 X0.12580 Y97.61700
X0.16388 Y97.80834
X0.27226 Y97.97054
X0.34803 Y98.03272
X0.43446 Y98.07892
X0.62580 Y98.11700
X4.82880 Y98.11700
Z-0.60000
X6.32880 Y98.11700
Z-1.50000 F30.00000
F60.00000
G01 X10.53180 Y98.11700
X10.72314 Y98.07892
X10.88534 Y97.97054
X10.94752 Y97.89477
X10.99372 Y97.80834
X11.03180 Y97.61700
X11.03180 Y82.61900
Z-0.60000
X11.03180 Y81.11900
Z-1.50000 F30.00000
F60.00000
G01 X11.03180 Y66.12100
X10.99372 Y65.92966
X10.88534 Y65.76746
X10.80957 Y65.70528
X10.72314 Y65.65907
X10.53180 Y65.62100
X6.32880 Y65.62100
Z-0.60000
X4.82880 Y65.62100
Z-1.50000 F30.00000
F60.00000
G01 X0.62580 Y65.62100
X0.43446 Y65.65907
X0.27226 Y65.76746
X0.16388 Y65.92966
X0.12580 Y66.12100
G01 Z-1.75000 F30.00000 ( plunge. )
G04 P0 ( dwell for no time -- G64 should not smooth over this point )
F60.00000
G01 X0.12580 Y66.12100
X0.12580 Y81.11900
Z-0.60000
X0.12580 Y82.61900
Z-1.75000 F30.00000
F60.00000
G01 X0.12580 Y97.61700
X0.16388 Y97.80834
X0.27226 Y97.97054
X0.34803 Y98.03272
X0.43446 Y98.07892
X0.62580 Y98.11700
X4.82880 Y98.11700
Z-0.60000
X6.32880 Y98.11700
Z-1.75000 F30.00000
F60.00000
G01 X10.53180 Y98.11700
X10.72314 Y98.07892
X10.88534 Y97.97054
X10.94752 Y97.89477
X10.99372 Y97.80834
X11.03180 Y97.61700
X11.03180 Y82.61900
Z-0.60000
X11.03180 Y81.11900
Z-1.75000 F30.00000
F60.00000
G01 X11.03180 Y66.12100
X10.99372 Y65.92966
X10.88534 Y65.76746
X10.80957 Y65.70528
X10.72314 Y65.65907
X10.53180 Y65.62100
X6.32880 Y65.62100
Z-0.60000
X4.82880 Y65.62100
Z-1.75000 F30.00000
F60.00000
G01 X0.62580 Y65.62100
X0.43446 Y65.65907
X0.27226 Y65.76746
X0.16388 Y65.92966
X0.12580 Y66.12100
G01 Z-2.00000 F30.00000 ( plunge. )
G04 P0 ( dwell for no time -- G64 should not smooth over this point )
F60.00000
G01 X0.12580 Y66.12100
X0.12580 Y81.11900
Z-0.60000
X0.12580 Y82.61900
Z-2.00000 F30.00000
F60.00000
G01 X0.12580 Y97.61700
X0.16388 Y97.80834
X0.27226 Y97.97054
X0.34803 Y98.03272
X0.43446 Y98.07892
X0.62580 Y98.11700
X4.82880 Y98.11700
Z-0.60000
X6.32880 Y98.11700
Z-2.00000 F30.00000
F60.00000
G01 X10.53180 Y98.11700
X10.72314 Y98.07892
X10.88534 Y97.97054
X10.94752 Y97.89477
X10.99372 Y97.80834
X11.03180 Y97.61700
X11.03180 Y82.61900
Z-0.60000
X11.03180 Y81.11900
Z-2.00000 F30.00000
F60.00000
G01 X11.03180 Y66.12100
X10.99372 Y65.92966
X10.88534 Y65.76746
X10.80957 Y65.70528
X10.72314 Y65.65907
X10.53180 Y65.62100
X6.32880 Y65.62100
Z-0.60000
X4.82880 Y65.62100
Z-2.00000 F30.00000
F60.00000
G01 X0.62580 Y65.62100
X0.43446 Y65.65907
X0.27226 Y65.76746
X0.16388 Y65.92966
X0.12580 Y66.12100
( Piece #8, position [1;2] )

G04 P0 ( dwell for no time -- G64 should not smooth over this point )
G00 Z2.00000 ( retract )

G00 X11.28340 Y66.12100 ( rapid move to begin. )
G01 Z-0.25000 F30.00000 ( plunge. )
G04 P0 ( dwell for no time -- G64 should not smooth over this point )
F60.00000
G01 X11.28340 Y66.12100
X11.28340 Y81.11900
X11.28340 Y82.61900
X11.28340 Y97.61700
X11.32148 Y97.80834
X11.42986 Y97.97054
X11.50563 Y98.03272
X11.59206 Y98.07892
X11.78340 Y98.11700
X15.98640 Y98.11700
X17.48640 Y98.11700
X21.68940 Y98.11700
X21.88074 Y98.07892
X22.04294 Y97.97054
X22.10512 Y97.89477
X22.15132 Y97.80834
X22.18940 Y97.61700
X22.18940 Y82.61900
X22.18940 Y81.11900
X22.18940 Y66.12100
X22.15132 Y65.92966
X22.04294 Y65.76746
X21.96717 Y65.70528
X21.88074 Y65.65907
X21.68940 Y65.62100
X17.48640 Y65.62100
X15.98640 Y65.62100
X11.78340 Y65.62100
X11.59206 Y65.65907
X11.42986 Y65.76746
X11.32148 Y65.92966
X11.28340 Y66.12100
G01 Z-0.50000 F30.00000 ( plunge. )
G04 P0 ( dwell for no time -- G64 should not smooth over this point )
F60.00000
G01 X11.28340 Y66.12100
X11.28340 Y81.11900
X11.28340 Y82.61900
X11.28340 Y97.61700
X11.32148 Y97.80834
X11.42986 Y97.97054
X11.50563 Y98.03272
X11.59206 Y98.07892
X11.78340 Y98.11700
X15.98640 Y98.11700
X17.48640 Y98.11700
X21.68940 Y98.11700
X21.88074 Y98.07892
X22.04294 Y97.97054
X22.10512 Y97.89477
X22.15132 Y97.80834
X22.18940 Y97.61700
X22.18940 Y82.61900
X22.18940 Y81.11900
X22.18940 Y66.12100
X22.15132 Y65.92966
X22.04294 Y65.76746
X21.96717 Y65.70528
X21.88074 Y65.65907
X21.68940 Y65.62100
X17.48640 Y65.62100
X15.98640 Y65.62100
X11.78340 Y65.62100
X11.59206 Y65.65907
X11.42986 Y65.76746
X11.32148 Y65.92966
X11.28340 Y66.12100
G01 Z-0.75000 F30.00000 ( plunge. )
G04 P0 ( dwell for no time -- G64 should not smooth over this point )
F60.00000
G01 X11.28340 Y66.12100
X11.28340 Y81.11900
Z-0.60000
X11.28340 Y82.61900
Z-0.75000 F30.00000
F60.00000
G01 X11.28340 Y97.61700
X11.32148 Y97.80834
X11.42986 Y97.97054
X11.50563 Y98.03272
X11.59206 Y98.07892
X11.78340 Y98.11700
X15.98640 Y98.11700
Z-0.60000
X17.48640 Y98.11700
Z-0.75000 F30.00000
F60.00000
G01 X21.68940 Y98.11700
X21.88074 Y98.07892
X22.04294 Y97.97054
X22.10512 Y97.89477
X22.15132 Y97.80834
X22.18940 Y97.61700
X22.18940 Y82.61900
Z-0.60000
X22.18940 Y81.11900
Z-0.75000 F30.00000
F60.00000
G01 X22.18940 Y66.12100
X22.15132 Y65.92966
X22.04294 Y65.76746
X21.96717 Y65.70528
X21.88074 Y65.65907
X21.68940 Y65.62100
X17.48640 Y65.62100
Z-0.60000
X15.98640 Y65.62100
Z-0.75000 F30.00000
F60.00000
G01 X11.78340 Y65.62100
X11.59206 Y65.65907
X11.42986 Y65.76746
X11.32148 Y65.92966
X11.28340 Y66.12100
G01 Z-1.00000 F30.00000 ( plunge. )
G04 P0 ( dwell for no time -- G64 should not smooth over this point )
F60.00000
G01 X11.28340 Y66.12100
X11.28340 Y81.11900
Z-0.60000
X11.28340 Y82.61900
Z-1.00000 F30.00000
F60.00000
G01 X11.28340 Y97.61700
X11.32148 Y97.80834
X11.42986 Y97.97054
X11.50563 Y98.03272
X11.59206 Y98.07892
X11.78340 Y98.11700
X15.98640 Y98.11700
Z-0.60000
X17.48640 Y98.11700
Z-1.00000 F30.00000
F60.00000
G01 X21.68940 Y98.11700
X21.88074 Y98.07892
X22.04294 Y97.97054
X22.10512 Y97.89477
X22.15132 Y97.80834
X22.18940 Y97.61700
X22.18940 Y82.61900
Z-0.60000
X22.18940 Y81.11900
Z-1.00000 F30.00000
F60.00000
G01 X22.18940 Y66.12100
X22.15132 Y65.92966
X22.04294 Y65.76746
X21.96717 Y65.70528
X21.88074 Y65.65907
X21.68940 Y65.62100
X17.48640 Y65.62100
Z-0.60000
X15.98640 Y65.62100
Z-1.00000 F30.00000
F60.00000
G01 X11.78340 Y65.62100
X11.59206 Y65.65907
X11.42986 Y65.76746
X11.32148 Y65.92966
X11.28340 Y66.12100
G01 Z-1.25000 F30.00000 ( plunge. )
G04 P0 ( dwell for no time -- G64 should not smooth over this point )
F60.00000
G01 X11.28340 Y66.12100
X11.28340 Y81.11900
Z-0.60000
X11.28340 Y82.61900
Z-1.25000 F30.00000
F60.00000
G01 X11.28340 Y97.61700
X11.32148 Y97.80834
X11.42986 Y97.97054
X11.50563 Y98.03272
X11.59206 Y98.07892
X11.78340 Y98.11700
X15.98640 Y98.11700
Z-0.60000
X17.48640 Y98.11700
Z-1.25000 F30.00000
F60.00000
G01 X21.68940 Y98.11700
X21.88074 Y98.07892
X22.04294 Y97.97054
X22.10512 Y97.89477
X22.15132 Y97.80834
X22.18940 Y97.61700
X22.18940 Y82.61900
Z-0.60000
X22.18940 Y81.11900
Z-1.25000 F30.00000
F60.00000
G01 X22.18940 Y66.12100
X22.15132 Y65.92966
X22.04294 Y65.76746
X21.96717 Y65.70528
X21.88074 Y65.65907
X21.68940 Y65.62100
X17.48640 Y65.62100
Z-0.60000
X15.98640 Y65.62100
Z-1.25000 F30.00000
F60.00000
G01 X11.78340 Y65.62100
X11.59206 Y65.65907
X11.42986 Y65.76746
X11.32148 Y65.92966
X11.28340 Y66.12100
G01 Z-1.50000 F30.00000 ( plunge. )
G04 P0 ( dwell for no time -- G64 should not smooth over this point )
F60.00000
G01 X11.28340 Y66.12100
X11.28340 Y81.11900
Z-0.60000
X11.28340 Y82.61900
Z-1.50000 F30.00000
F60.00000
G01 X11.28340 Y97.61700
X11.32148 Y97.80834
X11.42986 Y97.97054
X11.50563 Y98.03272
X11.59206 Y98.07892
X11.78340 Y98.11700
X15.98640 Y98.11700
Z-0.60000
X17.48640 Y98.11700
Z-1.50000 F30.00000
F60.00000
G01 X21.68940 Y98.11700
X21.88074 Y98.07892
X22.04294 Y97.97054
X22.10512 Y97.89477
X22.15132 Y97.80834
X22.18940 Y97.61700
X22.18940 Y82.61900
Z-0.60000
X22.18940 Y81.11900
Z-1.50000 F30.00000
F60.00000
G01 X22.18940 Y66.12100
X22.15132 Y65.92966
X22.04294 Y65.76746
X21.96717 Y65.70528
X21.88074 Y65.65907
X21.68940 Y65.62100
X17.48640 Y65.62100
Z-0.60000
X15.98640 Y65.62100
Z-1.50000 F30.00000
F60.00000
G01 X11.78340 Y65.62100
X11.59206 Y65.65907
X11.42986 Y65.76746
X11.32148 Y65.92966
X11.28340 Y66.12100
G01 Z-1.75000 F30.00000 ( plunge. )
G04 P0 ( dwell for no time -- G64 should not smooth over this point )
F60.00000
G01 X11.28340 Y66.12100
X11.28340 Y81.11900
Z-0.60000
X11.28340 Y82.61900
Z-1.75000 F30.00000
F60.00000
G01 X11.28340 Y97.61700
X11.32148 Y97.80834
X11.42986 Y97.97054
X11.50563 Y98.03272
X11.59206 Y98.07892
X11.78340 Y98.11700
X15.98640 Y98.11700
Z-0.60000
X17.48640 Y98.11700
Z-1.75000 F30.00000
F60.00000
G01 X21.68940 Y98.11700
X21.88074 Y98.07892
X22.04294 Y97.97054
X22.10512 Y97.89477
X22.15132 Y97.80834
X22.18940 Y97.61700
X22.18940 Y82.61900
Z-0.60000
X22.18940 Y81.11900
Z-1.75000 F30.00000
F60.00000
G01 X22.18940 Y66.12100
X22.15132 Y65.92966
X22.04294 Y65.76746
X21.96717 Y65.70528
X21.88074 Y65.65907
X21.68940 Y65.62100
X17.48640 Y65.62100
Z-0.60000
X15.98640 Y65.62100
Z-1.75000 F30.00000
F60.00000
G01 X11.78340 Y65.62100
X11.59206 Y65.65907
X11.42986 Y65.76746
X11.32148 Y65.92966
X11.28340 Y66.12100
G01 Z-2.00000 F30.00000 ( plunge. )
G04 P0 ( dwell for no time -- G64 should not smooth over this point )
F60.00000
G01 X11.28340 Y66.12100
X11.28340 Y81.11900
Z-0.60000
X11.28340 Y82.61900
Z-2.00000 F30.00000
F60.00000
G01 X11.28340 Y97.61700
X11.32148 Y97.80834
X11.42986 Y97.97054
X11.50563 Y98.03272
X11.59206 Y98.07892
X11.78340 Y98.11700
X15.98640 Y98.11700
Z-0.60000
X17.48640 Y98.11700
Z-2.00000 F30.00000
F60.00000
G01 X21.68940 Y98.11700
X21.88074 Y98.07892
X22.04294 Y97.97054
X22.10512 Y97.89477
X22.15132 Y97.80834
X22.18940 Y97.61700
X22.18940 Y82.61900
Z-0.60000
X22.18940 Y81.11900
Z-2.00000 F30.00000
F60.00000
G01 X22.18940 Y66.12100
X22.15132 Y65.92966
X22.04294 Y65.76746
X21.96717 Y65.70528
X21.88074 Y65.65907
X21.68940 Y65.62100
X17.48640 Y65.62100
Z-0.60000
X15.98640 Y65.62100
Z-2.00000 F30.00000
F60.00000
G01 X11.78340 Y65.62100
X11.59206 Y65.65907
X11.42986 Y65.76746
X11.32148 Y65.92966
X11.28340 Y66.12100
( Piece #9, position [2;2] )

G04 P0 ( dwell for no time -- G64 should not smooth over this point )
G00 Z2.00000 ( retract )

G00 X22.44100 Y66.12100 ( rapid move to begin. )
G01 Z-0.25000 F30.00000 ( plunge. )
G04 P0 ( dwell for no time -- G64 should not smooth over this point )
F60.00000
G01 X22.44100 Y66.12100
X22.44100 Y81.11900
X22.44100 Y82.61900
X22.44100 Y97.61700
X22.47908 Y97.80834
X22.58746 Y97.97054
X22.66323 Y98.03272
X22.74966 Y98.07892
X22.94100 Y98.11700
X27.14400 Y98.11700
X28.64400 Y98.11700
X32.84700 Y98.11700
X33.03834 Y98.07892
X33.20054 Y97.97054
X33.26272 Y97.89477
X33.30892 Y97.80834
X33.34700 Y97.61700
X33.34700 Y82.61900
X33.34700 Y81.11900
X33.34700 Y66.12100
X33.30892 Y65.92966
X33.20054 Y65.76746
X33.12477 Y65.70528
X33.03834 Y65.65907
X32.84700 Y65.62100
X28.64400 Y65.62100
X27.14400 Y65.62100
X22.94100 Y65.62100
X22.74966 Y65.65907
X22.58746 Y65.76746
X22.47908 Y65.92966
X22.44100 Y66.12100
G01 Z-0.50000 F30.00000 ( plunge. )
G04 P0 ( dwell for no time -- G64 should not smooth over this point )
F60.00000
G01 X22.44100 Y66.12100
X22.44100 Y81.11900
X22.44100 Y82.61900
X22.44100 Y97.61700
X22.47908 Y97.80834
X22.58746 Y97.97054
X22.66323 Y98.03272
X22.74966 Y98.07892
X22.94100 Y98.11700
X27.14400 Y98.11700
X28.64400 Y98.11700
X32.84700 Y98.11700
X33.03834 Y98.07892
X33.20054 Y97.97054
X33.26272 Y97.89477
X33.30892 Y97.80834
X33.34700 Y97.61700
X33.34700 Y82.61900
X33.34700 Y81.11900
X33.34700 Y66.12100
X33.30892 Y65.92966
X33.20054 Y65.76746
X33.12477 Y65.70528
X33.03834 Y65.65907
X32.84700 Y65.62100
X28.64400 Y65.62100
X27.14400 Y65.62100
X22.94100 Y65.62100
X22.74966 Y65.65907
X22.58746 Y65.76746
X22.47908 Y65.92966
X22.44100 Y66.12100
G01 Z-0.75000 F30.00000 ( plunge. )
G04 P0 ( dwell for no time -- G64 should not smooth over this point )
F60.00000
G01 X22.44100 Y66.12100
X22.44100 Y81.11900
Z-0.60000
X22.44100 Y82.61900
Z-0.75000 F30.00000
F60.00000
G01 X22.44100 Y97.61700
X22.47908 Y97.80834
X22.58746 Y97.97054
X22.66323 Y98.03272
X22.74966 Y98.07892
X22.94100 Y98.11700
X27.14400 Y98.11700
Z-0.60000
X28.64400 Y98.11700
Z-0.75000 F30.00000
F60.00000
G01 X32.84700 Y98.11700
X33.03834 Y98.07892
X33.20054 Y97.97054
X33.26272 Y97.89477
X33.30892 Y97.80834
X33.34700 Y97.61700
X33.34700 Y82.61900
Z-0.60000
X33.34700 Y81.11900
Z-0.75000 F30.00000
F60.00000
G01 X33.34700 Y66.12100
X33.30892 Y65.92966
X33.20054 Y65.76746
X33.12477 Y65.70528
X33.03834 Y65.65907
X32.84700 Y65.62100
X28.64400 Y65.62100
Z-0.60000
X27.14400 Y65.62100
Z-0.75000 F30.00000
F60.00000
G01 X22.94100 Y65.62100
X22.74966 Y65.65907
X22.58746 Y65.76746
X22.47908 Y65.92966
X22.44100 Y66.12100
G01 Z-1.00000 F30.00000 ( plunge. )
G04 P0 ( dwell for no time -- G64 should not smooth over this point )
F60.00000
G01 X22.44100 Y66.12100
X22.44100 Y81.11900
Z-0.60000
X22.44100 Y82.61900
Z-1.00000 F30.00000
F60.00000
G01 X22.44100 Y97.61700
X22.47908 Y97.80834
X22.58746 Y97.97054
X22.66323 Y98.03272
X22.74966 Y98.07892
X22.94100 Y98.11700
X27.14400 Y98.11700
Z-0.60000
X28.64400 Y98.11700
Z-1.00000 F30.00000
F60.00000
G01 X32.84700 Y98.11700
X33.03834 Y98.07892
X33.20054 Y97.97054
X33.26272 Y97.89477
X33.30892 Y97.80834
X33.34700 Y97.61700
X33.34700 Y82.61900
Z-0.60000
X33.34700 Y81.11900
Z-1.00000 F30.00000
F60.00000
G01 X33.34700 Y66.12100
X33.30892 Y65.92966
X33.20054 Y65.76746
X33.12477 Y65.70528
X33.03834 Y65.65907
X32.84700 Y65.62100
X28.64400 Y65.62100
Z-0.60000
X27.14400 Y65.62100
Z-1.00000 F30.00000
F60.00000
G01 X22.94100 Y65.62100
X22.74966 Y65.65907
X22.58746 Y65.76746
X22.47908 Y65.92966
X22.44100 Y66.12100
G01 Z-1.25000 F30.00000 ( plunge. )
G04 P0 ( dwell for no time -- G64 should not smooth over this point )
F60.00000
G01 X22.44100 Y66.12100
X22.44100 Y81.11900
Z-0.60000
X22.44100 Y82.61900
Z-1.25000 F30.00000
F60.00000
G01 X22.44100 Y97.61700
X22.47908 Y97.80834
X22.58746 Y97.97054
X22.66323 Y98.03272
X22.74966 Y98.07892
X22.94100 Y98.11700
X27.14400 Y98.11700
Z-0.60000
X28.64400 Y98.11700
Z-1.25000 F30.00000
F60.00000
G01 X32.84700 Y98.11700
X33.03834 Y98.07892
X33.20054 Y97.97054
X33.26272 Y97.89477
X33.30892 Y97.80834
X33.34700 Y97.61700
X33.34700 Y82.61900
Z-0.60000
X33.34700 Y81.11900
Z-1.25000 F30.00000
F60.00000
G01 X33.34700 Y66.12100
X33.30892 Y65.92966
X33.20054 Y65.76746
X33.12477 Y65.70528
X33.03834 Y65.65907
X32.84700 Y65.62100
X28.64400 Y65.62100
Z-0.60000
X27.14400 Y65.62100
Z-1.25000 F30.00000
F60.00000
G01 X22.94100 Y65.62100
X22.74966 Y65.65907
X22.58746 Y65.76746
X22.47908 Y65.92966
X22.44100 Y66.12100
G01 Z-1.50000 F30.00000 ( plunge. )
G04 P0 ( dwell for no time -- G64 should not smooth over this point )
F60.00000
G01 X22.44100 Y66.12100
X22.44100 Y81.11900
Z-0.60000
X22.44100 Y82.61900
Z-1.50000 F30.00000
F60.00000
G01 X22.44100 Y97.61700
X22.47908 Y97.80834
X22.58746 Y97.97054
X22.66323 Y98.03272
X22.74966 Y98.07892
X22.94100 Y98.11700
X27.14400 Y98.11700
Z-0.60000
X28.64400 Y98.11700
Z-1.50000 F30.00000
F60.00000
G01 X32.84700 Y98.11700
X33.03834 Y98.07892
X33.20054 Y97.97054
X33.26272 Y97.89477
X33.30892 Y97.80834
X33.34700 Y97.61700
X33.34700 Y82.61900
Z-0.60000
X33.34700 Y81.11900
Z-1.50000 F30.00000
F60.00000
G01 X33.34700 Y66.12100
X33.30892 Y65.92966
X33.20054 Y65.76746
X33.12477 Y65.70528
X33.03834 Y65.65907
X32.84700 Y65.62100
X28.64400 Y65.62100
Z-0.60000
X27.14400 Y65.62100
Z-1.50000 F30.00000
F60.00000
G01 X22.94100 Y65.62100
X22.74966 Y65.65907
X22.58746 Y65.76746
X22.47908 Y65.92966
X22.44100 Y66.12100
G01 Z-1.75000 F30.00000 ( plunge. )
G04 P0 ( dwell for no time -- G64 should not smooth over this point )
F60.00000
G01 X22.44100 Y66.12100
X22.44100 Y81.11900
Z-0.60000
X22.44100 Y82.61900
Z-1.75000 F30.00000
F60.00000
G01 X22.44100 Y97.61700
X22.47908 Y97.80834
X22.58746 Y97.97054
X22.66323 Y98.03272
X22.74966 Y98.07892
X22.94100 Y98.11700
X27.14400 Y98.11700
Z-0.60000
X28.64400 Y98.11700
Z-1.75000 F30.00000
F60.00000
G01 X32.84700 Y98.11700
X33.03834 Y98.07892
X33.20054 Y97.97054
X33.26272 Y97.89477
X33.30892 Y97.80834
X33.34700 Y97.61700
X33.34700 Y82.61900
Z-0.60000
X33.34700 Y81.11900
Z-1.75000 F30.00000
F60.00000
G01 X33.34700 Y66.12100
X33.30892 Y65.92966
X33.20054 Y65.76746
X33.12477 Y65.70528
X33.03834 Y65.65907
X32.84700 Y65.62100
X28.64400 Y65.62100
Z-0.60000
X27.14400 Y65.62100
Z-1.75000 F30.00000
F60.00000
G01 X22.94100 Y65.62100
X22.74966 Y65.65907
X22.58746 Y65.76746
X22.47908 Y65.92966
X22.44100 Y66.12100
G01 Z-2.00000 F30.00000 ( plunge. )
G04 P0 ( dwell for no time -- G64 should not smooth over this point )
F60.00000
G01 X22.44100 Y66.12100
X22.44100 Y81.11900
Z-0.60000
X22.44100 Y82.61900
Z-2.00000 F30.00000
F60.00000
G01 X22.44100 Y97.61700
X22.47908 Y97.80834
X22.58746 Y97.97054
X22.66323 Y98.03272
X22.74966 Y98.07892
X22.94100 Y98.11700
X27.14400 Y98.11700
Z-0.60000
X28.64400 Y98.11700
Z-2.00000 F30.00000
F60.00000
G01 X32.84700 Y98.11700
X33.03834 Y98.07892
X33.20054 Y97.97054
X33.26272 Y97.89477
X33.30892 Y97.80834
X33.34700 Y97.61700
X33.34700 Y82.61900
Z-0.60000
X33.34700 Y81.11900
Z-2.00000 F30.00000
F60.00000
G01 X33.34700 Y66.12100
X33.30892 Y65.92966
X33.20054 Y65.76746
X33.12477 Y65.70528
X33.03834 Y65.65907
X32.84700 Y65.62100
X28.64400 Y65.62100
Z-0.60000
X27.14400 Y65.62100
Z-2.00000 F30.00000
F60.00000
G01 X22.94100 Y65.62100
X22.74966 Y65.65907
X22.58746 Y65.76746
X22.47908 Y65.92966
X22.44100 Y66.12100

G04 P0 ( dwell for no time -- G64 should not smooth over this point )
G00 Z10.000 ( retract )

M5 ( Spindle off. )
M9 ( Coolant off. )
M2 ( Program end. )

