( pcb2gcode 1.3.2 )
( Software-independent Gcode )
( This file uses a mill head of 1.00000mm to drill the 6 bit sizes. )
( Bit sizes: [1.00000] [1.00100] [1.01600] [1.30000] [3.04800] [3.20000] )

G94       (Millimeters per minute feed rate.)
G21       (Units == Millimeters.)
G90       (Absolute coordinates.)
S10000    (RPM spindle speed.)
F60.00000 (Feedrate)
M3        (Spindle on clockwise.)
G00 Z2.00000

G0 X5.85980 Y21.09980
G1 Z-2.00000
G0 Z2.00000

G0 X3.57380 Y29.60880
G1 Z-2.00000
G0 Z2.00000

G0 X5.85980 Y32.02180
G1 Z-2.00000
G0 Z2.00000

G0 X8.14580 Y44.21380
G1 Z-2.00000
G0 Z2.00000

G0 X6.74880 Y63.26380
G1 Z-2.00000
G0 Z2.00000

G0 X12.97180 Y64.02580
G1 Z-2.00000
G0 Z2.00000

G0 X14.49580 Y11.95580
G1 Z-2.00000
G0 Z2.00000

G0 X14.49580 Y19.57580
G1 Z-2.00000
G0 Z2.00000

G0 X13.22580 Y24.65580
G1 Z-2.00000
G0 Z2.00000

G0 X16.40080 Y24.65580
G1 Z-2.00000
G0 Z2.00000

G0 X16.40080 Y32.27580
G1 Z-2.00000
G0 Z2.00000

G0 X13.22580 Y32.27580
G1 Z-2.00000
G0 Z2.00000

G0 X9.41580 Y8.78080
G1 Z-2.00000
G0 Z2.00000

G0 X9.41580 Y11.32080
G1 Z-2.00000
G0 Z2.00000

G0 X9.41580 Y13.86080
G1 Z-2.00000
G0 Z2.00000

G0 X9.41580 Y16.40080
G1 Z-2.00000
G0 Z2.00000

G0 X9.41580 Y18.94080
G1 Z-2.00000
G0 Z2.00000

G0 X9.41580 Y21.48080
G1 Z-2.00000
G0 Z2.00000

G0 X9.41580 Y24.02080
G1 Z-2.00000
G0 Z2.00000

G0 X9.41580 Y26.56080
G1 Z-2.00000
G0 Z2.00000

G0 X9.41580 Y29.10080
G1 Z-2.00000
G0 Z2.00000

G0 X9.41580 Y31.64080
G1 Z-2.00000
G0 Z2.00000

G0 X9.41580 Y34.18080
G1 Z-2.00000
G0 Z2.00000

G0 X9.41580 Y36.72080
G1 Z-2.00000
G0 Z2.00000

G0 X10.81280 Y39.13380
G1 Z-2.00000
G0 Z2.00000

G0 X13.35280 Y39.13380
G1 Z-2.00000
G0 Z2.00000

G0 X15.89280 Y39.13380
G1 Z-2.00000
G0 Z2.00000

G0 X18.43280 Y39.13380
G1 Z-2.00000
G0 Z2.00000

G0 X20.97280 Y39.13380
G1 Z-2.00000
G0 Z2.00000

G0 X23.51280 Y39.13380
G1 Z-2.00000
G0 Z2.00000

G0 X24.65580 Y36.72080
G1 Z-2.00000
G0 Z2.00000

G0 X24.65580 Y34.18080
G1 Z-2.00000
G0 Z2.00000

G0 X24.65580 Y31.64080
G1 Z-2.00000
G0 Z2.00000

G0 X24.65580 Y29.10080
G1 Z-2.00000
G0 Z2.00000

G0 X24.65580 Y26.56080
G1 Z-2.00000
G0 Z2.00000

G0 X24.65580 Y24.02080
G1 Z-2.00000
G0 Z2.00000

G0 X24.65580 Y21.48080
G1 Z-2.00000
G0 Z2.00000

G0 X24.65580 Y18.94080
G1 Z-2.00000
G0 Z2.00000

G0 X24.65580 Y16.40080
G1 Z-2.00000
G0 Z2.00000

G0 X24.65580 Y13.86080
G1 Z-2.00000
G0 Z2.00000

G0 X24.65580 Y11.32080
G1 Z-2.00000
G0 Z2.00000

G0 X24.65580 Y8.78080
G1 Z-2.00000
G0 Z2.00000

G0 X27.95780 Y9.79680
G1 Z-2.00000
G0 Z2.00000

G0 X27.95780 Y12.33680
G1 Z-2.00000
G0 Z2.00000

G0 X27.95780 Y14.87680
G1 Z-2.00000
G0 Z2.00000

G0 X27.95780 Y17.41680
G1 Z-2.00000
G0 Z2.00000

G0 X27.95780 Y28.46580
G1 Z-2.00000
G0 Z2.00000

G0 X27.95780 Y31.00580
G1 Z-2.00000
G0 Z2.00000

G0 X27.95780 Y33.54580
G1 Z-2.00000
G0 Z2.00000

G0 X27.95780 Y36.08580
G1 Z-2.00000
G0 Z2.00000

G0 X27.95780 Y38.62580
G1 Z-2.00000
G0 Z2.00000

G0 X24.14780 Y43.19780
G1 Z-2.00000
G0 Z2.00000

G0 X21.60780 Y43.19780
G1 Z-2.00000
G0 Z2.00000

G0 X13.60680 Y42.94380
G1 Z-2.00000
G0 Z2.00000

G0 X11.06680 Y42.94380
G1 Z-2.00000
G0 Z2.00000

G0 X5.35180 Y43.70580
G1 Z-2.00000
G0 Z2.00000

G0 X2.81180 Y43.70580
G1 Z-2.00000
G0 Z2.00000

G0 X3.82780 Y38.87980
G1 Z-2.00000
G0 Z2.00000

G0 X6.36780 Y38.87980
G1 Z-2.00000
G0 Z2.00000

G0 X11.95580 Y8.78080
G1 Z-2.00000
G0 Z2.00000

G0 X14.49580 Y8.78080
G1 Z-2.00000
G0 Z2.00000

G0 X17.03580 Y8.78080
G1 Z-2.00000
G0 Z2.00000

G0 X16.40080 Y4.97080
G1 Z-2.00000
G0 Z2.00000

G0 X18.94080 Y4.97080
G1 Z-2.00000
G0 Z2.00000

G0 X4.47572 Y64.27980
G1 Z0.00000
G2 X4.47572 Y64.27980 I-0.13992 J0
G1 Z-0.20000
G2 X4.47572 Y64.27980 I-0.13992 J0
G1 Z-0.40000
G2 X4.47572 Y64.27980 I-0.13992 J0
G1 Z-0.60000
G2 X4.47572 Y64.27980 I-0.13992 J0
G1 Z-0.80000
G2 X4.47572 Y64.27980 I-0.13992 J0
G1 Z-1.00000
G2 X4.47572 Y64.27980 I-0.13992 J0
G1 Z-1.20000
G2 X4.47572 Y64.27980 I-0.13992 J0
G1 Z-1.40000
G2 X4.47572 Y64.27980 I-0.13992 J0
G1 Z-1.60000
G2 X4.47572 Y64.27980 I-0.13992 J0
G1 Z-1.80000
G2 X4.47572 Y64.27980 I-0.13992 J0
G1 Z-2.00000
G2 X4.47572 Y64.27980 I-0.13992 J0
G0 Z2.00000
G0 X9.55572 Y64.27980
G1 Z0.00000
G2 X9.55572 Y64.27980 I-0.13992 J0
G1 Z-0.20000
G2 X9.55572 Y64.27980 I-0.13992 J0
G1 Z-0.40000
G2 X9.55572 Y64.27980 I-0.13992 J0
G1 Z-0.60000
G2 X9.55572 Y64.27980 I-0.13992 J0
G1 Z-0.80000
G2 X9.55572 Y64.27980 I-0.13992 J0
G1 Z-1.00000
G2 X9.55572 Y64.27980 I-0.13992 J0
G1 Z-1.20000
G2 X9.55572 Y64.27980 I-0.13992 J0
G1 Z-1.40000
G2 X9.55572 Y64.27980 I-0.13992 J0
G1 Z-1.60000
G2 X9.55572 Y64.27980 I-0.13992 J0
G1 Z-1.80000
G2 X9.55572 Y64.27980 I-0.13992 J0
G1 Z-2.00000
G2 X9.55572 Y64.27980 I-0.13992 J0
G0 Z2.00000
G0 X7.01572 Y74.43980
G1 Z0.00000
G2 X7.01572 Y74.43980 I-0.13992 J0
G1 Z-0.20000
G2 X7.01572 Y74.43980 I-0.13992 J0
G1 Z-0.40000
G2 X7.01572 Y74.43980 I-0.13992 J0
G1 Z-0.60000
G2 X7.01572 Y74.43980 I-0.13992 J0
G1 Z-0.80000
G2 X7.01572 Y74.43980 I-0.13992 J0
G1 Z-1.00000
G2 X7.01572 Y74.43980 I-0.13992 J0
G1 Z-1.20000
G2 X7.01572 Y74.43980 I-0.13992 J0
G1 Z-1.40000
G2 X7.01572 Y74.43980 I-0.13992 J0
G1 Z-1.60000
G2 X7.01572 Y74.43980 I-0.13992 J0
G1 Z-1.80000
G2 X7.01572 Y74.43980 I-0.13992 J0
G1 Z-2.00000
G2 X7.01572 Y74.43980 I-0.13992 J0
G0 Z2.00000
G0 X7.87617 Y69.23280
G1 Z0.00000
G2 X7.87617 Y69.23280 I-1.00037 J0
G1 Z-0.20000
G2 X7.87617 Y69.23280 I-1.00037 J0
G1 Z-0.40000
G2 X7.87617 Y69.23280 I-1.00037 J0
G1 Z-0.60000
G2 X7.87617 Y69.23280 I-1.00037 J0
G1 Z-0.80000
G2 X7.87617 Y69.23280 I-1.00037 J0
G1 Z-1.00000
G2 X7.87617 Y69.23280 I-1.00037 J0
G1 Z-1.20000
G2 X7.87617 Y69.23280 I-1.00037 J0
G1 Z-1.40000
G2 X7.87617 Y69.23280 I-1.00037 J0
G1 Z-1.60000
G2 X7.87617 Y69.23280 I-1.00037 J0
G1 Z-1.80000
G2 X7.87617 Y69.23280 I-1.00037 J0
G1 Z-2.00000
G2 X7.87617 Y69.23280 I-1.00037 J0
G0 Z2.00000
G0 X5.66499 Y4.08180
G1 Z0.00000
G2 X5.66499 Y4.08180 I-1.07519 J0
G1 Z-0.20000
G2 X5.66499 Y4.08180 I-1.07519 J0
G1 Z-0.40000
G2 X5.66499 Y4.08180 I-1.07519 J0
G1 Z-0.60000
G2 X5.66499 Y4.08180 I-1.07519 J0
G1 Z-0.80000
G2 X5.66499 Y4.08180 I-1.07519 J0
G1 Z-1.00000
G2 X5.66499 Y4.08180 I-1.07519 J0
G1 Z-1.20000
G2 X5.66499 Y4.08180 I-1.07519 J0
G1 Z-1.40000
G2 X5.66499 Y4.08180 I-1.07519 J0
G1 Z-1.60000
G2 X5.66499 Y4.08180 I-1.07519 J0
G1 Z-1.80000
G2 X5.66499 Y4.08180 I-1.07519 J0
G1 Z-2.00000
G2 X5.66499 Y4.08180 I-1.07519 J0
G0 Z2.00000
G0 X25.98499 Y4.08180
G1 Z0.00000
G2 X25.98499 Y4.08180 I-1.07519 J0
G1 Z-0.20000
G2 X25.98499 Y4.08180 I-1.07519 J0
G1 Z-0.40000
G2 X25.98499 Y4.08180 I-1.07519 J0
G1 Z-0.60000
G2 X25.98499 Y4.08180 I-1.07519 J0
G1 Z-0.80000
G2 X25.98499 Y4.08180 I-1.07519 J0
G1 Z-1.00000
G2 X25.98499 Y4.08180 I-1.07519 J0
G1 Z-1.20000
G2 X25.98499 Y4.08180 I-1.07519 J0
G1 Z-1.40000
G2 X25.98499 Y4.08180 I-1.07519 J0
G1 Z-1.60000
G2 X25.98499 Y4.08180 I-1.07519 J0
G1 Z-1.80000
G2 X25.98499 Y4.08180 I-1.07519 J0
G1 Z-2.00000
G2 X25.98499 Y4.08180 I-1.07519 J0
G0 Z2.00000
G0 X16.33299 Y68.08980
G1 Z0.00000
G2 X16.33299 Y68.08980 I-1.07519 J0
G1 Z-0.20000
G2 X16.33299 Y68.08980 I-1.07519 J0
G1 Z-0.40000
G2 X16.33299 Y68.08980 I-1.07519 J0
G1 Z-0.60000
G2 X16.33299 Y68.08980 I-1.07519 J0
G1 Z-0.80000
G2 X16.33299 Y68.08980 I-1.07519 J0
G1 Z-1.00000
G2 X16.33299 Y68.08980 I-1.07519 J0
G1 Z-1.20000
G2 X16.33299 Y68.08980 I-1.07519 J0
G1 Z-1.40000
G2 X16.33299 Y68.08980 I-1.07519 J0
G1 Z-1.60000
G2 X16.33299 Y68.08980 I-1.07519 J0
G1 Z-1.80000
G2 X16.33299 Y68.08980 I-1.07519 J0
G1 Z-2.00000
G2 X16.33299 Y68.08980 I-1.07519 J0
G0 Z2.00000
G00 Z10.000 ( All done -- retract )

M5      (Spindle off.)
M9      (Coolant off.)
M2      (Program end.)

