( pcb2gcode 1.3.2 )
( Software-independent Gcode )

G94 ( Millimeters per minute feed rate. )
G21 ( Units == Millimeters. )

G90 ( Absolute coordinates. )
S10000 ( RPM spindle speed. )
F200.00000 ( Feedrate. )

F200.00000 ( Feedrate. )
M3 ( Spindle on clockwise. )
G04 P0 ( dwell for no time -- G64 should not smooth over this point )
G00 Z2.00000 ( retract )

G00 X11.62425 Y4.46267 ( rapid move to begin. )
F100.00000
G01 Z-0.20000
G04 P0 ( dwell for no time -- G64 should not smooth over this point )
F200.00000
X11.62425 Y4.46267
X11.54767 Y5.70857
X8.74397 Y5.70870
X8.63666 Y5.82988
X6.55685 Y5.83049
X6.19846 Y5.57278
X6.01502 Y5.39732
X5.83758 Y5.18678
X5.78751 Y4.95411
X5.76003 Y4.71065
X5.76135 Y4.41520
X5.94586 Y4.09760
X6.11273 Y3.88706
X6.40077 Y3.62018
X6.58594 Y3.49189
X6.79566 Y3.37565
X7.13765 Y3.22813
X7.47778 Y3.23755
X7.75106 Y3.27438
X8.03295 Y3.34172
X8.42380 Y3.48330
X8.85126 Y3.48330
X9.12317 Y3.36250
X9.41610 Y3.26379
X9.69098 Y3.20187
X9.95458 Y3.17045
X10.64635 Y3.17390
X10.90660 Y3.20939
X11.17505 Y3.27395
X11.56334 Y3.41685
X11.62425 Y4.46267
G04 P0 ( dwell for no time -- G64 should not smooth over this point )
G00 Z2.00000 ( retract )

G00 X14.08948 Y4.58355 ( rapid move to begin. )
F100.00000
G01 Z-0.20000
G04 P0 ( dwell for no time -- G64 should not smooth over this point )
F200.00000
X14.08948 Y4.58355
X14.09283 Y8.24826
X11.54767 Y5.70857
X11.62425 Y4.46267
X11.56334 Y3.41685
X11.91463 Y3.25930
X12.17658 Y3.17456
X12.42649 Y3.12049
X12.84467 Y3.08856
X13.15821 Y3.11269
X13.41338 Y3.16273
X13.68386 Y3.24553
X13.97716 Y3.36999
X14.08536 Y3.42651
X14.08948 Y4.58355
G04 P0 ( dwell for no time -- G64 should not smooth over this point )
G00 Z2.00000 ( retract )

G00 X16.62948 Y4.58355 ( rapid move to begin. )
F100.00000
G01 Z-0.20000
G04 P0 ( dwell for no time -- G64 should not smooth over this point )
F200.00000
X16.62948 Y4.58355
X16.63194 Y7.77069
X16.36692 Y8.13762
X15.96405 Y8.63940
X15.24322 Y9.40363
X14.09283 Y8.24826
X14.08536 Y3.42651
X14.34858 Y3.30179
X14.62935 Y3.19958
X14.89130 Y3.13400
X15.20995 Y3.09300
X15.62696 Y3.10357
X15.87294 Y3.14401
X16.12813 Y3.21271
X16.39859 Y3.31533
X16.62536 Y3.42651
X16.62948 Y4.58355
G04 P0 ( dwell for no time -- G64 should not smooth over this point )
G00 Z2.00000 ( retract )

G00 X18.97910 Y4.58571 ( rapid move to begin. )
F100.00000
G01 Z-0.20000
G04 P0 ( dwell for no time -- G64 should not smooth over this point )
F200.00000
X18.97910 Y4.58571
X18.93818 Y5.00621
X18.86122 Y5.30014
X18.67440 Y5.73417
X18.39793 Y6.17141
X18.08497 Y6.55220
X17.61439 Y7.01484
X17.41083 Y7.18959
X16.63194 Y7.77069
X16.62536 Y3.42651
X16.99463 Y3.25930
X17.25658 Y3.17456
X17.50649 Y3.12049
X17.92467 Y3.08856
X18.16696 Y3.10357
X18.40633 Y3.14281
X18.61304 Y3.30108
X18.84700 Y3.53085
X18.91337 Y3.75251
X18.95685 Y3.97657
X18.97689 Y4.19353
X18.97910 Y4.58571
G04 P0 ( dwell for no time -- G64 should not smooth over this point )
G00 Z2.00000 ( retract )

G00 X19.97168 Y3.26085 ( rapid move to begin. )
F100.00000
G01 Z-0.20000
G04 P0 ( dwell for no time -- G64 should not smooth over this point )
F200.00000
X19.97168 Y3.26085
X20.17130 Y3.74058
X20.17130 Y19.16780
X20.15103 Y19.41197
X20.08281 Y19.68162
X19.13727 Y21.97465
X17.51169 Y23.60020
X17.11947 Y23.78069
X16.68706 Y24.03208
X16.30679 Y24.30973
X15.86580 Y24.72369
X15.20129 Y24.71458
X14.43141 Y24.63116
X13.99821 Y24.63116
X13.78927 Y24.65311
X13.46100 Y24.71648
X13.11765 Y24.82049
X12.86459 Y24.92364
X12.87233 Y25.75493
X12.84008 Y26.36136
X12.61915 Y26.66321
X12.35593 Y26.91297
X12.10210 Y27.08666
X11.80061 Y27.23454
X11.23927 Y26.67563
X10.67056 Y26.02377
X9.45271 Y26.02367
X9.25388 Y25.63682
X9.16482 Y25.38887
X9.09977 Y25.11158
X9.07000 Y24.72184
X9.08974 Y24.46538
X9.18283 Y24.06533
X9.31346 Y23.74219
X9.45271 Y23.48367
X10.62926 Y23.48555
X10.90993 Y23.33924
X11.49819 Y23.11046
X11.93340 Y22.86563
X12.30454 Y22.59136
X12.47929 Y22.44135
X12.92169 Y22.00183
X13.32748 Y21.52233
X13.77160 Y21.57036
X14.31927 Y21.35982
X14.67309 Y21.19149
X15.15790 Y20.90806
X15.58419 Y20.59510
X15.86580 Y20.34847
X16.35003 Y20.31646
X16.87342 Y20.23478
X17.28556 Y20.12335
X17.62127 Y19.99211
X17.96879 Y19.80488
X18.19567 Y19.64486
X18.35505 Y19.50872
X18.58258 Y19.26879
X18.82589 Y18.92094
X18.85563 Y18.56846
X18.84469 Y18.28817
X18.80374 Y18.00481
X18.72980 Y17.71177
X18.55995 Y17.27481
X18.45348 Y17.06582
X18.22211 Y16.69178
X17.89244 Y16.26290
X17.41236 Y15.75429
X16.94403 Y15.33519
X16.68602 Y15.12628
X16.29798 Y14.82991
X15.86580 Y14.53357
X15.61134 Y14.16573
X15.19689 Y13.63606
X15.16044 Y13.33398
X15.22183 Y12.70159
X15.24220 Y12.30025
X15.24220 Y11.89888
X15.21726 Y11.32080
X15.16044 Y10.79398
X15.22183 Y10.16159
X15.24322 Y9.40363
X15.96405 Y8.63940
X16.36692 Y8.13762
X16.63194 Y7.77069
X17.41083 Y7.18959
X17.91891 Y6.72693
X18.08497 Y6.55220
X18.39793 Y6.17141
X18.67440 Y5.73417
X18.86122 Y5.30014
X18.92716 Y5.05962
X18.96496 Y4.83146
X18.97910 Y4.58571
X18.97461 Y4.15129
X18.94928 Y3.92724
X18.89808 Y3.69361
X18.83930 Y3.52163
X18.61304 Y3.30108
X18.41202 Y3.14647
X18.23821 Y3.11269
X17.99221 Y3.09026
X17.68124 Y3.09824
X17.25658 Y3.17456
X16.99463 Y3.25930
X16.62536 Y3.42651
X16.22386 Y3.24553
X15.95338 Y3.16273
X15.69821 Y3.11269
X15.38467 Y3.08856
X14.96649 Y3.12049
X14.71658 Y3.17456
X14.45463 Y3.25930
X14.08536 Y3.42651
X13.85859 Y3.31533
X13.58813 Y3.21271
X13.33294 Y3.14401
X12.91221 Y3.09026
X12.60124 Y3.09824
X12.17658 Y3.17456
X11.91463 Y3.25930
X11.56334 Y3.41685
X11.17505 Y3.27395
X10.73185 Y3.18261
X10.42555 Y3.16400
X9.95458 Y3.17045
X9.69098 Y3.20187
X9.41610 Y3.26379
X9.12317 Y3.36250
X8.85126 Y3.48330
X8.42380 Y3.48330
X8.03295 Y3.34172
X7.75106 Y3.27438
X7.47778 Y3.23755
X7.13765 Y3.22813
X6.79566 Y3.37565
X6.58594 Y3.49189
X6.40077 Y3.62018
X6.11273 Y3.88706
X5.94586 Y4.09760
X5.76135 Y4.41520
X5.76003 Y4.71065
X5.78751 Y4.95411
X5.83758 Y5.18678
X6.01502 Y5.39732
X6.19846 Y5.57278
X6.55685 Y5.83049
X8.63666 Y5.82988
X8.73737 Y8.09409
X8.26330 Y8.18161
X7.96340 Y8.27316
X7.68890 Y8.33498
X7.34720 Y8.37054
X6.90920 Y8.37173
X6.64931 Y8.35421
X6.38126 Y8.30818
X5.75419 Y8.13925
X5.47517 Y8.09680
X5.36252 Y7.60412
X5.32831 Y7.27260
X5.32533 Y6.98151
X4.83994 Y5.80966
X4.77913 Y5.60184
X4.76580 Y5.45180
X4.76580 Y4.18180
X4.77913 Y4.03171
X4.81370 Y3.89508
X4.86013 Y3.77515
X6.44217 Y2.19311
X6.65477 Y2.12087
X6.82848 Y2.09928
X18.72424 Y2.10144
X18.89792 Y2.13189
X18.98205 Y2.17304
X19.77956 Y2.97055
X19.89917 Y3.12491
X19.97168 Y3.26085
G04 P0 ( dwell for no time -- G64 should not smooth over this point )
G00 Z2.00000 ( retract )

G00 X15.24322 Y9.40363 ( rapid move to begin. )
F100.00000
G01 Z-0.20000
G04 P0 ( dwell for no time -- G64 should not smooth over this point )
F200.00000
X15.24322 Y9.40363
X15.22183 Y10.16159
X15.16044 Y10.79398
X14.09781 Y10.78087
X8.94544 Y10.78458
X8.74943 Y10.09347
X8.69568 Y9.67582
X8.70750 Y9.21016
X8.75421 Y8.91481
X8.82482 Y8.60216
X8.87275 Y8.24763
X14.07728 Y8.24062
X15.24322 Y9.40363
G04 P0 ( dwell for no time -- G64 should not smooth over this point )
G00 Z2.00000 ( retract )

G00 X15.24220 Y11.89888 ( rapid move to begin. )
F100.00000
G01 Z-0.20000
G04 P0 ( dwell for no time -- G64 should not smooth over this point )
F200.00000
X15.24220 Y11.89888
X15.24220 Y12.30025
X15.22183 Y12.70159
X15.16044 Y13.33398
X14.09781 Y13.32087
X8.96962 Y13.32377
X8.83226 Y13.60568
X8.46995 Y13.85300
X7.97227 Y14.13060
X7.65642 Y14.35526
X7.45426 Y14.46855
X7.42723 Y14.46992
X6.19251 Y14.46723
X5.99345 Y14.05003
X5.87293 Y13.63002
X5.83597 Y13.34279
X5.83285 Y13.11597
X5.85327 Y12.88562
X5.94951 Y12.47198
X6.09191 Y12.11953
X6.31517 Y11.94005
X6.56882 Y11.77594
X6.85502 Y11.62949
X7.28123 Y11.45054
X7.34034 Y11.39144
X7.63346 Y11.27472
X7.82383 Y11.21920
X8.24580 Y11.16251
X8.52182 Y11.10726
X8.79782 Y10.99454
X8.94544 Y10.78458
X14.09781 Y10.78087
X15.16044 Y10.79398
X15.21726 Y11.32080
X15.24220 Y11.89888
G04 P0 ( dwell for no time -- G64 should not smooth over this point )
G00 Z2.00000 ( retract )

G00 X14.31927 Y14.50939 ( rapid move to begin. )
F100.00000
G01 Z-0.20000
G04 P0 ( dwell for no time -- G64 should not smooth over this point )
F200.00000
X14.31927 Y14.50939
X12.94404 Y15.87042
X8.96962 Y15.86377
X8.83226 Y16.14568
X8.58159 Y16.32318
X8.10300 Y16.58881
X7.65642 Y16.89526
X7.45426 Y17.00855
X6.19251 Y17.00723
X5.99345 Y16.59003
X5.87293 Y16.17002
X5.84004 Y15.93601
X5.83153 Y15.70807
X5.84616 Y15.48122
X5.88459 Y15.25089
X5.97644 Y14.93347
X6.09229 Y14.65882
X6.19251 Y14.46723
X7.45426 Y14.46855
X7.65642 Y14.35526
X8.10300 Y14.04881
X8.58159 Y13.78318
X8.83226 Y13.60568
X8.96962 Y13.32377
X14.09781 Y13.32087
X15.16044 Y13.33398
X15.19689 Y13.63606
X14.31927 Y14.50939
G04 P0 ( dwell for no time -- G64 should not smooth over this point )
G00 Z2.00000 ( retract )

G00 X12.47973 Y17.11921 ( rapid move to begin. )
F100.00000
G01 Z-0.20000
G04 P0 ( dwell for no time -- G64 should not smooth over this point )
F200.00000
X12.47973 Y17.11921
X12.08651 Y17.47794
X11.75659 Y17.72018
X11.27800 Y17.98581
X10.83142 Y18.29226
X10.62926 Y18.40555
X8.96962 Y18.40377
X8.53241 Y19.30196
X8.26330 Y19.35761
X7.86366 Y19.47506
X7.42568 Y19.54235
X6.76460 Y19.54042
X6.50885 Y19.39422
X6.26518 Y19.21106
X6.09625 Y19.05045
X5.89488 Y18.80463
X5.83597 Y18.42279
X5.83285 Y18.19597
X5.85327 Y17.96562
X5.89953 Y17.72671
X5.97644 Y17.47347
X6.09229 Y17.19882
X6.19251 Y17.00723
X7.45426 Y17.00855
X7.65642 Y16.89526
X8.10300 Y16.58881
X8.58159 Y16.32318
X8.83226 Y16.14568
X8.96962 Y15.86377
X12.94404 Y15.87042
X12.52804 Y17.06841
X12.47973 Y17.11921
G04 P0 ( dwell for no time -- G64 should not smooth over this point )
G00 Z2.00000 ( retract )

G00 X12.74696 Y22.18565 ( rapid move to begin. )
F100.00000
G01 Z-0.20000
G04 P0 ( dwell for no time -- G64 should not smooth over this point )
F200.00000
X12.74696 Y22.18565
X12.30454 Y22.59136
X12.10812 Y22.74402
X11.78595 Y22.95789
X11.49819 Y23.11046
X10.90993 Y23.33924
X10.62926 Y23.48555
X9.45271 Y23.48367
X9.25388 Y23.09682
X9.14857 Y22.79228
X9.09977 Y22.57158
X9.03970 Y22.09436
X8.92083 Y21.56792
X8.88395 Y21.16427
X8.97260 Y20.94369
X12.78011 Y20.94735
X13.32748 Y21.52233
X12.92169 Y22.00183
X12.74696 Y22.18565
G04 P0 ( dwell for no time -- G64 should not smooth over this point )
G00 Z2.00000 ( retract )

G00 X11.76952 Y27.31531 ( rapid move to begin. )
F100.00000
G01 Z-0.20000
G04 P0 ( dwell for no time -- G64 should not smooth over this point )
F200.00000
X11.76952 Y27.31531
X11.60724 Y27.63852
X11.36314 Y27.98023
X11.15890 Y28.18975
X10.82631 Y28.44035
X10.59883 Y28.56710
X9.85481 Y28.56801
X9.66960 Y28.45666
X9.46429 Y28.30682
X9.21273 Y28.06908
X9.14857 Y27.87228
X9.09977 Y27.65158
X9.07445 Y27.43657
X9.07100 Y27.22265
X9.12106 Y26.83065
X9.18283 Y26.60533
X9.31346 Y26.28219
X9.45271 Y26.02367
X10.67056 Y26.02377
X11.23927 Y26.67563
X11.80061 Y27.23454
X11.76952 Y27.31531
G04 P0 ( dwell for no time -- G64 should not smooth over this point )
G00 Z2.00000 ( retract )

G00 X11.78537 Y32.39449 ( rapid move to begin. )
F100.00000
G01 Z-0.20000
G04 P0 ( dwell for no time -- G64 should not smooth over this point )
F200.00000
X11.78537 Y32.39449
X11.88732 Y32.68741
X11.96446 Y33.00437
X10.43208 Y33.84664
X10.13439 Y34.03155
X9.50602 Y34.46137
X8.43396 Y34.21176
X6.58002 Y33.81517
X7.13414 Y33.05990
X7.53084 Y32.59498
X7.99223 Y32.13732
X8.49680 Y31.67948
X8.73706 Y31.40748
X8.95022 Y31.10440
X10.60099 Y31.10699
X10.92824 Y31.29854
X11.11544 Y31.44352
X11.28440 Y31.60412
X11.43850 Y31.78385
X11.57991 Y31.98789
X11.78537 Y32.39449
G04 P0 ( dwell for no time -- G64 should not smooth over this point )
G00 Z2.00000 ( retract )

G00 X3.52183 Y39.58976 ( rapid move to begin. )
F100.00000
G01 Z-0.20000
G04 P0 ( dwell for no time -- G64 should not smooth over this point )
F200.00000
X3.52183 Y39.58976
X0.44269 Y36.51067
X2.45490 Y35.66325
X4.18909 Y34.91021
X6.58002 Y33.81517
X8.43396 Y34.21176
X9.50602 Y34.46137
X9.77397 Y34.82464
X10.19055 Y35.49253
X10.47341 Y35.67097
X10.64813 Y35.76223
X10.91023 Y35.87231
X11.15192 Y35.94526
X11.37993 Y35.98898
X11.59977 Y36.00805
X11.81623 Y36.00467
X12.03378 Y35.97915
X12.25709 Y35.92987
X12.49118 Y35.85311
X12.74208 Y35.74232
X12.94239 Y35.63091
X13.27551 Y35.80251
X13.51719 Y35.89525
X13.74520 Y35.95766
X14.13977 Y36.00805
X14.53410 Y35.98420
X14.77998 Y35.81405
X14.93537 Y35.67493
X15.07688 Y35.51961
X15.29989 Y35.19007
X15.48475 Y34.78255
X15.48168 Y33.31530
X15.25643 Y33.11814
X14.87042 Y32.60138
X14.67647 Y32.26026
X14.50141 Y31.85802
X14.34939 Y31.37286
X14.22890 Y30.76740
X14.15696 Y29.90491
X14.90022 Y29.91604
X15.65556 Y29.96849
X16.57395 Y29.99371
X16.99463 Y30.02351
X17.42483 Y30.09971
X17.72792 Y30.18116
X18.20964 Y30.35785
X18.47268 Y30.47733
X18.41924 Y30.97151
X18.35624 Y31.31512
X18.16828 Y32.09663
X18.02480 Y32.83744
X18.02589 Y34.88301
X17.87621 Y35.20147
X17.64891 Y35.53739
X17.50268 Y35.69837
X17.34205 Y35.84257
X17.11949 Y36.00114
X16.90217 Y36.12139
X16.64573 Y36.23015
X16.33560 Y36.32474
X16.10939 Y36.37404
X15.88536 Y36.59804
X15.13522 Y36.90762
X14.90672 Y36.97008
X14.72280 Y36.98590
X10.98900 Y36.98590
X10.69375 Y37.02616
X10.12885 Y37.24849
X9.83439 Y37.52722
X9.43841 Y37.81920
X9.14158 Y38.06179
X8.85870 Y38.09077
X8.44882 Y38.16012
X7.65177 Y38.35674
X6.85368 Y38.59197
X4.90603 Y39.20896
X3.52183 Y39.58976
G04 P0 ( dwell for no time -- G64 should not smooth over this point )
G00 Z2.00000 ( retract )

G00 X5.66978 Y41.73771 ( rapid move to begin. )
F100.00000
G01 Z-0.20000
G04 P0 ( dwell for no time -- G64 should not smooth over this point )
F200.00000
X5.66978 Y41.73771
X3.52181 Y39.58978
X4.90603 Y39.20896
X6.85368 Y38.59197
X7.65177 Y38.35674
X8.44882 Y38.16012
X8.85870 Y38.09077
X9.14158 Y38.06179
X9.43841 Y37.81920
X9.83439 Y37.52722
X10.12885 Y37.24849
X10.69375 Y37.02616
X10.98900 Y36.98590
X14.72280 Y36.98590
X14.90672 Y36.97008
X15.13522 Y36.90762
X15.88536 Y36.59804
X16.10939 Y36.37404
X16.33560 Y36.32474
X16.64573 Y36.23015
X16.96224 Y36.09103
X17.30768 Y35.86987
X17.47344 Y35.72685
X17.62152 Y35.57013
X17.75513 Y35.39652
X17.87621 Y35.20147
X18.02589 Y34.88301
X18.02480 Y32.83744
X18.16828 Y32.09663
X18.35624 Y31.31512
X18.41924 Y30.97151
X18.47268 Y30.47733
X19.43201 Y30.07601
X19.76343 Y29.89912
X19.97255 Y29.75955
X20.19807 Y29.57771
X21.04011 Y28.74728
X21.29396 Y28.53905
X21.54219 Y28.37604
X21.78331 Y28.24741
X22.77671 Y27.82953
X23.29967 Y28.21188
X23.72105 Y28.45813
X23.94638 Y28.56791
X25.86923 Y28.56555
X26.21874 Y28.35247
X26.40609 Y28.20012
X26.61389 Y27.98693
X26.76298 Y27.79367
X26.89979 Y27.57256
X27.02448 Y27.31455
X27.12305 Y27.04922
X27.08757 Y26.90733
X27.18615 Y26.64200
X27.31084 Y26.38399
X27.44764 Y26.16288
X27.59674 Y25.96962
X27.75965 Y25.79804
X27.93905 Y25.64389
X28.13921 Y25.50429
X28.34137 Y25.39100
X29.76697 Y25.38846
X29.91434 Y25.72270
X30.00230 Y25.99585
X30.05828 Y26.25646
X30.09102 Y26.68503
X30.06529 Y27.01945
X30.01271 Y27.28551
X29.92594 Y27.56755
X29.76694 Y27.92846
X28.34142 Y27.93100
X28.13921 Y28.04431
X27.93905 Y28.18389
X27.75963 Y28.33804
X27.59674 Y28.50964
X27.44762 Y28.70291
X27.31084 Y28.92402
X27.18615 Y29.18203
X27.08757 Y29.44733
X27.12305 Y29.58924
X27.02448 Y29.85455
X26.89979 Y30.11256
X26.76301 Y30.33367
X26.61389 Y30.52693
X26.40609 Y30.74012
X26.21874 Y30.89247
X26.00530 Y31.03227
X25.84223 Y31.10692
X23.94087 Y31.10776
X23.88428 Y31.13232
X23.59002 Y31.19145
X23.31742 Y31.27669
X22.66855 Y31.54204
X21.91743 Y32.29317
X21.63462 Y32.41624
X21.22596 Y32.63315
X21.01550 Y32.76790
X20.69015 Y33.01489
X20.63927 Y33.05967
X20.56269 Y33.21735
X20.56302 Y35.04415
X20.47526 Y35.22002
X20.34717 Y35.42540
X20.20587 Y35.60820
X20.04933 Y35.77320
X19.87410 Y35.92372
X19.67519 Y36.06185
X19.27448 Y36.26434
X18.98850 Y36.36363
X18.72899 Y36.42776
X16.94850 Y38.20825
X16.73641 Y38.39088
X16.40735 Y38.59090
X16.05846 Y38.74101
X15.81980 Y38.57800
X15.58114 Y38.46154
X15.34248 Y38.39166
X15.10380 Y38.36840
X13.07180 Y38.36840
X12.84955 Y38.38859
X12.62730 Y38.44917
X12.40505 Y38.55016
X12.18280 Y38.69154
X12.18034 Y41.64517
X11.68336 Y41.57779
X11.42685 Y41.51640
X11.03690 Y41.37997
X10.76891 Y41.31388
X10.50914 Y41.27687
X10.26490 Y41.26595
X9.91727 Y41.29196
X9.65410 Y41.34307
X9.07308 Y41.53235
X8.61075 Y41.61787
X7.69033 Y41.68703
X5.66978 Y41.73771
G04 P0 ( dwell for no time -- G64 should not smooth over this point )
G00 Z2.00000 ( retract )

G00 X22.34448 Y37.98455 ( rapid move to begin. )
F100.00000
G01 Z-0.20000
G04 P0 ( dwell for no time -- G64 should not smooth over this point )
F200.00000
X22.34448 Y37.98455
X22.34029 Y39.61582
X22.31763 Y39.86763
X22.27435 Y40.10177
X21.99358 Y40.43392
X18.97098 Y43.45652
X18.66620 Y43.71672
X18.39696 Y43.76889
X18.05020 Y43.79310
X15.70481 Y43.79310
X15.22608 Y43.99127
X14.86885 Y44.09516
X14.52618 Y44.15845
X14.12021 Y44.18817
X13.68503 Y44.16300
X13.33604 Y44.10196
X13.13047 Y44.04873
X12.57170 Y43.83933
X12.18107 Y43.63796
X12.18283 Y41.64083
X12.73007 Y41.56842
X12.88308 Y41.53235
X13.39529 Y41.36092
X13.66969 Y41.30080
X14.07490 Y41.26595
X14.37332 Y41.28239
X14.64134 Y41.32676
X14.92379 Y41.40418
X15.23685 Y41.51640
X15.54606 Y41.58602
X15.83176 Y41.45732
X16.11749 Y41.26580
X16.61662 Y41.26323
X16.86801 Y41.24058
X17.17194 Y41.17995
X17.45213 Y41.09191
X19.37077 Y39.17690
X19.45774 Y38.58719
X19.56015 Y38.21084
X19.76556 Y37.68940
X19.90145 Y37.40843
X20.13470 Y37.06375
X20.32383 Y36.85951
X20.64169 Y36.60711
X20.85207 Y36.48318
X21.09368 Y36.37155
X21.34801 Y36.28275
X22.34549 Y36.55928
X22.34448 Y37.98455
G04 P0 ( dwell for no time -- G64 should not smooth over this point )
G00 Z2.00000 ( retract )

G00 X25.78963 Y34.99723 ( rapid move to begin. )
F100.00000
G01 Z-0.20000
G04 P0 ( dwell for no time -- G64 should not smooth over this point )
F200.00000
X25.78963 Y34.99723
X25.77190 Y35.98506
X24.88549 Y36.55928
X23.10213 Y36.06629
X23.10460 Y34.43770
X23.28641 Y34.13218
X23.43304 Y33.94301
X23.59545 Y33.77229
X23.92131 Y33.51354
X24.14079 Y33.38380
X24.35705 Y33.28278
X25.46652 Y33.77006
X25.92974 Y34.02670
X25.81059 Y34.71974
X25.78963 Y34.99723
G04 P0 ( dwell for no time -- G64 should not smooth over this point )
G00 Z2.00000 ( retract )

G00 X30.09102 Y31.76506 ( rapid move to begin. )
F100.00000
G01 Z-0.20000
G04 P0 ( dwell for no time -- G64 should not smooth over this point )
F200.00000
X30.09102 Y31.76506
X30.06529 Y32.09947
X29.96272 Y32.54029
X29.85612 Y32.82231
X29.69630 Y33.14351
X29.69630 Y36.05494
X29.83600 Y36.24640
X29.93580 Y36.43787
X29.99567 Y36.62933
X30.01561 Y36.82080
X30.01563 Y38.43202
X29.79224 Y38.94614
X29.72838 Y39.02476
X29.64977 Y39.08861
X29.55643 Y39.13771
X29.31962 Y39.23581
X28.44705 Y39.23581
X27.82923 Y38.97988
X27.75252 Y38.92948
X27.70212 Y38.85280
X27.41518 Y38.16007
X27.42056 Y37.59240
X27.39859 Y37.33919
X27.34909 Y37.07594
X27.18569 Y36.46896
X25.77190 Y35.98506
X25.79875 Y34.83851
X25.92974 Y34.02670
X27.05112 Y33.45660
X27.33459 Y33.08916
X27.08757 Y31.98733
X27.22778 Y31.62807
X27.35110 Y31.39348
X27.48732 Y31.18733
X27.63763 Y31.00316
X27.80454 Y30.83646
X27.99189 Y30.68411
X28.20532 Y30.54431
X28.36839 Y30.46966
X29.76694 Y30.46846
X29.91434 Y30.80273
X30.00230 Y31.07588
X30.05828 Y31.33648
X30.09102 Y31.76506
G04 P0 ( dwell for no time -- G64 should not smooth over this point )
G00 Z2.00000 ( retract )

G00 X30.09102 Y29.22506 ( rapid move to begin. )
F100.00000
G01 Z-0.20000
G04 P0 ( dwell for no time -- G64 should not smooth over this point )
F200.00000
X30.09102 Y29.22506
X30.06529 Y29.55947
X30.01271 Y29.82554
X29.92594 Y30.10758
X29.76694 Y30.46846
X28.34139 Y30.47103
X27.99189 Y30.68411
X27.80454 Y30.83646
X27.63763 Y31.00316
X27.48732 Y31.18733
X27.35110 Y31.39348
X27.22778 Y31.62807
X27.08757 Y31.98733
X27.33459 Y33.08916
X27.05112 Y33.45660
X25.92974 Y34.02670
X25.46652 Y33.77006
X24.35705 Y33.28278
X24.14079 Y33.38380
X23.92131 Y33.51354
X23.59545 Y33.77229
X23.43304 Y33.94301
X23.28641 Y34.13218
X23.10460 Y34.43770
X23.10213 Y36.06629
X22.34549 Y36.55928
X21.34801 Y36.28275
X21.09368 Y36.37155
X20.85207 Y36.48318
X20.64169 Y36.60711
X20.32383 Y36.85951
X20.13470 Y37.06375
X19.99470 Y37.25453
X19.86627 Y37.47388
X19.76556 Y37.68940
X19.60496 Y38.08343
X19.50316 Y38.40096
X19.41789 Y38.79446
X19.37077 Y39.17690
X17.45213 Y41.09191
X17.17194 Y41.17995
X16.86801 Y41.24058
X16.61662 Y41.26323
X16.11749 Y41.26580
X15.83176 Y41.45732
X15.54606 Y41.58602
X15.23685 Y41.51640
X14.92379 Y41.40418
X14.64134 Y41.32676
X14.37332 Y41.28239
X14.07490 Y41.26595
X13.66969 Y41.30080
X13.39529 Y41.36092
X12.88308 Y41.53235
X12.73007 Y41.56842
X12.18283 Y41.64083
X12.18280 Y38.69154
X12.40505 Y38.55016
X12.62730 Y38.44917
X12.84955 Y38.38859
X13.07180 Y38.36840
X15.10380 Y38.36840
X15.34248 Y38.39166
X15.58114 Y38.46154
X15.81980 Y38.57800
X16.05846 Y38.74101
X16.40735 Y38.59090
X16.69788 Y38.41887
X16.94850 Y38.20825
X18.72899 Y36.42776
X18.98850 Y36.36363
X19.27448 Y36.26434
X19.67519 Y36.06185
X19.87410 Y35.92372
X20.04933 Y35.77320
X20.20587 Y35.60820
X20.34717 Y35.42540
X20.47526 Y35.22002
X20.56302 Y35.04415
X20.56269 Y33.21735
X20.63927 Y33.05967
X20.87143 Y32.87095
X21.22596 Y32.63315
X21.63462 Y32.41624
X21.91743 Y32.29317
X22.66855 Y31.54204
X23.31742 Y31.27669
X23.59002 Y31.19145
X23.88428 Y31.13232
X23.94087 Y31.10776
X25.86923 Y31.10555
X26.07142 Y30.99226
X26.27157 Y30.85269
X26.57299 Y30.57342
X26.72331 Y30.38924
X26.85953 Y30.18309
X26.98285 Y29.94850
X27.12305 Y29.58924
X27.08757 Y29.44733
X27.18615 Y29.18203
X27.31084 Y28.92402
X27.48732 Y28.64733
X27.63763 Y28.46316
X27.80454 Y28.29646
X27.99189 Y28.14411
X28.34142 Y27.93100
X29.76694 Y27.92846
X29.91434 Y28.26273
X30.00230 Y28.53588
X30.05828 Y28.79648
X30.09102 Y29.22506
G04 P0 ( dwell for no time -- G64 should not smooth over this point )
G00 Z2.00000 ( retract )

G00 X30.09102 Y24.14506 ( rapid move to begin. )
F100.00000
G01 Z-0.20000
G04 P0 ( dwell for no time -- G64 should not smooth over this point )
F200.00000
X30.09102 Y24.14506
X30.06529 Y24.47947
X30.01271 Y24.74554
X29.92594 Y25.02758
X29.76697 Y25.38846
X28.34137 Y25.39100
X28.13921 Y25.50429
X27.93905 Y25.64389
X27.75965 Y25.79804
X27.59674 Y25.96962
X27.44764 Y26.16288
X27.31084 Y26.38399
X27.18615 Y26.64200
X27.08757 Y26.90733
X27.12305 Y27.04922
X27.02448 Y27.31455
X26.89979 Y27.57256
X26.76298 Y27.79367
X26.61389 Y27.98693
X26.40609 Y28.20012
X26.21874 Y28.35247
X25.86923 Y28.56555
X23.94638 Y28.56791
X23.72105 Y28.45813
X23.29967 Y28.21188
X22.77671 Y27.82953
X22.95220 Y27.33083
X23.16652 Y26.87048
X23.40246 Y26.47566
X23.72281 Y26.02217
X25.86923 Y26.02555
X26.07142 Y25.91226
X26.27157 Y25.77269
X26.57299 Y25.49342
X26.76301 Y25.25367
X26.89979 Y25.03256
X27.02448 Y24.77455
X27.12305 Y24.50924
X26.89603 Y23.48494
X27.13715 Y23.11747
X27.53232 Y23.04196
X27.83222 Y22.95042
X28.10672 Y22.88860
X28.44843 Y22.85304
X28.88640 Y22.85184
X29.14632 Y22.86937
X29.41436 Y22.91539
X29.69696 Y22.99456
X29.73123 Y23.00701
X29.91545 Y23.18600
X30.04286 Y23.63061
X30.08053 Y23.89121
X30.09102 Y24.14506
G04 P0 ( dwell for no time -- G64 should not smooth over this point )
G00 Z2.00000 ( retract )

G00 X27.02448 Y24.77455 ( rapid move to begin. )
F100.00000
G01 Z-0.20000
G04 P0 ( dwell for no time -- G64 should not smooth over this point )
F200.00000
X27.02448 Y24.77455
X26.85953 Y25.10309
X26.72331 Y25.30924
X26.57299 Y25.49342
X26.27157 Y25.77269
X26.07142 Y25.91226
X25.86923 Y26.02555
X23.72281 Y26.02217
X23.61638 Y24.93203
X23.61653 Y24.57622
X23.68499 Y24.04028
X23.84183 Y23.48410
X26.89603 Y23.48494
X27.12305 Y24.50924
X27.02448 Y24.77455
G04 P0 ( dwell for no time -- G64 should not smooth over this point )
G00 Z2.00000 ( retract )

G00 X27.10439 Y22.23048 ( rapid move to begin. )
F100.00000
G01 Z-0.20000
G04 P0 ( dwell for no time -- G64 should not smooth over this point )
F200.00000
X27.10439 Y22.23048
X27.08935 Y22.64818
X27.13715 Y23.11747
X26.89603 Y23.48494
X23.84183 Y23.48410
X23.68715 Y22.94178
X23.63033 Y22.57473
X23.61194 Y22.21732
X23.62984 Y21.86150
X23.68499 Y21.50028
X23.84183 Y20.94410
X26.82303 Y20.94788
X26.96552 Y21.32360
X27.04619 Y21.63810
X27.09097 Y21.93823
X27.10439 Y22.23048
G04 P0 ( dwell for no time -- G64 should not smooth over this point )
G00 Z2.00000 ( retract )

G00 X27.58640 Y19.66600 ( rapid move to begin. )
F100.00000
G01 Z-0.20000
G04 P0 ( dwell for no time -- G64 should not smooth over this point )
F200.00000
X27.58640 Y19.66600
X27.29682 Y20.01339
X27.10710 Y20.30110
X26.96623 Y20.58657
X26.82303 Y20.94788
X23.84183 Y20.94410
X23.68715 Y20.40178
X23.63033 Y20.03473
X23.61194 Y19.67732
X23.62984 Y19.32150
X23.68499 Y18.96028
X23.84183 Y18.40410
X26.89313 Y18.40506
X27.66877 Y19.57529
X27.58640 Y19.66600
G04 P0 ( dwell for no time -- G64 should not smooth over this point )
G00 Z2.00000 ( retract )

G00 X27.03969 Y17.15376 ( rapid move to begin. )
F100.00000
G01 Z-0.20000
G04 P0 ( dwell for no time -- G64 should not smooth over this point )
F200.00000
X27.03969 Y17.15376
X27.11968 Y17.37908
X26.89313 Y18.40506
X23.84183 Y18.40410
X23.68715 Y17.86178
X23.63033 Y17.49473
X23.61194 Y17.13732
X23.62984 Y16.78150
X23.68499 Y16.42028
X23.84183 Y15.86410
X25.86893 Y15.86557
X26.17442 Y16.04738
X26.36359 Y16.19402
X26.53431 Y16.35643
X26.69004 Y16.53821
X26.83291 Y16.74451
X27.03969 Y17.15376
G04 P0 ( dwell for no time -- G64 should not smooth over this point )
G00 Z2.00000 ( retract )

G00 X30.02754 Y17.79828 ( rapid move to begin. )
F100.00000
G01 Z-0.20000
G04 P0 ( dwell for no time -- G64 should not smooth over this point )
F200.00000
X30.02754 Y17.79828
X30.00382 Y18.10671
X29.90441 Y18.53394
X29.74952 Y18.91708
X29.56537 Y19.24811
X29.11546 Y19.51982
X28.77098 Y19.67450
X28.26003 Y19.66424
X28.04472 Y19.64230
X27.66877 Y19.57529
X26.89313 Y18.40506
X27.11968 Y17.37908
X26.96369 Y16.98269
X26.83291 Y16.74451
X26.69004 Y16.53821
X26.49184 Y16.31287
X26.17442 Y16.04738
X25.86893 Y15.86557
X23.84183 Y15.86410
X23.68715 Y15.32178
X23.63033 Y14.95473
X23.61194 Y14.59732
X23.62984 Y14.24150
X23.68499 Y13.88028
X23.84183 Y13.32410
X25.86893 Y13.32557
X26.17442 Y13.50738
X26.36359 Y13.65402
X26.53431 Y13.81643
X26.69004 Y13.99821
X26.83291 Y14.20451
X26.96369 Y14.44269
X27.08186 Y14.72366
X27.11968 Y14.83908
X27.09097 Y14.98744
X27.17096 Y15.21279
X27.28785 Y15.46481
X27.52059 Y15.82836
X27.67632 Y16.01012
X27.84703 Y16.17256
X28.09488 Y16.35886
X28.34175 Y16.50100
X29.68599 Y16.49872
X29.81695 Y16.77304
X29.94223 Y17.13534
X29.99582 Y17.38266
X30.02754 Y17.79828
G04 P0 ( dwell for no time -- G64 should not smooth over this point )
G00 Z2.00000 ( retract )

G00 X30.02754 Y15.25828 ( rapid move to begin. )
F100.00000
G01 Z-0.20000
G04 P0 ( dwell for no time -- G64 should not smooth over this point )
F200.00000
X30.02754 Y15.25828
X30.00382 Y15.56671
X29.95442 Y15.81922
X29.87255 Y16.08683
X29.68599 Y16.49872
X28.34175 Y16.50100
X28.09488 Y16.35886
X27.89532 Y16.21294
X27.67632 Y16.01012
X27.52059 Y15.82836
X27.28785 Y15.46481
X27.17096 Y15.21279
X27.09097 Y14.98744
X27.11968 Y14.83908
X27.08186 Y14.72366
X26.96369 Y14.44269
X26.83291 Y14.20451
X26.69004 Y13.99821
X26.53431 Y13.81643
X26.36359 Y13.65402
X26.17442 Y13.50738
X25.86893 Y13.32557
X23.84183 Y13.32410
X23.68715 Y12.78178
X23.63033 Y12.41473
X23.61194 Y12.05732
X23.62984 Y11.70150
X23.68499 Y11.34028
X23.84183 Y10.78410
X25.86893 Y10.78557
X26.17442 Y10.96738
X26.36359 Y11.11402
X26.53431 Y11.27643
X26.69004 Y11.45821
X26.83291 Y11.66451
X26.96369 Y11.90269
X27.08186 Y12.18366
X27.11968 Y12.29908
X27.09097 Y12.44744
X27.17096 Y12.67279
X27.28785 Y12.92481
X27.52059 Y13.28836
X27.67632 Y13.47012
X27.84703 Y13.63256
X28.09488 Y13.81886
X28.34175 Y13.96100
X29.68599 Y13.95872
X29.81695 Y14.23304
X29.94223 Y14.59534
X29.99582 Y14.84266
X30.02754 Y15.25828
G04 P0 ( dwell for no time -- G64 should not smooth over this point )
G00 Z2.00000 ( retract )

G00 X30.02754 Y12.71828 ( rapid move to begin. )
F100.00000
G01 Z-0.20000
G04 P0 ( dwell for no time -- G64 should not smooth over this point )
F200.00000
X30.02754 Y12.71828
X30.00382 Y13.02671
X29.95442 Y13.27922
X29.87255 Y13.54683
X29.68599 Y13.95872
X28.34175 Y13.96100
X28.09488 Y13.81886
X27.89532 Y13.67294
X27.67632 Y13.47012
X27.52059 Y13.28836
X27.28785 Y12.92481
X27.17096 Y12.67279
X27.09097 Y12.44744
X27.11968 Y12.29908
X27.08186 Y12.18366
X26.96369 Y11.90269
X26.83291 Y11.66451
X26.69004 Y11.45821
X26.53431 Y11.27643
X26.36359 Y11.11402
X26.17442 Y10.96738
X25.86893 Y10.78557
X23.84183 Y10.78410
X23.68715 Y10.24178
X23.63033 Y9.87473
X23.61194 Y9.51732
X23.62984 Y9.16150
X23.68499 Y8.80028
X23.84183 Y8.24410
X25.86893 Y8.24557
X26.17442 Y8.42738
X26.36359 Y8.57402
X26.53431 Y8.73643
X26.69004 Y8.91821
X26.83291 Y9.12451
X26.96369 Y9.36269
X27.08186 Y9.64366
X27.11968 Y9.75908
X27.09097 Y9.90744
X27.17096 Y10.13279
X27.28785 Y10.38481
X27.52059 Y10.74836
X27.67632 Y10.93012
X27.84703 Y11.09256
X28.09488 Y11.27886
X28.34175 Y11.42100
X29.68599 Y11.41872
X29.81695 Y11.69304
X29.94223 Y12.05534
X29.99582 Y12.30266
X30.02754 Y12.71828
G04 P0 ( dwell for no time -- G64 should not smooth over this point )
G00 Z2.00000 ( retract )

G00 X30.02754 Y10.17828 ( rapid move to begin. )
F100.00000
G01 Z-0.20000
G04 P0 ( dwell for no time -- G64 should not smooth over this point )
F200.00000
X30.02754 Y10.17828
X30.00382 Y10.48671
X29.95442 Y10.73922
X29.87255 Y11.00683
X29.68599 Y11.41872
X28.34175 Y11.42100
X28.09488 Y11.27886
X27.89532 Y11.13294
X27.67632 Y10.93012
X27.52059 Y10.74836
X27.28785 Y10.38481
X27.17096 Y10.13279
X27.09097 Y9.90744
X27.11968 Y9.75908
X27.08186 Y9.64366
X26.96369 Y9.36269
X26.83291 Y9.12451
X26.69004 Y8.91821
X26.53431 Y8.73643
X26.36359 Y8.57402
X26.17442 Y8.42738
X25.86893 Y8.24557
X23.84183 Y8.24410
X23.68715 Y7.70178
X23.63033 Y7.33473
X23.61194 Y6.97732
X23.62984 Y6.62150
X23.68499 Y6.26028
X23.84183 Y5.70410
X25.86893 Y5.70557
X26.17442 Y5.88738
X26.36359 Y6.03402
X26.53431 Y6.19643
X26.69004 Y6.37821
X26.83291 Y6.58451
X26.96369 Y6.82269
X27.08186 Y7.10366
X27.11968 Y7.21908
X27.09097 Y7.36744
X27.17096 Y7.59279
X27.28785 Y7.84481
X27.52059 Y8.20836
X27.67632 Y8.39012
X27.84703 Y8.55256
X28.09488 Y8.73886
X28.34175 Y8.88100
X29.68599 Y8.87872
X29.81695 Y9.15304
X29.94223 Y9.51534
X29.99582 Y9.76266
X30.02754 Y10.17828
G04 P0 ( dwell for no time -- G64 should not smooth over this point )
G00 Z2.00000 ( retract )

G00 X30.02754 Y7.63828 ( rapid move to begin. )
F100.00000
G01 Z-0.20000
G04 P0 ( dwell for no time -- G64 should not smooth over this point )
F200.00000
X30.02754 Y7.63828
X30.00382 Y7.94671
X29.95442 Y8.19922
X29.87255 Y8.46683
X29.68599 Y8.87872
X28.34175 Y8.88100
X28.09488 Y8.73886
X27.89532 Y8.59294
X27.71879 Y8.43368
X27.56059 Y8.25873
X27.41757 Y8.06427
X27.24696 Y7.76389
X27.12879 Y7.48291
X27.09097 Y7.36744
X27.11968 Y7.21908
X27.03969 Y6.99376
X26.92280 Y6.74176
X26.79306 Y6.52228
X26.65003 Y6.32782
X26.36359 Y6.03402
X26.17442 Y5.88738
X25.86893 Y5.70557
X23.84183 Y5.70410
X23.76667 Y5.48098
X23.82446 Y5.09442
X23.95743 Y4.59470
X24.06644 Y4.32516
X24.18839 Y4.09305
X24.32306 Y3.88904
X24.59370 Y3.58165
X24.86723 Y3.36036
X24.98831 Y3.33547
X25.27500 Y3.30570
X25.66715 Y3.30349
X25.92910 Y3.31883
X26.16807 Y3.35884
X26.41996 Y3.42836
X26.83004 Y3.60273
X27.09105 Y3.95978
X27.10439 Y4.45048
X27.07792 Y4.83069
X27.53507 Y5.93440
X27.59125 Y6.01995
X27.67683 Y6.07613
X28.33893 Y6.35040
X28.88640 Y6.34184
X29.14632 Y6.35937
X29.39117 Y6.39968
X29.61833 Y6.57616
X29.91363 Y6.87816
X29.99582 Y7.22266
X30.02754 Y7.63828
G04 P0 ( dwell for no time -- G64 should not smooth over this point )
G00 Z2.00000 ( retract )

G00 X18.85563 Y18.49711 ( rapid move to begin. )
F100.00000
G01 Z-0.20000
G04 P0 ( dwell for no time -- G64 should not smooth over this point )
F200.00000
X18.85563 Y18.49711
X18.82589 Y18.92094
X18.71090 Y19.10158
X18.54250 Y19.31575
X18.35505 Y19.50872
X18.14395 Y19.68451
X17.90260 Y19.84540
X17.62127 Y19.99211
X17.41236 Y20.07864
X17.05762 Y20.19089
X16.62412 Y20.28098
X16.35003 Y20.31646
X15.86580 Y20.34847
X15.58419 Y20.59510
X15.33306 Y20.78768
X14.86458 Y21.08753
X14.31927 Y21.35982
X13.77160 Y21.57036
X13.32748 Y21.52233
X12.78011 Y20.94735
X8.97260 Y20.94369
X8.88982 Y20.74270
X8.78999 Y20.42820
X8.65398 Y19.66297
X8.53241 Y19.30196
X8.96962 Y18.40377
X10.62926 Y18.40555
X10.83142 Y18.29226
X11.27800 Y17.98581
X11.75659 Y17.72018
X12.08651 Y17.47794
X12.52804 Y17.06841
X12.94404 Y15.87042
X15.19689 Y13.63606
X15.61134 Y14.16573
X15.86580 Y14.53357
X16.29798 Y14.82991
X16.94403 Y15.33519
X17.41236 Y15.75429
X17.62130 Y15.96323
X18.06163 Y16.47184
X18.35779 Y16.90072
X18.61670 Y17.40186
X18.69691 Y17.61081
X18.78581 Y17.92071
X18.83684 Y18.21375
X18.85563 Y18.49711
G04 P0 ( dwell for no time -- G64 should not smooth over this point )
G00 Z2.00000 ( retract )

G00 X13.14231 Y7.30295 ( rapid move to begin. )
F100.00000
G01 Z-0.20000
G04 P0 ( dwell for no time -- G64 should not smooth over this point )
F200.00000
X13.14231 Y7.30295
X14.07728 Y8.24062
X8.87275 Y8.24763
X8.73737 Y8.09409
X8.63666 Y5.82988
X8.74397 Y5.70870
X11.54767 Y5.70857
X13.14231 Y7.30295
G04 P0 ( dwell for no time -- G64 should not smooth over this point )
G00 Z2.00000 ( retract )

G00 X-4.96220 Y28.04005 ( rapid move to begin. )
F100.00000
G01 Z-0.20000
G04 P0 ( dwell for no time -- G64 should not smooth over this point )
F200.00000
X-4.96220 Y28.04005
X-4.96220 Y3.17324
X-2.42736 Y0.63098
X22.46983 Y0.62580
X22.46391 Y2.14264
X22.41364 Y2.66313
X22.35367 Y2.96707
X22.26652 Y3.26516
X21.79716 Y4.42330
X21.72881 Y4.69338
X21.70907 Y4.89328
X21.70780 Y22.72380
X21.69411 Y22.92507
X21.65332 Y23.12964
X21.60102 Y23.29304
X21.03297 Y24.66863
X19.69439 Y26.00718
X19.49363 Y26.46560
X19.28017 Y26.83555
X19.04626 Y27.15653
X18.85335 Y27.37304
X18.39691 Y27.54177
X18.05635 Y27.62155
X17.73079 Y27.66202
X17.41233 Y27.66778
X17.09389 Y27.64007
X16.85051 Y27.59461
X16.52666 Y27.33784
X16.22470 Y27.01947
X16.02447 Y26.74749
X15.86580 Y26.48247
X15.86580 Y24.72369
X16.30679 Y24.30973
X16.68706 Y24.03208
X17.11947 Y23.78069
X17.51169 Y23.60020
X19.13727 Y21.97465
X20.04273 Y19.78868
X20.11829 Y19.56490
X20.15103 Y19.41197
X20.17130 Y19.16780
X20.17130 Y3.74058
X19.95164 Y3.21848
X19.86861 Y3.07911
X19.77956 Y2.97055
X18.98205 Y2.17304
X18.89792 Y2.13189
X18.72424 Y2.10144
X6.82848 Y2.09928
X6.65477 Y2.12087
X6.44217 Y2.19311
X4.86013 Y3.77515
X4.79899 Y3.94347
X4.77258 Y4.07583
X4.76580 Y5.45180
X4.77913 Y5.60184
X4.83994 Y5.80966
X5.32533 Y6.98151
X5.32831 Y7.27260
X5.36252 Y7.60412
X5.47517 Y8.09680
X5.36089 Y8.43800
X5.32279 Y8.77920
X5.32279 Y10.36977
X4.89117 Y11.41412
X4.84309 Y11.57218
X4.81985 Y11.72730
X4.81743 Y19.06625
X4.84311 Y19.27044
X4.89112 Y19.42833
X5.32279 Y20.47278
X5.32279 Y20.90673
X5.64408 Y21.68237
X5.72038 Y21.82746
X5.81959 Y21.94961
X5.94174 Y22.04882
X6.08683 Y22.12512
X7.23287 Y22.59982
X7.45942 Y22.82637
X7.77793 Y23.60767
X7.84753 Y23.89433
X7.86404 Y24.08062
X7.86483 Y25.97711
X8.05126 Y26.34879
X8.14687 Y26.61759
X8.20755 Y26.86837
X8.24189 Y27.13509
X8.24710 Y27.34066
X8.23076 Y27.57256
X8.19010 Y27.80807
X8.10399 Y28.10568
X7.97824 Y28.41327
X7.72652 Y28.48851
X7.52093 Y28.53077
X7.07704 Y28.56514
X6.81730 Y28.54919
X6.54928 Y28.50481
X6.26684 Y28.42740
X5.95378 Y28.31518
X5.69727 Y28.25379
X5.45909 Y28.21665
X5.07179 Y28.17769
X4.27281 Y28.13453
X3.53641 Y28.11282
X-4.96220 Y28.04005
G04 P0 ( dwell for no time -- G64 should not smooth over this point )
G00 Z2.00000 ( retract )

G00 X34.40780 Y62.58923 ( rapid move to begin. )
F100.00000
G01 Z-0.20000
G04 P0 ( dwell for no time -- G64 should not smooth over this point )
F200.00000
X34.40780 Y62.58923
X32.08634 Y57.91809
X31.15144 Y55.98868
X30.31990 Y54.17941
X29.58180 Y52.46362
X28.18480 Y49.09096
X27.81018 Y48.15672
X27.43911 Y47.15672
X27.03113 Y45.93437
X26.71371 Y44.80257
X26.54399 Y44.07542
X26.16334 Y41.89023
X26.06669 Y41.42338
X25.93124 Y40.95770
X25.39542 Y40.28587
X25.27381 Y40.11114
X25.10314 Y39.83835
X24.88478 Y39.41373
X24.88549 Y36.55928
X25.77190 Y35.98506
X27.18569 Y36.46896
X27.34909 Y37.07594
X27.39859 Y37.33919
X27.42056 Y37.59240
X27.41518 Y38.16007
X27.70212 Y38.85280
X27.75252 Y38.92948
X27.82923 Y38.97988
X28.44705 Y39.23581
X29.31962 Y39.23581
X29.55643 Y39.13771
X29.64977 Y39.08861
X29.72838 Y39.02476
X29.79224 Y38.94614
X29.84134 Y38.85280
X30.01563 Y38.43202
X30.01561 Y36.82080
X29.99567 Y36.62933
X29.93580 Y36.43787
X29.83600 Y36.24640
X29.69630 Y36.05494
X29.69630 Y33.14351
X29.85612 Y32.82231
X29.96272 Y32.54029
X30.03397 Y32.27420
X30.08904 Y31.84296
X30.08053 Y31.51121
X30.00230 Y31.07588
X29.91434 Y30.80273
X29.76694 Y30.46846
X29.92594 Y30.10758
X30.01271 Y29.82554
X30.06529 Y29.55947
X30.08904 Y29.30296
X30.08053 Y28.97121
X30.00230 Y28.53588
X29.91434 Y28.26273
X29.76694 Y27.92846
X29.92594 Y27.56755
X30.01271 Y27.28551
X30.06529 Y27.01945
X30.08904 Y26.76293
X30.08053 Y26.43118
X30.00230 Y25.99585
X29.91434 Y25.72270
X29.76697 Y25.38846
X29.85612 Y25.20231
X29.96272 Y24.92029
X30.06529 Y24.47947
X30.08904 Y24.22296
X30.08657 Y23.97033
X30.04286 Y23.63061
X29.91545 Y23.18600
X29.83443 Y23.10267
X29.73123 Y23.00701
X29.32104 Y22.89616
X28.88640 Y22.85184
X28.36994 Y22.85723
X27.93197 Y22.92451
X27.53232 Y23.04196
X27.13715 Y23.11747
X27.08935 Y22.64818
X27.10439 Y22.23048
X27.06872 Y21.76348
X26.96552 Y21.32360
X26.82303 Y20.94788
X26.96623 Y20.58657
X27.10710 Y20.30110
X27.29682 Y20.01339
X27.66877 Y19.57529
X28.04472 Y19.64230
X28.26003 Y19.66424
X28.77098 Y19.67450
X29.11546 Y19.51982
X29.56537 Y19.24811
X29.80275 Y18.80158
X29.95442 Y18.35922
X30.00382 Y18.10671
X30.02589 Y17.86328
X30.02312 Y17.62356
X29.99582 Y17.38266
X29.94223 Y17.13534
X29.85825 Y16.87614
X29.68599 Y16.49872
X29.87255 Y16.08683
X29.95442 Y15.81922
X30.01258 Y15.49803
X30.02312 Y15.08356
X29.98276 Y14.77007
X29.91799 Y14.51089
X29.81695 Y14.23304
X29.68599 Y13.95872
X29.87255 Y13.54683
X29.95442 Y13.27922
X30.01258 Y12.95803
X30.02312 Y12.54356
X29.98276 Y12.23007
X29.91799 Y11.97089
X29.81695 Y11.69304
X29.68599 Y11.41872
X29.87255 Y11.00683
X29.95442 Y10.73922
X30.01258 Y10.41803
X30.02312 Y10.00356
X29.98276 Y9.69007
X29.91799 Y9.43089
X29.81695 Y9.15304
X29.68599 Y8.87872
X29.87255 Y8.46683
X29.97250 Y8.12144
X30.02589 Y7.70328
X30.01807 Y7.39739
X29.98276 Y7.15007
X29.91363 Y6.87816
X29.61833 Y6.57616
X29.39117 Y6.39968
X29.14632 Y6.35937
X28.88640 Y6.34184
X28.33893 Y6.35040
X27.67683 Y6.07613
X27.59125 Y6.01995
X27.53507 Y5.93440
X27.07792 Y4.83069
X27.10439 Y4.45048
X27.09105 Y3.95978
X26.83004 Y3.60273
X26.41996 Y3.42836
X26.16807 Y3.35884
X25.92910 Y3.31883
X25.66715 Y3.30349
X25.27500 Y3.30570
X24.86723 Y3.36036
X24.63672 Y3.54180
X24.47170 Y3.70679
X24.28491 Y3.94246
X24.14953 Y4.16112
X24.02608 Y4.41627
X23.91633 Y4.72069
X23.86340 Y4.91489
X23.78923 Y5.30631
X23.76667 Y5.48098
X23.84183 Y5.70410
X23.68499 Y6.26028
X23.62984 Y6.62150
X23.61194 Y6.97732
X23.63033 Y7.33473
X23.68715 Y7.70178
X23.84183 Y8.24410
X23.68499 Y8.80028
X23.62984 Y9.16150
X23.61194 Y9.51732
X23.63033 Y9.87473
X23.68715 Y10.24178
X23.84183 Y10.78410
X23.68499 Y11.34028
X23.62984 Y11.70150
X23.61194 Y12.05732
X23.63033 Y12.41473
X23.68715 Y12.78178
X23.84183 Y13.32410
X23.68499 Y13.88028
X23.62984 Y14.24150
X23.61194 Y14.59732
X23.63033 Y14.95473
X23.68715 Y15.32178
X23.84183 Y15.86410
X23.68499 Y16.42028
X23.62984 Y16.78150
X23.61194 Y17.13732
X23.63033 Y17.49473
X23.68715 Y17.86178
X23.84183 Y18.40410
X23.68499 Y18.96028
X23.62984 Y19.32150
X23.61194 Y19.67732
X23.63033 Y20.03473
X23.68715 Y20.40178
X23.84183 Y20.94410
X23.68499 Y21.50028
X23.62984 Y21.86150
X23.61194 Y22.21732
X23.63033 Y22.57473
X23.68715 Y22.94178
X23.84183 Y23.48410
X23.68499 Y24.04028
X23.61653 Y24.57622
X23.61638 Y24.93203
X23.72281 Y26.02217
X23.40246 Y26.47566
X23.16652 Y26.87048
X22.95220 Y27.33083
X22.77671 Y27.82953
X21.78331 Y28.24741
X21.54219 Y28.37604
X21.29396 Y28.53905
X21.04011 Y28.74728
X20.19807 Y29.57771
X19.97255 Y29.75955
X19.76343 Y29.89912
X19.43201 Y30.07601
X18.47268 Y30.47733
X18.20964 Y30.35785
X17.72792 Y30.18116
X17.42483 Y30.09971
X16.99463 Y30.02351
X16.57395 Y29.99371
X15.65556 Y29.96849
X14.90022 Y29.91604
X14.15696 Y29.90491
X14.22890 Y30.76740
X14.34939 Y31.37286
X14.50141 Y31.85802
X14.67647 Y32.26026
X14.87042 Y32.60138
X15.25643 Y33.11814
X15.48168 Y33.31530
X15.48475 Y34.78255
X15.32575 Y35.14199
X15.18312 Y35.37874
X15.05424 Y35.54669
X14.77998 Y35.81405
X14.53410 Y35.98420
X14.18150 Y36.00909
X13.96502 Y35.99474
X13.69192 Y35.94526
X13.45023 Y35.87231
X13.18813 Y35.76223
X12.94239 Y35.63091
X12.56736 Y35.82258
X12.25709 Y35.92987
X11.85905 Y36.00140
X11.59977 Y36.00805
X11.20520 Y35.95766
X10.91023 Y35.87231
X10.47341 Y35.67097
X10.19055 Y35.49253
X9.77397 Y34.82464
X9.50602 Y34.46137
X10.13439 Y34.03155
X10.43208 Y33.84664
X11.96446 Y33.00437
X11.88732 Y32.68741
X11.70937 Y32.22340
X11.57991 Y31.98789
X11.43850 Y31.78385
X11.28440 Y31.60412
X11.11544 Y31.44352
X10.92824 Y31.29854
X10.71791 Y31.16709
X10.60099 Y31.10699
X8.95022 Y31.10440
X8.73706 Y31.40748
X8.49680 Y31.67948
X7.99223 Y32.13732
X7.53084 Y32.59498
X7.13414 Y33.05990
X6.58002 Y33.81517
X4.18909 Y34.91021
X2.45490 Y35.66325
X0.44272 Y36.51064
X-4.96220 Y31.09826
X-4.96220 Y28.04002
X3.53641 Y28.11282
X4.27281 Y28.13453
X5.07179 Y28.17769
X5.45909 Y28.21665
X5.69727 Y28.25379
X5.95378 Y28.31518
X6.26684 Y28.42740
X6.54928 Y28.50481
X6.81730 Y28.54919
X7.07704 Y28.56514
X7.52093 Y28.53077
X7.72652 Y28.48851
X7.97824 Y28.41327
X8.10399 Y28.10568
X8.19010 Y27.80807
X8.23076 Y27.57256
X8.24710 Y27.34066
X8.24189 Y27.13509
X8.20755 Y26.86837
X8.14687 Y26.61759
X8.05126 Y26.34879
X7.86483 Y25.97711
X7.86404 Y24.08062
X7.84753 Y23.89433
X7.77793 Y23.60767
X7.45942 Y22.82637
X7.23287 Y22.59982
X6.08683 Y22.12512
X5.94174 Y22.04882
X5.81959 Y21.94961
X5.72038 Y21.82746
X5.64408 Y21.68237
X5.32279 Y20.90673
X5.32279 Y20.47278
X4.89112 Y19.42833
X4.82495 Y19.16681
X4.81985 Y11.72730
X4.84309 Y11.57218
X4.89117 Y11.41412
X5.32279 Y10.36977
X5.32279 Y8.77920
X5.36089 Y8.43800
X5.47517 Y8.09680
X5.91510 Y8.17460
X6.47458 Y8.32741
X6.90920 Y8.37173
X7.34720 Y8.37054
X7.60041 Y8.34857
X7.86366 Y8.29906
X8.26330 Y8.18161
X8.73737 Y8.09409
X8.87275 Y8.24763
X8.82482 Y8.60216
X8.72291 Y9.08954
X8.69124 Y9.50109
X8.70465 Y9.79335
X8.74943 Y10.09347
X8.94544 Y10.78458
X8.83353 Y10.94823
X8.79782 Y10.99454
X8.52182 Y11.10726
X8.24580 Y11.16251
X7.96079 Y11.19190
X7.63346 Y11.27472
X7.34034 Y11.39144
X7.28123 Y11.45054
X6.72945 Y11.68943
X6.46249 Y11.84028
X6.09191 Y12.11953
X5.94951 Y12.47198
X5.88459 Y12.71089
X5.84616 Y12.94122
X5.83153 Y13.16807
X5.84004 Y13.39601
X5.87293 Y13.63002
X5.93371 Y13.87528
X6.02879 Y14.13819
X6.19251 Y14.46723
X6.04624 Y14.75872
X5.89953 Y15.18671
X5.84616 Y15.48122
X5.83597 Y15.88279
X5.87293 Y16.17002
X5.93371 Y16.41528
X6.02879 Y16.67819
X6.19251 Y17.00723
X6.04624 Y17.29872
X5.94951 Y17.55198
X5.85327 Y17.96562
X5.83153 Y18.24807
X5.86229 Y18.65076
X5.89488 Y18.80463
X5.94215 Y18.87070
X6.09625 Y19.05045
X6.31151 Y19.24979
X6.50885 Y19.39422
X6.76460 Y19.54042
X7.34720 Y19.54654
X7.60041 Y19.52457
X7.86366 Y19.47506
X8.26330 Y19.35761
X8.53241 Y19.30196
X8.61730 Y19.53310
X8.68954 Y19.83612
X8.72690 Y20.12810
X8.78999 Y20.42820
X8.88982 Y20.74270
X8.97260 Y20.94369
X8.88395 Y21.16427
X8.89546 Y21.34618
X8.93983 Y21.68354
X9.06462 Y22.23556
X9.10803 Y22.61755
X9.22454 Y23.02360
X9.33416 Y23.27155
X9.45271 Y23.48367
X9.31346 Y23.74219
X9.18283 Y24.06533
X9.12106 Y24.29065
X9.07100 Y24.68265
X9.07752 Y24.93683
X9.14857 Y25.33228
X9.25388 Y25.63682
X9.45271 Y26.02367
X9.31346 Y26.28219
X9.20480 Y26.54122
X9.13282 Y26.78005
X9.08430 Y27.04790
X9.07000 Y27.26184
X9.07752 Y27.47683
X9.10803 Y27.69755
X9.21273 Y28.06908
X9.46429 Y28.30682
X9.66960 Y28.45666
X9.85481 Y28.56801
X10.59883 Y28.56710
X10.97363 Y28.34055
X11.20193 Y28.14990
X11.47254 Y27.84253
X11.64610 Y27.57045
X11.80061 Y27.23454
X12.10210 Y27.08666
X12.35593 Y26.91297
X12.61915 Y26.66321
X12.84008 Y26.36136
X12.87233 Y25.75493
X12.86459 Y24.92364
X13.11765 Y24.82049
X13.46100 Y24.71648
X13.78927 Y24.65311
X13.99821 Y24.63116
X14.43141 Y24.63116
X15.20129 Y24.71458
X15.86580 Y24.72369
X15.86580 Y26.48247
X16.09641 Y26.85227
X16.30006 Y27.10774
X16.52666 Y27.33784
X16.85051 Y27.59461
X17.09389 Y27.64007
X17.41233 Y27.66778
X17.62127 Y27.66778
X17.93974 Y27.64007
X18.26531 Y27.57713
X18.60588 Y27.47388
X18.85335 Y27.37304
X18.93392 Y27.28813
X19.17458 Y26.98932
X19.39244 Y26.65232
X19.58906 Y26.26553
X19.69439 Y26.00718
X21.03297 Y24.66863
X21.60102 Y23.29304
X21.65332 Y23.12964
X21.69411 Y22.92507
X21.70780 Y22.72380
X21.70907 Y4.89328
X21.72881 Y4.69338
X21.79716 Y4.42330
X22.26652 Y3.26516
X22.35367 Y2.96707
X22.41364 Y2.66313
X22.46391 Y2.14264
X22.46983 Y0.62580
X31.86729 Y0.62717
X34.40780 Y3.17324
X34.40780 Y62.58923
G04 P0 ( dwell for no time -- G64 should not smooth over this point )
G00 Z2.00000 ( retract )

G00 X34.40780 Y62.58920 ( rapid move to begin. )
F100.00000
G01 Z-0.20000
G04 P0 ( dwell for no time -- G64 should not smooth over this point )
F200.00000
X34.40780 Y62.58920
X34.40656 Y75.55456
X15.35904 Y75.55453
X15.35638 Y51.44221
X15.33585 Y51.40380
X5.66976 Y41.73773
X7.69033 Y41.68703
X8.61075 Y41.61787
X9.07308 Y41.53235
X9.65410 Y41.34307
X9.91727 Y41.29196
X10.26490 Y41.26595
X10.50914 Y41.27687
X10.76891 Y41.31388
X11.03690 Y41.37997
X11.42685 Y41.51640
X11.68336 Y41.57779
X12.18034 Y41.64517
X12.18107 Y43.63796
X12.57170 Y43.83933
X12.96827 Y43.99770
X13.33604 Y44.10196
X13.68503 Y44.16300
X14.22311 Y44.18556
X14.66326 Y44.13740
X15.02054 Y44.05579
X15.22608 Y43.99127
X15.70481 Y43.79310
X18.05020 Y43.79310
X18.39696 Y43.76889
X18.66620 Y43.71672
X18.97098 Y43.45652
X21.99358 Y40.43392
X22.27435 Y40.10177
X22.31763 Y39.86763
X22.34493 Y39.40822
X22.34549 Y36.55928
X23.10213 Y36.06629
X24.88549 Y36.55928
X24.88478 Y39.41373
X25.10314 Y39.83835
X25.27381 Y40.11114
X25.39542 Y40.28587
X25.93124 Y40.95770
X26.06669 Y41.42338
X26.16334 Y41.89023
X26.43047 Y43.47382
X26.54399 Y44.07542
X26.69054 Y44.71012
X27.03113 Y45.93437
X27.47766 Y47.26459
X27.81018 Y48.15672
X28.18480 Y49.09096
X29.58180 Y52.46362
X30.31990 Y54.17941
X31.15144 Y55.98868
X32.08634 Y57.91809
X34.40780 Y62.58920

G04 P0 ( dwell for no time -- G64 should not smooth over this point )
G00 Z10.000 ( retract )

M5 ( Spindle off. )
M9 ( Coolant off. )
M2 ( Program end. )

