( pcb2gcode 1.3.2 )
( Software-independent Gcode )

G94 ( Millimeters per minute feed rate. )
G21 ( Units == Millimeters. )

G90 ( Absolute coordinates. )
S10000 ( RPM spindle speed. )
F200.00000 ( Feedrate. )

F200.00000 ( Feedrate. )
M3 ( Spindle on clockwise. )
G04 P0 ( dwell for no time -- G64 should not smooth over this point )
G00 Z2.00000 ( retract )

G00 X17.21225 Y4.46267 ( rapid move to begin. )
F100.00000
G01 Z-0.20000
G04 P0 ( dwell for no time -- G64 should not smooth over this point )
F200.00000
G01 X17.21225 Y4.46267
X17.13567 Y5.70857
X14.33197 Y5.70870
X14.22466 Y5.82988
X12.14485 Y5.83049
X11.78646 Y5.57278
X11.60302 Y5.39732
X11.42558 Y5.18678
X11.37551 Y4.95411
X11.34803 Y4.71065
X11.34935 Y4.41520
X11.53386 Y4.09760
X11.70073 Y3.88706
X11.98877 Y3.62018
X12.17394 Y3.49189
X12.38366 Y3.37565
X12.72565 Y3.22813
X13.06578 Y3.23755
X13.33906 Y3.27438
X13.62095 Y3.34172
X14.01180 Y3.48330
X14.43926 Y3.48330
X14.71117 Y3.36250
X15.00410 Y3.26379
X15.27898 Y3.20187
X15.54258 Y3.17045
X16.23435 Y3.17390
X16.49460 Y3.20939
X16.76305 Y3.27395
X17.15134 Y3.41685
X17.21225 Y4.46267
G04 P0 ( dwell for no time -- G64 should not smooth over this point )
G00 Z2.00000 ( retract )

G00 X19.67748 Y4.58355 ( rapid move to begin. )
F100.00000
G01 Z-0.20000
G04 P0 ( dwell for no time -- G64 should not smooth over this point )
F200.00000
G01 X19.67748 Y4.58355
X19.68083 Y8.24826
X17.13567 Y5.70857
X17.21225 Y4.46267
X17.15134 Y3.41685
X17.50263 Y3.25930
X17.76458 Y3.17456
X18.01449 Y3.12049
X18.43267 Y3.08856
X18.74621 Y3.11269
X19.00138 Y3.16273
X19.27186 Y3.24553
X19.56516 Y3.36999
X19.67336 Y3.42651
X19.67748 Y4.58355
G04 P0 ( dwell for no time -- G64 should not smooth over this point )
G00 Z2.00000 ( retract )

G00 X22.21748 Y4.58355 ( rapid move to begin. )
F100.00000
G01 Z-0.20000
G04 P0 ( dwell for no time -- G64 should not smooth over this point )
F200.00000
G01 X22.21748 Y4.58355
X22.21994 Y7.77069
X21.95492 Y8.13762
X21.55205 Y8.63940
X20.83122 Y9.40363
X19.68083 Y8.24826
X19.67336 Y3.42651
X19.93658 Y3.30179
X20.21735 Y3.19958
X20.47930 Y3.13400
X20.79795 Y3.09300
X21.21496 Y3.10357
X21.46094 Y3.14401
X21.71613 Y3.21271
X21.98659 Y3.31533
X22.21336 Y3.42651
X22.21748 Y4.58355
G04 P0 ( dwell for no time -- G64 should not smooth over this point )
G00 Z2.00000 ( retract )

G00 X24.56710 Y4.58571 ( rapid move to begin. )
F100.00000
G01 Z-0.20000
G04 P0 ( dwell for no time -- G64 should not smooth over this point )
F200.00000
G01 X24.56710 Y4.58571
X24.52618 Y5.00621
X24.44922 Y5.30014
X24.26240 Y5.73417
X23.98593 Y6.17141
X23.67297 Y6.55220
X23.20239 Y7.01484
X22.99883 Y7.18959
X22.21994 Y7.77069
X22.21336 Y3.42651
X22.58263 Y3.25930
X22.84458 Y3.17456
X23.09449 Y3.12049
X23.51267 Y3.08856
X23.75496 Y3.10357
X23.99433 Y3.14281
X24.20104 Y3.30108
X24.43500 Y3.53085
X24.50137 Y3.75251
X24.54485 Y3.97657
X24.56489 Y4.19353
X24.56710 Y4.58571
G04 P0 ( dwell for no time -- G64 should not smooth over this point )
G00 Z2.00000 ( retract )

G00 X25.55968 Y3.26085 ( rapid move to begin. )
F100.00000
G01 Z-0.20000
G04 P0 ( dwell for no time -- G64 should not smooth over this point )
F200.00000
G01 X25.55968 Y3.26085
X25.75930 Y3.74058
X25.75930 Y19.16780
X25.73903 Y19.41197
X25.67081 Y19.68162
X24.72527 Y21.97465
X23.09969 Y23.60020
X22.70747 Y23.78069
X22.27506 Y24.03208
X21.89479 Y24.30973
X21.45380 Y24.72369
X20.78929 Y24.71458
X20.01941 Y24.63116
X19.58621 Y24.63116
X19.37727 Y24.65311
X19.04900 Y24.71648
X18.70565 Y24.82049
X18.45259 Y24.92364
X18.46033 Y25.75493
X18.42808 Y26.36136
X18.20715 Y26.66321
X17.94393 Y26.91297
X17.69010 Y27.08666
X17.38861 Y27.23454
X16.82727 Y26.67563
X16.25856 Y26.02377
X15.04071 Y26.02367
X14.84188 Y25.63682
X14.75282 Y25.38887
X14.68777 Y25.11158
X14.65800 Y24.72184
X14.67774 Y24.46538
X14.77083 Y24.06533
X14.90146 Y23.74219
X15.04071 Y23.48367
X16.21726 Y23.48555
X16.49793 Y23.33924
X17.08619 Y23.11046
X17.52140 Y22.86563
X17.89254 Y22.59136
X18.06729 Y22.44135
X18.50969 Y22.00183
X18.91548 Y21.52233
X19.35960 Y21.57036
X19.90727 Y21.35982
X20.26109 Y21.19149
X20.74590 Y20.90806
X21.17219 Y20.59510
X21.45380 Y20.34847
X21.93803 Y20.31646
X22.46142 Y20.23478
X22.87356 Y20.12335
X23.20927 Y19.99211
X23.55679 Y19.80488
X23.78367 Y19.64486
X23.94305 Y19.50872
X24.17058 Y19.26879
X24.41389 Y18.92094
X24.44363 Y18.56846
X24.43269 Y18.28817
X24.39174 Y18.00481
X24.31780 Y17.71177
X24.14795 Y17.27481
X24.04148 Y17.06582
X23.81011 Y16.69178
X23.48044 Y16.26290
X23.00036 Y15.75429
X22.53203 Y15.33519
X22.27402 Y15.12628
X21.88598 Y14.82991
X21.45380 Y14.53357
X21.19934 Y14.16573
X20.78489 Y13.63606
X20.74844 Y13.33398
X20.80983 Y12.70159
X20.83020 Y12.30025
X20.83020 Y11.89888
X20.80526 Y11.32080
X20.74844 Y10.79398
X20.80983 Y10.16159
X20.83122 Y9.40363
X21.55205 Y8.63940
X21.95492 Y8.13762
X22.21994 Y7.77069
X22.99883 Y7.18959
X23.50691 Y6.72693
X23.67297 Y6.55220
X23.98593 Y6.17141
X24.26240 Y5.73417
X24.44922 Y5.30014
X24.51516 Y5.05962
X24.55296 Y4.83146
X24.56710 Y4.58571
X24.56261 Y4.15129
X24.53728 Y3.92724
X24.48608 Y3.69361
X24.42730 Y3.52163
X24.20104 Y3.30108
X24.00002 Y3.14647
X23.82621 Y3.11269
X23.58021 Y3.09026
X23.26924 Y3.09824
X22.84458 Y3.17456
X22.58263 Y3.25930
X22.21336 Y3.42651
X21.81186 Y3.24553
X21.54138 Y3.16273
X21.28621 Y3.11269
X20.97267 Y3.08856
X20.55449 Y3.12049
X20.30458 Y3.17456
X20.04263 Y3.25930
X19.67336 Y3.42651
X19.44659 Y3.31533
X19.17613 Y3.21271
X18.92094 Y3.14401
X18.50021 Y3.09026
X18.18924 Y3.09824
X17.76458 Y3.17456
X17.50263 Y3.25930
X17.15134 Y3.41685
X16.76305 Y3.27395
X16.31985 Y3.18261
X16.01355 Y3.16400
X15.54258 Y3.17045
X15.27898 Y3.20187
X15.00410 Y3.26379
X14.71117 Y3.36250
X14.43926 Y3.48330
X14.01180 Y3.48330
X13.62095 Y3.34172
X13.33906 Y3.27438
X13.06578 Y3.23755
X12.72565 Y3.22813
X12.38366 Y3.37565
X12.17394 Y3.49189
X11.98877 Y3.62018
X11.70073 Y3.88706
X11.53386 Y4.09760
X11.34935 Y4.41520
X11.34803 Y4.71065
X11.37551 Y4.95411
X11.42558 Y5.18678
X11.60302 Y5.39732
X11.78646 Y5.57278
X12.14485 Y5.83049
X14.22466 Y5.82988
X14.32537 Y8.09409
X13.85130 Y8.18161
X13.55140 Y8.27316
X13.27690 Y8.33498
X12.93520 Y8.37054
X12.49720 Y8.37173
X12.23731 Y8.35421
X11.96926 Y8.30818
X11.34219 Y8.13925
X11.06317 Y8.09680
X10.95052 Y7.60412
X10.91631 Y7.27260
X10.91333 Y6.98151
X10.42794 Y5.80966
X10.36713 Y5.60184
X10.35380 Y5.45180
X10.35380 Y4.18180
X10.36713 Y4.03171
X10.40170 Y3.89508
X10.44813 Y3.77515
X12.03017 Y2.19311
X12.24277 Y2.12087
X12.41648 Y2.09928
X24.31224 Y2.10144
X24.48592 Y2.13189
X24.57005 Y2.17304
X25.36756 Y2.97055
X25.48717 Y3.12491
X25.55968 Y3.26085
G04 P0 ( dwell for no time -- G64 should not smooth over this point )
G00 Z2.00000 ( retract )

G00 X20.83122 Y9.40363 ( rapid move to begin. )
F100.00000
G01 Z-0.20000
G04 P0 ( dwell for no time -- G64 should not smooth over this point )
F200.00000
G01 X20.83122 Y9.40363
X20.80983 Y10.16159
X20.74844 Y10.79398
X19.68581 Y10.78087
X14.53344 Y10.78458
X14.33743 Y10.09347
X14.28368 Y9.67582
X14.29550 Y9.21016
X14.34221 Y8.91481
X14.41282 Y8.60216
X14.46075 Y8.24763
X19.66528 Y8.24062
X20.83122 Y9.40363
G04 P0 ( dwell for no time -- G64 should not smooth over this point )
G00 Z2.00000 ( retract )

G00 X20.83020 Y11.89888 ( rapid move to begin. )
F100.00000
G01 Z-0.20000
G04 P0 ( dwell for no time -- G64 should not smooth over this point )
F200.00000
G01 X20.83020 Y11.89888
X20.83020 Y12.30025
X20.80983 Y12.70159
X20.74844 Y13.33398
X19.68581 Y13.32087
X14.55762 Y13.32377
X14.42026 Y13.60568
X14.05795 Y13.85300
X13.56027 Y14.13060
X13.24442 Y14.35526
X13.04226 Y14.46855
X13.01523 Y14.46992
X11.78051 Y14.46723
X11.58145 Y14.05003
X11.46093 Y13.63002
X11.42397 Y13.34279
X11.42085 Y13.11597
X11.44127 Y12.88562
X11.53751 Y12.47198
X11.67991 Y12.11953
X11.90317 Y11.94005
X12.15682 Y11.77594
X12.44302 Y11.62949
X12.86923 Y11.45054
X12.92834 Y11.39144
X13.22146 Y11.27472
X13.41183 Y11.21920
X13.83380 Y11.16251
X14.10982 Y11.10726
X14.38582 Y10.99454
X14.53344 Y10.78458
X19.68581 Y10.78087
X20.74844 Y10.79398
X20.80526 Y11.32080
X20.83020 Y11.89888
G04 P0 ( dwell for no time -- G64 should not smooth over this point )
G00 Z2.00000 ( retract )

G00 X19.90727 Y14.50939 ( rapid move to begin. )
F100.00000
G01 Z-0.20000
G04 P0 ( dwell for no time -- G64 should not smooth over this point )
F200.00000
G01 X19.90727 Y14.50939
X18.53204 Y15.87042
X14.55762 Y15.86377
X14.42026 Y16.14568
X14.16959 Y16.32318
X13.69100 Y16.58881
X13.24442 Y16.89526
X13.04226 Y17.00855
X11.78051 Y17.00723
X11.58145 Y16.59003
X11.46093 Y16.17002
X11.42804 Y15.93601
X11.41953 Y15.70807
X11.43416 Y15.48122
X11.47259 Y15.25089
X11.56444 Y14.93347
X11.68029 Y14.65882
X11.78051 Y14.46723
X13.04226 Y14.46855
X13.24442 Y14.35526
X13.69100 Y14.04881
X14.16959 Y13.78318
X14.42026 Y13.60568
X14.55762 Y13.32377
X19.68581 Y13.32087
X20.74844 Y13.33398
X20.78489 Y13.63606
X19.90727 Y14.50939
G04 P0 ( dwell for no time -- G64 should not smooth over this point )
G00 Z2.00000 ( retract )

G00 X18.06773 Y17.11921 ( rapid move to begin. )
F100.00000
G01 Z-0.20000
G04 P0 ( dwell for no time -- G64 should not smooth over this point )
F200.00000
G01 X18.06773 Y17.11921
X17.67451 Y17.47794
X17.34459 Y17.72018
X16.86600 Y17.98581
X16.41942 Y18.29226
X16.21726 Y18.40555
X14.55762 Y18.40377
X14.12041 Y19.30196
X13.85130 Y19.35761
X13.45166 Y19.47506
X13.01368 Y19.54235
X12.35262 Y19.54042
X12.09685 Y19.39422
X11.85321 Y19.21103
X11.68425 Y19.05043
X11.48288 Y18.80461
X11.42397 Y18.42279
X11.42085 Y18.19597
X11.44127 Y17.96562
X11.48753 Y17.72671
X11.56444 Y17.47347
X11.68029 Y17.19882
X11.78051 Y17.00723
X13.04226 Y17.00855
X13.24442 Y16.89526
X13.69100 Y16.58881
X14.16959 Y16.32318
X14.42026 Y16.14568
X14.55762 Y15.86377
X18.53204 Y15.87042
X18.11604 Y17.06841
X18.06773 Y17.11921
G04 P0 ( dwell for no time -- G64 should not smooth over this point )
G00 Z2.00000 ( retract )

G00 X18.33496 Y22.18565 ( rapid move to begin. )
F100.00000
G01 Z-0.20000
G04 P0 ( dwell for no time -- G64 should not smooth over this point )
F200.00000
G01 X18.33496 Y22.18565
X17.89254 Y22.59136
X17.69612 Y22.74402
X17.37395 Y22.95789
X17.08619 Y23.11046
X16.49793 Y23.33924
X16.21726 Y23.48555
X15.04071 Y23.48367
X14.84188 Y23.09682
X14.73657 Y22.79228
X14.68777 Y22.57158
X14.62770 Y22.09436
X14.50883 Y21.56792
X14.47195 Y21.16427
X14.56060 Y20.94369
X18.36811 Y20.94735
X18.91548 Y21.52233
X18.50969 Y22.00183
X18.33496 Y22.18565
G04 P0 ( dwell for no time -- G64 should not smooth over this point )
G00 Z2.00000 ( retract )

G00 X17.35752 Y27.31531 ( rapid move to begin. )
F100.00000
G01 Z-0.20000
G04 P0 ( dwell for no time -- G64 should not smooth over this point )
F200.00000
G01 X17.35752 Y27.31531
X17.19524 Y27.63852
X16.95114 Y27.98023
X16.74690 Y28.18975
X16.41431 Y28.44035
X16.18683 Y28.56710
X15.44281 Y28.56801
X15.25760 Y28.45666
X15.05229 Y28.30682
X14.80073 Y28.06908
X14.73657 Y27.87228
X14.68777 Y27.65158
X14.66245 Y27.43657
X14.65900 Y27.22265
X14.70906 Y26.83065
X14.77083 Y26.60533
X14.90146 Y26.28219
X15.04071 Y26.02367
X16.25856 Y26.02377
X16.82727 Y26.67563
X17.38861 Y27.23454
X17.35752 Y27.31531
G04 P0 ( dwell for no time -- G64 should not smooth over this point )
G00 Z2.00000 ( retract )

G00 X17.37337 Y32.39449 ( rapid move to begin. )
F100.00000
G01 Z-0.20000
G04 P0 ( dwell for no time -- G64 should not smooth over this point )
F200.00000
G01 X17.37337 Y32.39449
X17.47532 Y32.68741
X17.55246 Y33.00437
X16.02008 Y33.84664
X15.72239 Y34.03155
X15.09402 Y34.46137
X14.02196 Y34.21176
X12.16802 Y33.81517
X12.72214 Y33.05990
X13.11884 Y32.59498
X13.58023 Y32.13732
X14.08480 Y31.67948
X14.32506 Y31.40748
X14.53822 Y31.10440
X16.18899 Y31.10699
X16.51624 Y31.29854
X16.70344 Y31.44352
X16.87240 Y31.60412
X17.02650 Y31.78385
X17.16791 Y31.98789
X17.37337 Y32.39449
G04 P0 ( dwell for no time -- G64 should not smooth over this point )
G00 Z2.00000 ( retract )

G00 X20.69866 Y37.79461 ( rapid move to begin. )
F100.00000
G01 Z-0.20000
G04 P0 ( dwell for no time -- G64 should not smooth over this point )
F200.00000
G01 X20.69866 Y37.79461
X20.94550 Y37.76299
X21.58080 Y37.99298
X21.93005 Y38.15344
X22.27930 Y38.36659
X22.62855 Y38.63243
X23.37633 Y39.32143
X23.61026 Y40.21899
X23.83789 Y40.83187
X24.22276 Y41.72717
X22.50582 Y41.69704
X21.70683 Y41.65389
X21.31954 Y41.61492
X21.08136 Y41.57779
X20.82485 Y41.51640
X20.51179 Y41.40418
X20.22934 Y41.32676
X19.96132 Y41.28239
X19.70158 Y41.26643
X19.25769 Y41.30080
X18.98329 Y41.36092
X18.47108 Y41.53235
X18.31807 Y41.56842
X17.77083 Y41.64083
X17.77080 Y37.99298
X17.99305 Y37.91831
X18.21530 Y37.86497
X18.43755 Y37.83296
X20.31080 Y37.82230
X20.69866 Y37.79461
G04 P0 ( dwell for no time -- G64 should not smooth over this point )
G00 Z2.00000 ( retract )

G00 X27.93248 Y37.98455 ( rapid move to begin. )
F100.00000
G01 Z-0.20000
G04 P0 ( dwell for no time -- G64 should not smooth over this point )
F200.00000
G01 X27.93248 Y37.98455
X27.92313 Y43.21411
X27.94271 Y47.28519
X24.22276 Y41.72717
X23.83789 Y40.83187
X23.61026 Y40.21899
X23.37633 Y39.32143
X24.05222 Y38.09636
X24.31869 Y37.52072
X25.04125 Y37.18582
X25.49273 Y36.93609
X25.76827 Y36.80299
X26.19103 Y36.65438
X26.68402 Y36.41788
X27.01762 Y36.30536
X27.93349 Y36.55928
X27.93248 Y37.98455
G04 P0 ( dwell for no time -- G64 should not smooth over this point )
G00 Z2.00000 ( retract )

G00 X30.47248 Y37.98455 ( rapid move to begin. )
F100.00000
G01 Z-0.20000
G04 P0 ( dwell for no time -- G64 should not smooth over this point )
F200.00000
G01 X30.47248 Y37.98455
X30.47573 Y41.65678
X30.46201 Y42.98998
X29.53382 Y46.26803
X28.78602 Y49.00104
X27.94271 Y47.28519
X27.92313 Y43.21411
X27.93573 Y41.65678
X27.93349 Y36.55928
X28.69013 Y36.06629
X30.47349 Y36.55928
X30.47248 Y37.98455
G04 P0 ( dwell for no time -- G64 should not smooth over this point )
G00 Z2.00000 ( retract )

G00 X31.37763 Y34.99723 ( rapid move to begin. )
F100.00000
G01 Z-0.20000
G04 P0 ( dwell for no time -- G64 should not smooth over this point )
F200.00000
G01 X31.37763 Y34.99723
X31.35990 Y35.98506
X30.47349 Y36.55928
X28.69013 Y36.06629
X28.69260 Y34.43770
X28.87441 Y34.13218
X29.02104 Y33.94301
X29.18345 Y33.77229
X29.50931 Y33.51354
X29.72879 Y33.38380
X29.94505 Y33.28278
X31.05452 Y33.77006
X31.51774 Y34.02670
X31.39859 Y34.71974
X31.37763 Y34.99723
G04 P0 ( dwell for no time -- G64 should not smooth over this point )
G00 Z2.00000 ( retract )

G00 X35.67902 Y31.76506 ( rapid move to begin. )
F100.00000
G01 Z-0.20000
G04 P0 ( dwell for no time -- G64 should not smooth over this point )
F200.00000
G01 X35.67902 Y31.76506
X35.65329 Y32.09947
X35.55072 Y32.54029
X35.44412 Y32.82231
X35.28430 Y33.14351
X35.28430 Y36.05494
X35.42400 Y36.24640
X35.52380 Y36.43787
X35.58367 Y36.62933
X35.60361 Y36.82080
X35.60363 Y38.43202
X35.38024 Y38.94614
X35.31638 Y39.02476
X35.23777 Y39.08861
X35.14443 Y39.13771
X34.90762 Y39.23581
X34.03505 Y39.23581
X33.41723 Y38.97988
X33.34052 Y38.92948
X33.29012 Y38.85280
X33.00318 Y38.16007
X33.00856 Y37.59240
X32.98659 Y37.33919
X32.93709 Y37.07594
X32.77369 Y36.46896
X31.35990 Y35.98506
X31.38675 Y34.83851
X31.51774 Y34.02670
X32.63912 Y33.45660
X32.92259 Y33.08916
X32.67557 Y31.98733
X32.81578 Y31.62807
X32.93910 Y31.39348
X33.07532 Y31.18733
X33.22563 Y31.00316
X33.39254 Y30.83646
X33.57989 Y30.68411
X33.79332 Y30.54431
X33.95639 Y30.46966
X35.35494 Y30.46846
X35.50234 Y30.80273
X35.59030 Y31.07588
X35.64628 Y31.33648
X35.67902 Y31.76506
G04 P0 ( dwell for no time -- G64 should not smooth over this point )
G00 Z2.00000 ( retract )

G00 X35.67902 Y29.22506 ( rapid move to begin. )
F100.00000
G01 Z-0.20000
G04 P0 ( dwell for no time -- G64 should not smooth over this point )
F200.00000
G01 X35.67902 Y29.22506
X35.65329 Y29.55947
X35.60071 Y29.82554
X35.51394 Y30.10758
X35.35494 Y30.46846
X33.92939 Y30.47103
X33.57989 Y30.68411
X33.39254 Y30.83646
X33.22563 Y31.00316
X33.07532 Y31.18733
X32.93910 Y31.39348
X32.81578 Y31.62807
X32.67557 Y31.98733
X32.92259 Y33.08916
X32.63912 Y33.45660
X31.51774 Y34.02670
X31.05452 Y33.77006
X29.94505 Y33.28278
X29.80971 Y33.34290
X29.50931 Y33.51354
X29.31485 Y33.65657
X29.13989 Y33.81476
X28.87441 Y34.13218
X28.69260 Y34.43770
X28.69013 Y36.06629
X27.93349 Y36.55928
X27.01762 Y36.30536
X26.77162 Y36.38430
X26.19103 Y36.65438
X25.84444 Y36.77246
X25.59354 Y36.88326
X25.04125 Y37.18582
X24.31869 Y37.52072
X24.32123 Y36.99235
X24.37236 Y36.60269
X24.75311 Y36.20929
X24.92062 Y36.06180
X25.09332 Y35.94054
X25.30309 Y35.83962
X25.61236 Y35.74094
X25.80586 Y35.65476
X26.01092 Y35.38672
X26.15303 Y35.13988
X26.15069 Y33.21735
X26.22727 Y33.05967
X26.45943 Y32.87095
X26.81396 Y32.63315
X27.22262 Y32.41624
X27.50543 Y32.29317
X28.25655 Y31.54204
X28.94957 Y31.26092
X29.52887 Y31.10776
X31.45723 Y31.10555
X31.65942 Y30.99226
X31.85957 Y30.85269
X32.16099 Y30.57342
X32.31131 Y30.38924
X32.44753 Y30.18309
X32.57085 Y29.94850
X32.71105 Y29.58924
X32.67557 Y29.44733
X32.77415 Y29.18203
X32.89884 Y28.92402
X33.07532 Y28.64733
X33.22563 Y28.46316
X33.39254 Y28.29646
X33.57989 Y28.14411
X33.92942 Y27.93100
X35.35494 Y27.92846
X35.50234 Y28.26273
X35.59030 Y28.53588
X35.64628 Y28.79648
X35.67902 Y29.22506
G04 P0 ( dwell for no time -- G64 should not smooth over this point )
G00 Z2.00000 ( retract )

G00 X35.67902 Y26.68503 ( rapid move to begin. )
F100.00000
G01 Z-0.20000
G04 P0 ( dwell for no time -- G64 should not smooth over this point )
F200.00000
G01 X35.67902 Y26.68503
X35.65329 Y27.01945
X35.60071 Y27.28551
X35.51394 Y27.56755
X35.35494 Y27.92846
X33.92942 Y27.93100
X33.72721 Y28.04431
X33.52705 Y28.18389
X33.34763 Y28.33804
X33.18474 Y28.50964
X33.03562 Y28.70291
X32.89884 Y28.92402
X32.77415 Y29.18203
X32.67557 Y29.44733
X32.71105 Y29.58924
X32.61248 Y29.85455
X32.48779 Y30.11256
X32.35101 Y30.33367
X32.20189 Y30.52693
X32.03900 Y30.69854
X31.85957 Y30.85269
X31.65942 Y30.99226
X31.45723 Y31.10555
X29.52887 Y31.10776
X29.47228 Y31.13232
X29.17802 Y31.19145
X28.90542 Y31.27669
X28.25655 Y31.54204
X27.50543 Y32.29317
X27.22262 Y32.41624
X26.81396 Y32.63315
X26.45943 Y32.87095
X26.22727 Y33.05967
X26.15069 Y33.21735
X26.15303 Y35.13988
X26.01092 Y35.38672
X25.80586 Y35.65476
X25.61236 Y35.74094
X25.30309 Y35.83962
X25.09332 Y35.94054
X24.92062 Y36.06180
X24.75311 Y36.20929
X24.37236 Y36.60269
X24.32123 Y36.99235
X24.31869 Y37.52072
X24.05222 Y38.09636
X23.37633 Y39.32143
X22.62855 Y38.63243
X22.27930 Y38.36659
X21.93005 Y38.15344
X21.58080 Y37.99298
X20.94550 Y37.76299
X20.94613 Y37.07508
X20.97252 Y36.73629
X21.00534 Y36.58613
X21.06523 Y36.41628
X21.14359 Y36.27084
X21.23114 Y36.15664
X21.41369 Y36.00137
X21.63366 Y35.89185
X21.87320 Y35.95766
X22.26777 Y36.00805
X22.52705 Y36.00140
X22.78049 Y35.96342
X23.06698 Y35.73398
X23.24491 Y35.54183
X23.47330 Y35.20434
X23.60251 Y34.93670
X23.61417 Y34.90813
X23.61280 Y32.83744
X23.75628 Y32.09663
X23.94424 Y31.31512
X24.00724 Y30.97151
X24.06068 Y30.47733
X25.02001 Y30.07601
X25.35143 Y29.89912
X25.56055 Y29.75955
X25.78607 Y29.57771
X26.62811 Y28.74728
X26.88196 Y28.53905
X27.13019 Y28.37604
X27.37131 Y28.24741
X28.36471 Y27.82953
X28.88767 Y28.21188
X29.30905 Y28.45813
X29.53438 Y28.56791
X31.45723 Y28.56555
X31.80674 Y28.35247
X31.99409 Y28.20012
X32.16097 Y28.03339
X32.31131 Y27.84924
X32.48779 Y27.57256
X32.61248 Y27.31455
X32.71105 Y27.04922
X32.67557 Y26.90733
X32.70549 Y26.82044
X32.81578 Y26.54805
X33.03564 Y26.16288
X33.18474 Y25.96962
X33.39254 Y25.75643
X33.57989 Y25.60408
X33.92937 Y25.39100
X35.35497 Y25.38846
X35.50234 Y25.72270
X35.59030 Y25.99585
X35.64628 Y26.25646
X35.67902 Y26.68503
G04 P0 ( dwell for no time -- G64 should not smooth over this point )
G00 Z2.00000 ( retract )

G00 X35.67902 Y24.14506 ( rapid move to begin. )
F100.00000
G01 Z-0.20000
G04 P0 ( dwell for no time -- G64 should not smooth over this point )
F200.00000
G01 X35.67902 Y24.14506
X35.65329 Y24.47947
X35.60071 Y24.74554
X35.51394 Y25.02758
X35.35497 Y25.38846
X33.92937 Y25.39100
X33.72721 Y25.50429
X33.52705 Y25.64389
X33.34765 Y25.79804
X33.18474 Y25.96962
X33.03564 Y26.16288
X32.89884 Y26.38399
X32.77415 Y26.64200
X32.67557 Y26.90733
X32.71105 Y27.04922
X32.61248 Y27.31455
X32.48779 Y27.57256
X32.35098 Y27.79367
X32.20189 Y27.98693
X31.99409 Y28.20012
X31.80674 Y28.35247
X31.45723 Y28.56555
X29.53438 Y28.56791
X29.30905 Y28.45813
X28.88767 Y28.21188
X28.36471 Y27.82953
X28.54020 Y27.33083
X28.75452 Y26.87048
X28.99046 Y26.47566
X29.31081 Y26.02217
X31.45723 Y26.02555
X31.65942 Y25.91226
X31.85957 Y25.77269
X32.16099 Y25.49342
X32.35101 Y25.25367
X32.48779 Y25.03256
X32.61248 Y24.77455
X32.71105 Y24.50924
X32.48403 Y23.48494
X32.72515 Y23.11747
X33.12032 Y23.04196
X33.42022 Y22.95042
X33.69472 Y22.88860
X34.03643 Y22.85304
X34.47440 Y22.85184
X34.73432 Y22.86937
X35.00236 Y22.91539
X35.28496 Y22.99456
X35.31923 Y23.00701
X35.50345 Y23.18600
X35.63086 Y23.63061
X35.66853 Y23.89121
X35.67902 Y24.14506
G04 P0 ( dwell for no time -- G64 should not smooth over this point )
G00 Z2.00000 ( retract )

G00 X32.61248 Y24.77455 ( rapid move to begin. )
F100.00000
G01 Z-0.20000
G04 P0 ( dwell for no time -- G64 should not smooth over this point )
F200.00000
G01 X32.61248 Y24.77455
X32.44753 Y25.10309
X32.31131 Y25.30924
X32.16099 Y25.49342
X31.85957 Y25.77269
X31.65942 Y25.91226
X31.45723 Y26.02555
X29.31081 Y26.02217
X29.20438 Y24.93203
X29.20453 Y24.57622
X29.27299 Y24.04028
X29.42983 Y23.48410
X32.48403 Y23.48494
X32.71105 Y24.50924
X32.61248 Y24.77455
G04 P0 ( dwell for no time -- G64 should not smooth over this point )
G00 Z2.00000 ( retract )

G00 X32.69239 Y22.23048 ( rapid move to begin. )
F100.00000
G01 Z-0.20000
G04 P0 ( dwell for no time -- G64 should not smooth over this point )
F200.00000
G01 X32.69239 Y22.23048
X32.67735 Y22.64818
X32.72515 Y23.11747
X32.48403 Y23.48494
X29.42983 Y23.48410
X29.27515 Y22.94178
X29.21833 Y22.57473
X29.19994 Y22.21732
X29.21784 Y21.86150
X29.27299 Y21.50028
X29.42983 Y20.94410
X32.41103 Y20.94788
X32.55352 Y21.32360
X32.63419 Y21.63810
X32.67897 Y21.93823
X32.69239 Y22.23048
G04 P0 ( dwell for no time -- G64 should not smooth over this point )
G00 Z2.00000 ( retract )

G00 X33.17440 Y19.66600 ( rapid move to begin. )
F100.00000
G01 Z-0.20000
G04 P0 ( dwell for no time -- G64 should not smooth over this point )
F200.00000
G01 X33.17440 Y19.66600
X32.88482 Y20.01339
X32.69510 Y20.30110
X32.55423 Y20.58657
X32.41103 Y20.94788
X29.42983 Y20.94410
X29.27515 Y20.40178
X29.21833 Y20.03473
X29.19994 Y19.67732
X29.21784 Y19.32150
X29.27299 Y18.96028
X29.42983 Y18.40410
X32.48113 Y18.40506
X33.25677 Y19.57529
X33.17440 Y19.66600
G04 P0 ( dwell for no time -- G64 should not smooth over this point )
G00 Z2.00000 ( retract )

G00 X32.62769 Y17.15376 ( rapid move to begin. )
F100.00000
G01 Z-0.20000
G04 P0 ( dwell for no time -- G64 should not smooth over this point )
F200.00000
G01 X32.62769 Y17.15376
X32.70768 Y17.37908
X32.48113 Y18.40506
X29.42983 Y18.40410
X29.27515 Y17.86178
X29.21833 Y17.49473
X29.19994 Y17.13732
X29.21784 Y16.78150
X29.27299 Y16.42028
X29.42983 Y15.86410
X31.45693 Y15.86557
X31.76242 Y16.04738
X31.95159 Y16.19402
X32.12231 Y16.35643
X32.27804 Y16.53821
X32.42091 Y16.74451
X32.62769 Y17.15376
G04 P0 ( dwell for no time -- G64 should not smooth over this point )
G00 Z2.00000 ( retract )

G00 X35.61554 Y17.79828 ( rapid move to begin. )
F100.00000
G01 Z-0.20000
G04 P0 ( dwell for no time -- G64 should not smooth over this point )
F200.00000
G01 X35.61554 Y17.79828
X35.59182 Y18.10671
X35.49241 Y18.53394
X35.33752 Y18.91708
X35.15337 Y19.24811
X34.70346 Y19.51982
X34.35898 Y19.67450
X33.84803 Y19.66424
X33.63272 Y19.64230
X33.25677 Y19.57529
X32.48113 Y18.40506
X32.70768 Y17.37908
X32.55169 Y16.98269
X32.42091 Y16.74451
X32.27804 Y16.53821
X32.07984 Y16.31287
X31.76242 Y16.04738
X31.45693 Y15.86557
X29.42983 Y15.86410
X29.27515 Y15.32178
X29.21833 Y14.95473
X29.19994 Y14.59732
X29.21784 Y14.24150
X29.27299 Y13.88028
X29.42983 Y13.32410
X31.45693 Y13.32557
X31.76242 Y13.50738
X31.95159 Y13.65402
X32.12231 Y13.81643
X32.27804 Y13.99821
X32.42091 Y14.20451
X32.55169 Y14.44269
X32.66986 Y14.72366
X32.70768 Y14.83908
X32.67897 Y14.98744
X32.75896 Y15.21279
X32.87585 Y15.46481
X33.10859 Y15.82836
X33.26432 Y16.01012
X33.43503 Y16.17256
X33.68288 Y16.35886
X33.92975 Y16.50100
X35.27399 Y16.49872
X35.40495 Y16.77304
X35.53023 Y17.13534
X35.58382 Y17.38266
X35.61554 Y17.79828
G04 P0 ( dwell for no time -- G64 should not smooth over this point )
G00 Z2.00000 ( retract )

G00 X35.61554 Y15.25828 ( rapid move to begin. )
F100.00000
G01 Z-0.20000
G04 P0 ( dwell for no time -- G64 should not smooth over this point )
F200.00000
G01 X35.61554 Y15.25828
X35.59182 Y15.56671
X35.54242 Y15.81922
X35.46055 Y16.08683
X35.27399 Y16.49872
X33.92975 Y16.50100
X33.68288 Y16.35886
X33.48332 Y16.21294
X33.26432 Y16.01012
X33.10859 Y15.82836
X32.87585 Y15.46481
X32.75896 Y15.21279
X32.67897 Y14.98744
X32.70768 Y14.83908
X32.66986 Y14.72366
X32.55169 Y14.44269
X32.42091 Y14.20451
X32.27804 Y13.99821
X32.12231 Y13.81643
X31.95159 Y13.65402
X31.76242 Y13.50738
X31.45693 Y13.32557
X29.42983 Y13.32410
X29.27515 Y12.78178
X29.21833 Y12.41473
X29.19994 Y12.05732
X29.21784 Y11.70150
X29.27299 Y11.34028
X29.42983 Y10.78410
X31.45693 Y10.78557
X31.76242 Y10.96738
X31.95159 Y11.11402
X32.12231 Y11.27643
X32.27804 Y11.45821
X32.42091 Y11.66451
X32.55169 Y11.90269
X32.66986 Y12.18366
X32.70768 Y12.29908
X32.67897 Y12.44744
X32.75896 Y12.67279
X32.87585 Y12.92481
X33.10859 Y13.28836
X33.26432 Y13.47012
X33.43503 Y13.63256
X33.68288 Y13.81886
X33.92975 Y13.96100
X35.27399 Y13.95872
X35.40495 Y14.23304
X35.53023 Y14.59534
X35.58382 Y14.84266
X35.61554 Y15.25828
G04 P0 ( dwell for no time -- G64 should not smooth over this point )
G00 Z2.00000 ( retract )

G00 X35.61554 Y12.71828 ( rapid move to begin. )
F100.00000
G01 Z-0.20000
G04 P0 ( dwell for no time -- G64 should not smooth over this point )
F200.00000
G01 X35.61554 Y12.71828
X35.59182 Y13.02671
X35.54242 Y13.27922
X35.46055 Y13.54683
X35.27399 Y13.95872
X33.92975 Y13.96100
X33.68288 Y13.81886
X33.48332 Y13.67294
X33.26432 Y13.47012
X33.10859 Y13.28836
X32.87585 Y12.92481
X32.75896 Y12.67279
X32.67897 Y12.44744
X32.70768 Y12.29908
X32.66986 Y12.18366
X32.55169 Y11.90269
X32.42091 Y11.66451
X32.27804 Y11.45821
X32.12231 Y11.27643
X31.95159 Y11.11402
X31.76242 Y10.96738
X31.45693 Y10.78557
X29.42983 Y10.78410
X29.27515 Y10.24178
X29.21833 Y9.87473
X29.19994 Y9.51732
X29.21784 Y9.16150
X29.27299 Y8.80028
X29.42983 Y8.24410
X31.45693 Y8.24557
X31.76242 Y8.42738
X31.95159 Y8.57402
X32.12231 Y8.73643
X32.27804 Y8.91821
X32.42091 Y9.12451
X32.55169 Y9.36269
X32.66986 Y9.64366
X32.70768 Y9.75908
X32.67897 Y9.90744
X32.75896 Y10.13279
X32.87585 Y10.38481
X33.10859 Y10.74836
X33.26432 Y10.93012
X33.43503 Y11.09256
X33.68288 Y11.27886
X33.92975 Y11.42100
X35.27399 Y11.41872
X35.40495 Y11.69304
X35.53023 Y12.05534
X35.58382 Y12.30266
X35.61554 Y12.71828
G04 P0 ( dwell for no time -- G64 should not smooth over this point )
G00 Z2.00000 ( retract )

G00 X35.61554 Y10.17828 ( rapid move to begin. )
F100.00000
G01 Z-0.20000
G04 P0 ( dwell for no time -- G64 should not smooth over this point )
F200.00000
G01 X35.61554 Y10.17828
X35.59182 Y10.48671
X35.54242 Y10.73922
X35.46055 Y11.00683
X35.27399 Y11.41872
X33.92975 Y11.42100
X33.68288 Y11.27886
X33.48332 Y11.13294
X33.26432 Y10.93012
X33.10859 Y10.74836
X32.87585 Y10.38481
X32.75896 Y10.13279
X32.67897 Y9.90744
X32.70768 Y9.75908
X32.66986 Y9.64366
X32.55169 Y9.36269
X32.42091 Y9.12451
X32.27804 Y8.91821
X32.12231 Y8.73643
X31.95159 Y8.57402
X31.76242 Y8.42738
X31.45693 Y8.24557
X29.42983 Y8.24410
X29.27515 Y7.70178
X29.21833 Y7.33473
X29.19994 Y6.97732
X29.21784 Y6.62150
X29.27299 Y6.26028
X29.42983 Y5.70410
X31.45693 Y5.70557
X31.76242 Y5.88738
X31.95159 Y6.03402
X32.12231 Y6.19643
X32.27804 Y6.37821
X32.42091 Y6.58451
X32.55169 Y6.82269
X32.66986 Y7.10366
X32.70768 Y7.21908
X32.67897 Y7.36744
X32.75896 Y7.59279
X32.87585 Y7.84481
X33.10859 Y8.20836
X33.26432 Y8.39012
X33.43503 Y8.55256
X33.68288 Y8.73886
X33.92975 Y8.88100
X35.27399 Y8.87872
X35.40495 Y9.15304
X35.53023 Y9.51534
X35.58382 Y9.76266
X35.61554 Y10.17828
G04 P0 ( dwell for no time -- G64 should not smooth over this point )
G00 Z2.00000 ( retract )

G00 X35.61554 Y7.63828 ( rapid move to begin. )
F100.00000
G01 Z-0.20000
G04 P0 ( dwell for no time -- G64 should not smooth over this point )
F200.00000
G01 X35.61554 Y7.63828
X35.59182 Y7.94671
X35.54242 Y8.19922
X35.46055 Y8.46683
X35.27399 Y8.87872
X33.92975 Y8.88100
X33.68288 Y8.73886
X33.48332 Y8.59294
X33.30679 Y8.43368
X33.14859 Y8.25873
X33.00557 Y8.06427
X32.83496 Y7.76389
X32.71679 Y7.48291
X32.67897 Y7.36744
X32.70768 Y7.21908
X32.62769 Y6.99376
X32.51080 Y6.74176
X32.38106 Y6.52228
X32.23803 Y6.32782
X31.95159 Y6.03402
X31.76242 Y5.88738
X31.45693 Y5.70557
X29.42983 Y5.70410
X29.35467 Y5.48098
X29.41246 Y5.09442
X29.54543 Y4.59470
X29.65444 Y4.32516
X29.77639 Y4.09305
X29.91106 Y3.88904
X30.18170 Y3.58165
X30.45523 Y3.36036
X30.57631 Y3.33547
X30.86300 Y3.30570
X31.25515 Y3.30349
X31.51710 Y3.31883
X31.75607 Y3.35884
X32.00796 Y3.42836
X32.41804 Y3.60273
X32.67905 Y3.95978
X32.69239 Y4.45048
X32.66592 Y4.83069
X33.12307 Y5.93440
X33.17925 Y6.01995
X33.26483 Y6.07613
X33.92693 Y6.35040
X34.47440 Y6.34184
X34.73432 Y6.35937
X34.97917 Y6.39968
X35.20633 Y6.57616
X35.50163 Y6.87816
X35.58382 Y7.22266
X35.61554 Y7.63828
G04 P0 ( dwell for no time -- G64 should not smooth over this point )
G00 Z2.00000 ( retract )

G00 X24.44363 Y18.49711 ( rapid move to begin. )
F100.00000
G01 Z-0.20000
G04 P0 ( dwell for no time -- G64 should not smooth over this point )
F200.00000
G01 X24.44363 Y18.49711
X24.41389 Y18.92094
X24.29890 Y19.10158
X24.13050 Y19.31575
X23.94305 Y19.50872
X23.73195 Y19.68451
X23.49060 Y19.84540
X23.20927 Y19.99211
X23.00036 Y20.07864
X22.64562 Y20.19089
X22.21212 Y20.28098
X21.93803 Y20.31646
X21.45380 Y20.34847
X21.17219 Y20.59510
X20.92106 Y20.78768
X20.45258 Y21.08753
X19.90727 Y21.35982
X19.35960 Y21.57036
X18.91548 Y21.52233
X18.36811 Y20.94735
X14.56060 Y20.94369
X14.47782 Y20.74270
X14.37799 Y20.42820
X14.24198 Y19.66297
X14.12041 Y19.30196
X14.55762 Y18.40377
X16.21726 Y18.40555
X16.41942 Y18.29226
X16.86600 Y17.98581
X17.34459 Y17.72018
X17.67451 Y17.47794
X18.11604 Y17.06841
X18.53204 Y15.87042
X20.78489 Y13.63606
X21.19934 Y14.16573
X21.45380 Y14.53357
X21.88598 Y14.82991
X22.53203 Y15.33519
X23.00036 Y15.75429
X23.20930 Y15.96323
X23.64963 Y16.47184
X23.94579 Y16.90072
X24.20470 Y17.40186
X24.28491 Y17.61081
X24.37381 Y17.92071
X24.42484 Y18.21375
X24.44363 Y18.49711
G04 P0 ( dwell for no time -- G64 should not smooth over this point )
G00 Z2.00000 ( retract )

G00 X18.73031 Y7.30295 ( rapid move to begin. )
F100.00000
G01 Z-0.20000
G04 P0 ( dwell for no time -- G64 should not smooth over this point )
F200.00000
G01 X18.73031 Y7.30295
X19.66528 Y8.24062
X14.46075 Y8.24763
X14.32537 Y8.09409
X14.22466 Y5.82988
X14.33197 Y5.70870
X17.13567 Y5.70857
X18.73031 Y7.30295
G04 P0 ( dwell for no time -- G64 should not smooth over this point )
G00 Z2.00000 ( retract )

G00 X0.62580 Y28.04005 ( rapid move to begin. )
F100.00000
G01 Z-0.20000
G04 P0 ( dwell for no time -- G64 should not smooth over this point )
F200.00000
G01 X0.62580 Y28.04005
X0.62580 Y3.16580
X3.16580 Y0.62580
X28.05783 Y0.62580
X28.05191 Y2.14264
X28.00164 Y2.66313
X27.94167 Y2.96707
X27.85452 Y3.26516
X27.38516 Y4.42330
X27.31681 Y4.69338
X27.29707 Y4.89328
X27.29580 Y22.72380
X27.28211 Y22.92507
X27.24132 Y23.12964
X27.18902 Y23.29304
X26.62097 Y24.66863
X25.28239 Y26.00718
X25.08163 Y26.46560
X24.86817 Y26.83555
X24.63426 Y27.15653
X24.44135 Y27.37304
X23.98491 Y27.54177
X23.64435 Y27.62155
X23.31879 Y27.66202
X23.00033 Y27.66778
X22.68189 Y27.64007
X22.43851 Y27.59461
X22.11466 Y27.33784
X21.81270 Y27.01947
X21.61247 Y26.74749
X21.45380 Y26.48247
X21.45380 Y24.72369
X21.89479 Y24.30973
X22.27506 Y24.03208
X22.70747 Y23.78069
X23.09969 Y23.60020
X24.72527 Y21.97465
X25.63073 Y19.78868
X25.70629 Y19.56490
X25.73903 Y19.41197
X25.75930 Y19.16780
X25.75930 Y3.74058
X25.53964 Y3.21848
X25.45661 Y3.07911
X25.36756 Y2.97055
X24.57005 Y2.17304
X24.48592 Y2.13189
X24.31224 Y2.10144
X12.41648 Y2.09928
X12.24277 Y2.12087
X12.03017 Y2.19311
X10.44813 Y3.77515
X10.38699 Y3.94347
X10.36058 Y4.07583
X10.35380 Y5.45180
X10.36713 Y5.60184
X10.42794 Y5.80966
X10.91333 Y6.98151
X10.91631 Y7.27260
X10.95052 Y7.60412
X11.06317 Y8.09680
X10.94889 Y8.43800
X10.91079 Y8.77920
X10.91079 Y10.36977
X10.47917 Y11.41412
X10.43109 Y11.57218
X10.40785 Y11.72730
X10.40543 Y19.06625
X10.43111 Y19.27044
X10.47912 Y19.42833
X10.91079 Y20.47278
X10.91079 Y20.90673
X11.23208 Y21.68237
X11.30838 Y21.82746
X11.40759 Y21.94961
X11.52974 Y22.04882
X11.67483 Y22.12512
X12.82087 Y22.59982
X13.04742 Y22.82637
X13.36357 Y23.60053
X13.43184 Y23.87038
X13.45158 Y24.07053
X13.45283 Y25.97711
X13.63926 Y26.34879
X13.73487 Y26.61759
X13.79555 Y26.86837
X13.82989 Y27.13509
X13.83510 Y27.34066
X13.81876 Y27.57256
X13.77810 Y27.80807
X13.69199 Y28.10568
X13.57729 Y28.38952
X13.56649 Y28.41320
X13.38333 Y28.47065
X13.10893 Y28.53077
X12.66504 Y28.56514
X12.40530 Y28.54919
X12.13728 Y28.50481
X11.85484 Y28.42740
X11.54178 Y28.31518
X11.28527 Y28.25379
X11.04709 Y28.21665
X10.65979 Y28.17769
X9.86081 Y28.13453
X9.12441 Y28.11282
X0.62580 Y28.04005
G04 P0 ( dwell for no time -- G64 should not smooth over this point )
G00 Z2.00000 ( retract )

G00 X9.10981 Y39.58978 ( rapid move to begin. )
F100.00000
G01 Z-0.20000
G04 P0 ( dwell for no time -- G64 should not smooth over this point )
F200.00000
G01 X9.10981 Y39.58978
X6.03067 Y36.51069
X8.04290 Y35.66325
X9.77709 Y34.91021
X12.16802 Y33.81517
X14.02196 Y34.21176
X15.09402 Y34.46137
X15.36197 Y34.82464
X15.77855 Y35.49253
X16.06141 Y35.67097
X16.23613 Y35.76223
X16.49823 Y35.87231
X16.73992 Y35.94526
X16.96793 Y35.98898
X17.18777 Y36.00805
X17.40423 Y36.00467
X17.62178 Y35.97915
X17.84509 Y35.92987
X18.07918 Y35.85311
X18.33008 Y35.74232
X18.53039 Y35.63091
X18.86351 Y35.80251
X19.10519 Y35.89525
X19.33320 Y35.95766
X19.72777 Y36.00805
X20.12210 Y35.98420
X20.36798 Y35.81405
X20.52337 Y35.67493
X20.66488 Y35.51961
X20.88789 Y35.19007
X21.07275 Y34.78255
X21.06968 Y33.31530
X20.84428 Y33.11799
X20.45842 Y32.60138
X20.26447 Y32.26026
X20.08941 Y31.85802
X19.93739 Y31.37286
X19.81690 Y30.76740
X19.74496 Y29.90491
X20.48822 Y29.91604
X21.24356 Y29.96849
X22.16195 Y29.99371
X22.58263 Y30.02351
X23.01283 Y30.09971
X23.31592 Y30.18116
X23.79764 Y30.35785
X24.06068 Y30.47733
X24.00724 Y30.97151
X23.94424 Y31.31512
X23.75628 Y32.09663
X23.61280 Y32.83744
X23.61417 Y34.90813
X23.60251 Y34.93670
X23.47330 Y35.20434
X23.24491 Y35.54183
X23.06698 Y35.73398
X22.78049 Y35.96342
X22.52705 Y36.00140
X22.26777 Y36.00805
X21.87320 Y35.95766
X21.63366 Y35.89185
X21.41369 Y36.00137
X21.23114 Y36.15664
X21.14359 Y36.27084
X21.06523 Y36.41628
X21.00534 Y36.58613
X20.97252 Y36.73629
X20.94613 Y37.07508
X20.94550 Y37.76299
X20.42502 Y37.81948
X18.43755 Y37.83296
X18.21530 Y37.86497
X17.99305 Y37.91831
X17.77080 Y37.99298
X17.54855 Y37.91831
X17.32630 Y37.86497
X17.10405 Y37.83296
X15.96336 Y37.82230
X15.70106 Y37.91082
X15.33763 Y38.00030
X15.13611 Y38.03230
X14.64965 Y38.06873
X14.29230 Y38.11333
X13.85961 Y38.19829
X13.46502 Y38.29563
X12.44168 Y38.59197
X10.49403 Y39.20896
X9.10981 Y39.58978
G04 P0 ( dwell for no time -- G64 should not smooth over this point )
G00 Z2.00000 ( retract )

G00 X11.25773 Y41.73771 ( rapid move to begin. )
F100.00000
G01 Z-0.20000
G04 P0 ( dwell for no time -- G64 should not smooth over this point )
F200.00000
G01 X11.25773 Y41.73771
X9.10978 Y39.58981
X10.49403 Y39.20896
X12.44168 Y38.59197
X13.23977 Y38.35674
X14.03682 Y38.16012
X14.44670 Y38.09077
X14.98975 Y38.04770
X15.33763 Y38.00030
X15.70106 Y37.91082
X15.96336 Y37.82230
X17.10405 Y37.83296
X17.32630 Y37.86497
X17.54855 Y37.91831
X17.77080 Y37.99298
X17.76834 Y41.64517
X17.27136 Y41.57779
X17.01485 Y41.51640
X16.62490 Y41.37997
X16.35691 Y41.31388
X16.09714 Y41.27687
X15.85290 Y41.26595
X15.50527 Y41.29196
X15.24210 Y41.34307
X14.66108 Y41.53235
X14.19875 Y41.61787
X13.27833 Y41.68703
X11.25773 Y41.73771
G04 P0 ( dwell for no time -- G64 should not smooth over this point )
G00 Z2.00000 ( retract )

G00 X17.77730 Y48.25730 ( rapid move to begin. )
F100.00000
G01 Z-0.20000
G04 P0 ( dwell for no time -- G64 should not smooth over this point )
F200.00000
G01 X17.77730 Y48.25730
X11.25771 Y41.73773
X13.27833 Y41.68703
X14.19875 Y41.61787
X14.66108 Y41.53235
X15.24210 Y41.34307
X15.50527 Y41.29196
X15.85290 Y41.26595
X16.09714 Y41.27687
X16.35691 Y41.31388
X16.62490 Y41.37997
X17.01485 Y41.51640
X17.27136 Y41.57779
X17.76834 Y41.64517
X17.76554 Y47.22324
X17.77730 Y48.25730
G04 P0 ( dwell for no time -- G64 should not smooth over this point )
G00 Z2.00000 ( retract )

G00 X35.11209 Y75.55580 ( rapid move to begin. )
F100.00000
G01 Z-0.20000
G04 P0 ( dwell for no time -- G64 should not smooth over this point )
F200.00000
G01 X35.11209 Y75.55580
X34.47133 Y72.71537
X33.77280 Y69.76671
X31.09920 Y58.76820
X29.48322 Y52.00174
X28.78602 Y49.00104
X29.53382 Y46.26803
X30.46201 Y42.98998
X30.47573 Y41.65678
X30.47349 Y36.55928
X31.35990 Y35.98506
X32.77369 Y36.46896
X32.93709 Y37.07594
X32.98659 Y37.33919
X33.00856 Y37.59240
X33.00318 Y38.16007
X33.29012 Y38.85280
X33.34052 Y38.92948
X33.41723 Y38.97988
X34.03505 Y39.23581
X34.90762 Y39.23581
X35.14443 Y39.13771
X35.23777 Y39.08861
X35.31638 Y39.02476
X35.38024 Y38.94614
X35.60363 Y38.43202
X35.60361 Y36.82080
X35.58367 Y36.62933
X35.52380 Y36.43787
X35.42400 Y36.24640
X35.28430 Y36.05494
X35.28430 Y33.14351
X35.44412 Y32.82231
X35.55072 Y32.54029
X35.62197 Y32.27420
X35.67704 Y31.84296
X35.66853 Y31.51121
X35.59030 Y31.07588
X35.50234 Y30.80273
X35.35494 Y30.46846
X35.51394 Y30.10758
X35.60071 Y29.82554
X35.65329 Y29.55947
X35.67704 Y29.30296
X35.66853 Y28.97121
X35.59030 Y28.53588
X35.50234 Y28.26273
X35.35494 Y27.92846
X35.51394 Y27.56755
X35.60071 Y27.28551
X35.65329 Y27.01945
X35.67704 Y26.76293
X35.66853 Y26.43118
X35.59030 Y25.99585
X35.50234 Y25.72270
X35.35497 Y25.38846
X35.44412 Y25.20231
X35.55072 Y24.92029
X35.65329 Y24.47947
X35.67704 Y24.22296
X35.67457 Y23.97033
X35.63086 Y23.63061
X35.50345 Y23.18600
X35.42243 Y23.10267
X35.31923 Y23.00701
X34.90904 Y22.89616
X34.47440 Y22.85184
X33.95794 Y22.85723
X33.51997 Y22.92451
X33.12032 Y23.04196
X32.72515 Y23.11747
X32.67735 Y22.64818
X32.69239 Y22.23048
X32.65672 Y21.76348
X32.55352 Y21.32360
X32.41103 Y20.94788
X32.55423 Y20.58657
X32.69510 Y20.30110
X32.88482 Y20.01339
X33.25677 Y19.57529
X33.63272 Y19.64230
X33.84803 Y19.66424
X34.35898 Y19.67450
X34.86406 Y19.43331
X35.15875 Y19.23994
X35.39075 Y18.80158
X35.49241 Y18.53394
X35.56050 Y18.28144
X35.61389 Y17.86328
X35.61112 Y17.62356
X35.58382 Y17.38266
X35.53023 Y17.13534
X35.44625 Y16.87614
X35.27399 Y16.49872
X35.46055 Y16.08683
X35.54242 Y15.81922
X35.59182 Y15.56671
X35.61554 Y15.25828
X35.58382 Y14.84266
X35.53023 Y14.59534
X35.40495 Y14.23304
X35.27399 Y13.95872
X35.39075 Y13.72158
X35.49241 Y13.45394
X35.56050 Y13.20144
X35.61389 Y12.78328
X35.60607 Y12.47739
X35.53023 Y12.05534
X35.40495 Y11.69304
X35.27399 Y11.41872
X35.39075 Y11.18158
X35.49241 Y10.91394
X35.56050 Y10.66144
X35.61389 Y10.24328
X35.60607 Y9.93739
X35.53023 Y9.51534
X35.40495 Y9.15304
X35.27399 Y8.87872
X35.39075 Y8.64158
X35.49241 Y8.37394
X35.56050 Y8.12144
X35.60058 Y7.87803
X35.61554 Y7.63828
X35.60607 Y7.39739
X35.57076 Y7.15007
X35.50163 Y6.87816
X35.20633 Y6.57616
X34.97917 Y6.39968
X34.73432 Y6.35937
X34.47440 Y6.34184
X33.92693 Y6.35040
X33.26483 Y6.07613
X33.17925 Y6.01995
X33.12307 Y5.93440
X32.66592 Y4.83069
X32.69239 Y4.45048
X32.67905 Y3.95978
X32.41804 Y3.60273
X32.27948 Y3.53476
X31.93082 Y3.40410
X31.69185 Y3.34561
X31.46021 Y3.31304
X30.86300 Y3.30570
X30.45523 Y3.36036
X30.22472 Y3.54180
X30.05970 Y3.70679
X29.87291 Y3.94246
X29.73753 Y4.16112
X29.54543 Y4.59470
X29.41246 Y5.09442
X29.35467 Y5.48098
X29.42983 Y5.70410
X29.27299 Y6.26028
X29.21784 Y6.62150
X29.19994 Y6.97732
X29.21833 Y7.33473
X29.27515 Y7.70178
X29.42983 Y8.24410
X29.27299 Y8.80028
X29.21784 Y9.16150
X29.19994 Y9.51732
X29.21833 Y9.87473
X29.27515 Y10.24178
X29.42983 Y10.78410
X29.27299 Y11.34028
X29.21784 Y11.70150
X29.19994 Y12.05732
X29.21833 Y12.41473
X29.27515 Y12.78178
X29.42983 Y13.32410
X29.27299 Y13.88028
X29.21784 Y14.24150
X29.19994 Y14.59732
X29.21833 Y14.95473
X29.27515 Y15.32178
X29.42983 Y15.86410
X29.27299 Y16.42028
X29.21784 Y16.78150
X29.19994 Y17.13732
X29.21833 Y17.49473
X29.27515 Y17.86178
X29.42983 Y18.40410
X29.27299 Y18.96028
X29.21784 Y19.32150
X29.19994 Y19.67732
X29.21833 Y20.03473
X29.27515 Y20.40178
X29.42983 Y20.94410
X29.27299 Y21.50028
X29.21784 Y21.86150
X29.19994 Y22.21732
X29.21833 Y22.57473
X29.27515 Y22.94178
X29.42983 Y23.48410
X29.27299 Y24.04028
X29.20453 Y24.57622
X29.20438 Y24.93203
X29.31081 Y26.02217
X28.99046 Y26.47566
X28.75452 Y26.87048
X28.54020 Y27.33083
X28.36471 Y27.82953
X27.37131 Y28.24741
X27.13019 Y28.37604
X26.88196 Y28.53905
X26.62811 Y28.74728
X25.78607 Y29.57771
X25.56055 Y29.75955
X25.35143 Y29.89912
X25.02001 Y30.07601
X24.06068 Y30.47733
X23.79764 Y30.35785
X23.31592 Y30.18116
X23.01283 Y30.09971
X22.58263 Y30.02351
X22.16195 Y29.99371
X21.24356 Y29.96849
X20.48822 Y29.91604
X19.74496 Y29.90491
X19.81690 Y30.76740
X19.93739 Y31.37286
X20.08941 Y31.85802
X20.26447 Y32.26026
X20.45842 Y32.60138
X20.84428 Y33.11799
X21.06968 Y33.31530
X21.07275 Y34.78255
X20.88789 Y35.19007
X20.66488 Y35.51961
X20.49937 Y35.69832
X20.19533 Y35.93975
X20.12210 Y35.98420
X19.76950 Y36.00909
X19.55302 Y35.99474
X19.33320 Y35.95766
X19.10519 Y35.89525
X18.86351 Y35.80251
X18.53039 Y35.63091
X18.15536 Y35.82258
X17.84509 Y35.92987
X17.44705 Y36.00140
X17.22950 Y36.00909
X17.01302 Y35.99474
X16.73992 Y35.94526
X16.32351 Y35.80251
X16.06141 Y35.67097
X15.77855 Y35.49253
X15.36197 Y34.82464
X15.09402 Y34.46137
X15.72239 Y34.03155
X16.02008 Y33.84664
X17.55246 Y33.00437
X17.47532 Y32.68741
X17.29737 Y32.22340
X17.16791 Y31.98789
X17.02650 Y31.78385
X16.87240 Y31.60412
X16.70344 Y31.44352
X16.51624 Y31.29854
X16.30591 Y31.16709
X16.18899 Y31.10699
X14.53822 Y31.10440
X14.32506 Y31.40748
X14.08480 Y31.67948
X13.58023 Y32.13732
X13.11884 Y32.59498
X12.72214 Y33.05990
X12.16802 Y33.81517
X9.77709 Y34.91021
X8.04290 Y35.66325
X6.03069 Y36.51067
X0.62580 Y31.10580
X0.62580 Y28.04002
X9.12441 Y28.11282
X9.86081 Y28.13453
X10.65979 Y28.17769
X11.04709 Y28.21665
X11.28527 Y28.25379
X11.54178 Y28.31518
X11.85484 Y28.42740
X12.13728 Y28.50481
X12.40530 Y28.54919
X12.66504 Y28.56514
X13.10893 Y28.53077
X13.38333 Y28.47065
X13.56649 Y28.41320
X13.57729 Y28.38952
X13.69199 Y28.10568
X13.77810 Y27.80807
X13.81876 Y27.57256
X13.83510 Y27.34066
X13.82989 Y27.13509
X13.79555 Y26.86837
X13.73487 Y26.61759
X13.63926 Y26.34879
X13.45283 Y25.97711
X13.45158 Y24.07053
X13.43184 Y23.87038
X13.36357 Y23.60053
X13.04742 Y22.82637
X12.82087 Y22.59982
X11.67483 Y22.12512
X11.52974 Y22.04882
X11.40759 Y21.94961
X11.30838 Y21.82746
X11.23208 Y21.68237
X10.91079 Y20.90673
X10.91079 Y20.47278
X10.47912 Y19.42833
X10.41295 Y19.16681
X10.40785 Y11.72730
X10.43109 Y11.57218
X10.47917 Y11.41412
X10.91079 Y10.36977
X10.91079 Y8.77920
X10.94889 Y8.43800
X11.06317 Y8.09680
X11.50310 Y8.17460
X12.06258 Y8.32741
X12.49720 Y8.37173
X12.93520 Y8.37054
X13.18841 Y8.34857
X13.45166 Y8.29906
X13.85130 Y8.18161
X14.32537 Y8.09409
X14.46075 Y8.24763
X14.41282 Y8.60216
X14.31091 Y9.08954
X14.27924 Y9.50109
X14.29265 Y9.79335
X14.33743 Y10.09347
X14.53344 Y10.78458
X14.42153 Y10.94823
X14.38582 Y10.99454
X14.10982 Y11.10726
X13.83380 Y11.16251
X13.54879 Y11.19190
X13.22146 Y11.27472
X12.92834 Y11.39144
X12.86923 Y11.45054
X12.31745 Y11.68943
X12.05049 Y11.84028
X11.67991 Y12.11953
X11.53751 Y12.47198
X11.47259 Y12.71089
X11.43416 Y12.94122
X11.41953 Y13.16807
X11.42804 Y13.39601
X11.46093 Y13.63002
X11.52171 Y13.87528
X11.61679 Y14.13819
X11.78051 Y14.46723
X11.63424 Y14.75872
X11.48753 Y15.18671
X11.43416 Y15.48122
X11.42397 Y15.88279
X11.46093 Y16.17002
X11.52171 Y16.41528
X11.61679 Y16.67819
X11.78051 Y17.00723
X11.63424 Y17.29872
X11.53751 Y17.55198
X11.44127 Y17.96562
X11.41953 Y18.24807
X11.45029 Y18.65076
X11.48288 Y18.80461
X11.53015 Y18.87070
X11.68425 Y19.05043
X11.89951 Y19.24979
X12.09685 Y19.39422
X12.35262 Y19.54042
X12.93520 Y19.54654
X13.18841 Y19.52457
X13.45166 Y19.47506
X13.85130 Y19.35761
X14.12041 Y19.30196
X14.20530 Y19.53310
X14.27754 Y19.83612
X14.31490 Y20.12810
X14.37799 Y20.42820
X14.47782 Y20.74270
X14.56060 Y20.94369
X14.47195 Y21.16427
X14.48346 Y21.34618
X14.52783 Y21.68354
X14.65262 Y22.23556
X14.69603 Y22.61755
X14.81254 Y23.02360
X14.92216 Y23.27155
X15.04071 Y23.48367
X14.90146 Y23.74219
X14.77083 Y24.06533
X14.70906 Y24.29065
X14.65900 Y24.68265
X14.66552 Y24.93683
X14.73657 Y25.33228
X14.84188 Y25.63682
X15.04071 Y26.02367
X14.90146 Y26.28219
X14.79280 Y26.54122
X14.72082 Y26.78005
X14.67230 Y27.04790
X14.65800 Y27.26184
X14.66552 Y27.47683
X14.69603 Y27.69755
X14.80073 Y28.06908
X15.05229 Y28.30682
X15.25760 Y28.45666
X15.44281 Y28.56801
X16.18683 Y28.56710
X16.56163 Y28.34055
X16.78993 Y28.14990
X17.06054 Y27.84253
X17.23410 Y27.57045
X17.38861 Y27.23454
X17.69010 Y27.08666
X17.94393 Y26.91297
X18.20715 Y26.66321
X18.42808 Y26.36136
X18.46033 Y25.75493
X18.45259 Y24.92364
X18.70565 Y24.82049
X19.04900 Y24.71648
X19.37727 Y24.65311
X19.58621 Y24.63116
X20.01941 Y24.63116
X20.78929 Y24.71458
X21.45380 Y24.72369
X21.45380 Y26.48247
X21.68441 Y26.85227
X21.88806 Y27.10774
X22.11466 Y27.33784
X22.43851 Y27.59461
X22.68189 Y27.64007
X23.00033 Y27.66778
X23.20927 Y27.66778
X23.52774 Y27.64007
X23.85331 Y27.57713
X24.19388 Y27.47388
X24.44135 Y27.37304
X24.52192 Y27.28813
X24.76258 Y26.98932
X24.98044 Y26.65232
X25.17706 Y26.26553
X25.28239 Y26.00718
X26.62097 Y24.66863
X27.18902 Y23.29304
X27.24132 Y23.12964
X27.28211 Y22.92507
X27.29580 Y22.72380
X27.29707 Y4.89328
X27.31681 Y4.69338
X27.38516 Y4.42330
X27.85452 Y3.26516
X27.94167 Y2.96707
X28.00164 Y2.66313
X28.05191 Y2.14264
X28.05783 Y0.62580
X37.45580 Y0.62580
X39.99580 Y3.16580
X39.99580 Y75.55580
X35.11209 Y75.55580
G04 P0 ( dwell for no time -- G64 should not smooth over this point )
G00 Z2.00000 ( retract )

G00 X35.11207 Y75.55580 ( rapid move to begin. )
F100.00000
G01 Z-0.20000
G04 P0 ( dwell for no time -- G64 should not smooth over this point )
F200.00000
G01 X35.11207 Y75.55580
X20.94580 Y75.55580
X20.94580 Y51.42580
X17.77733 Y48.25733
X17.76554 Y47.22324
X17.77083 Y41.64083
X18.31807 Y41.56842
X18.47108 Y41.53235
X18.98329 Y41.36092
X19.25769 Y41.30080
X19.70158 Y41.26643
X19.96132 Y41.28239
X20.22934 Y41.32676
X20.51179 Y41.40418
X20.82485 Y41.51640
X21.08136 Y41.57779
X21.31954 Y41.61492
X21.70683 Y41.65389
X22.50582 Y41.69704
X24.22276 Y41.72717
X27.94271 Y47.28519
X28.78602 Y49.00104
X29.48322 Y52.00174
X31.09920 Y58.76820
X33.77280 Y69.76671
X34.47133 Y72.71537
X35.11207 Y75.55580

G04 P0 ( dwell for no time -- G64 should not smooth over this point )
G00 Z10.000 ( retract )

M5 ( Spindle off. )
M9 ( Coolant off. )
M2 ( Program end. )

