( pcb2gcode 1.3.2 )
( Software-independent Gcode )
( This file uses a mill head of 1.00000mm to drill the 3 bit sizes. )
( Bit sizes: [1.00000] [1.00100] [1.01600] )

G94       (Millimeters per minute feed rate.)
G21       (Units == Millimeters.)
G90       (Absolute coordinates.)
S10000    (RPM spindle speed.)
F60.00000 (Feedrate)
M3        (Spindle on clockwise.)
G00 Z2.00000

G0 X17.38980 Y26.02580
G1 Z-2.00000
G0 Z2.00000

G0 X22.08880 Y31.99480
G1 Z-2.00000
G0 Z2.00000

G0 X14.72280 Y36.43980
G1 Z-2.00000
G0 Z2.00000

G0 X32.62980 Y35.04280
G1 Z-2.00000
G0 Z2.00000

G0 X19.80280 Y18.53280
G1 Z-2.00000
G0 Z2.00000

G0 X23.10480 Y18.53280
G1 Z-2.00000
G0 Z2.00000

G0 X23.10480 Y26.15280
G1 Z-2.00000
G0 Z2.00000

G0 X19.80280 Y26.15280
G1 Z-2.00000
G0 Z2.00000

G0 X12.69080 Y4.56280
G1 Z-2.00000
G0 Z2.00000

G0 X12.69080 Y7.10280
G1 Z-2.00000
G0 Z2.00000

G0 X12.69080 Y9.64280
G1 Z-2.00000
G0 Z2.00000

G0 X12.69080 Y13.19880
G1 Z-2.00000
G0 Z2.00000

G0 X12.69080 Y15.73880
G1 Z-2.00000
G0 Z2.00000

G0 X12.69080 Y18.27880
G1 Z-2.00000
G0 Z2.00000

G0 X12.69080 Y20.81880
G1 Z-2.00000
G0 Z2.00000

G0 X15.86580 Y19.67580
G1 Z-2.00000
G0 Z2.00000

G0 X15.86580 Y17.13580
G1 Z-2.00000
G0 Z2.00000

G0 X15.86580 Y14.59580
G1 Z-2.00000
G0 Z2.00000

G0 X15.86580 Y12.05580
G1 Z-2.00000
G0 Z2.00000

G0 X15.86580 Y9.51580
G1 Z-2.00000
G0 Z2.00000

G0 X15.86580 Y6.97580
G1 Z-2.00000
G0 Z2.00000

G0 X15.86580 Y4.43580
G1 Z-2.00000
G0 Z2.00000

G0 X18.40580 Y4.43580
G1 Z-2.00000
G0 Z2.00000

G0 X20.94580 Y4.43580
G1 Z-2.00000
G0 Z2.00000

G0 X23.48580 Y4.43580
G1 Z-2.00000
G0 Z2.00000

G0 X31.10580 Y4.43580
G1 Z-2.00000
G0 Z2.00000

G0 X31.10580 Y6.97580
G1 Z-2.00000
G0 Z2.00000

G0 X31.10580 Y9.51580
G1 Z-2.00000
G0 Z2.00000

G0 X31.10580 Y12.05580
G1 Z-2.00000
G0 Z2.00000

G0 X31.10580 Y14.59580
G1 Z-2.00000
G0 Z2.00000

G0 X31.10580 Y17.13580
G1 Z-2.00000
G0 Z2.00000

G0 X31.10580 Y19.67580
G1 Z-2.00000
G0 Z2.00000

G0 X31.10580 Y22.21580
G1 Z-2.00000
G0 Z2.00000

G0 X31.10580 Y24.75580
G1 Z-2.00000
G0 Z2.00000

G0 X31.10580 Y27.29580
G1 Z-2.00000
G0 Z2.00000

G0 X31.10580 Y29.83580
G1 Z-2.00000
G0 Z2.00000

G0 X31.10580 Y32.37580
G1 Z-2.00000
G0 Z2.00000

G0 X29.96280 Y34.78880
G1 Z-2.00000
G0 Z2.00000

G0 X27.42280 Y34.78880
G1 Z-2.00000
G0 Z2.00000

G0 X24.88280 Y34.78880
G1 Z-2.00000
G0 Z2.00000

G0 X22.34280 Y34.78880
G1 Z-2.00000
G0 Z2.00000

G0 X19.80280 Y34.78880
G1 Z-2.00000
G0 Z2.00000

G0 X17.26280 Y34.78880
G1 Z-2.00000
G0 Z2.00000

G0 X15.86580 Y32.37580
G1 Z-2.00000
G0 Z2.00000

G0 X15.86580 Y29.83580
G1 Z-2.00000
G0 Z2.00000

G0 X15.86580 Y27.29580
G1 Z-2.00000
G0 Z2.00000

G0 X15.86580 Y24.75580
G1 Z-2.00000
G0 Z2.00000

G0 X15.86580 Y22.21580
G1 Z-2.00000
G0 Z2.00000

G0 X12.69080 Y27.29580
G1 Z-2.00000
G0 Z2.00000

G0 X12.69080 Y29.83580
G1 Z-2.00000
G0 Z2.00000

G0 X15.86580 Y39.99580
G1 Z-2.00000
G0 Z2.00000

G0 X15.86580 Y42.53580
G1 Z-2.00000
G0 Z2.00000

G0 X19.67580 Y42.53580
G1 Z-2.00000
G0 Z2.00000

G0 X19.67580 Y39.99580
G1 Z-2.00000
G0 Z2.00000

G0 X26.66080 Y37.83680
G1 Z-2.00000
G0 Z2.00000

G0 X29.20080 Y37.83680
G1 Z-2.00000
G0 Z2.00000

G0 X31.74080 Y37.83680
G1 Z-2.00000
G0 Z2.00000

G0 X34.28080 Y37.83680
G1 Z-2.00000
G0 Z2.00000

G0 X34.28080 Y31.74080
G1 Z-2.00000
G0 Z2.00000

G0 X34.28080 Y29.20080
G1 Z-2.00000
G0 Z2.00000

G0 X34.28080 Y26.66080
G1 Z-2.00000
G0 Z2.00000

G0 X34.28080 Y24.12080
G1 Z-2.00000
G0 Z2.00000

G0 X34.28080 Y21.58080
G1 Z-2.00000
G0 Z2.00000

G0 X34.28080 Y17.77080
G1 Z-2.00000
G0 Z2.00000

G0 X34.28080 Y15.23080
G1 Z-2.00000
G0 Z2.00000

G0 X34.28080 Y12.69080
G1 Z-2.00000
G0 Z2.00000

G0 X34.28080 Y10.15080
G1 Z-2.00000
G0 Z2.00000

G0 X34.28080 Y7.61080
G1 Z-2.00000
G0 Z2.00000

G0 X34.28080 Y5.07080
G1 Z-2.00000
G0 Z2.00000

G00 Z10.000 ( All done -- retract )

M5      (Spindle off.)
M9      (Coolant off.)
M2      (Program end.)

