( pcb2gcode 1.3.2 )
( Software-independent Gcode )

G94 ( Millimeters per minute feed rate. )
G21 ( Units == Millimeters. )

G90 ( Absolute coordinates. )
S10000 ( RPM spindle speed. )
F60.00000 ( Feedrate. )

F60.00000 ( Feedrate. )
M3 ( Spindle on clockwise. )
G04 P0 ( dwell for no time -- G64 should not smooth over this point )
G00 Z2.00000 ( retract )

G00 X20.44580 Y51.63289 ( rapid move to begin. )
G01 Z-0.25000 F30.00000 ( plunge. )
G04 P0 ( dwell for no time -- G64 should not smooth over this point )
F60.00000
G01 X20.44580 Y51.63289
X10.88936 Y42.07644
X9.82870 Y41.01578
X0.27226 Y31.45934
X0.16388 Y31.29714
X0.12580 Y31.10580
X0.12580 Y17.88580
X0.12580 Y16.38580
X0.12580 Y3.16580
X0.16388 Y2.97444
X0.27226 Y2.81223
X2.81226 Y0.27226
X2.97446 Y0.16388
X3.16580 Y0.12580
X19.56080 Y0.12580
X21.06080 Y0.12580
X37.45580 Y0.12580
X37.64716 Y0.16388
X37.80937 Y0.27226
X40.34934 Y2.81223
X40.45772 Y2.97444
X40.49580 Y3.16580
X40.49580 Y38.61080
X40.49580 Y40.11080
X40.49580 Y75.55580
X40.45772 Y75.74714
X40.41152 Y75.83357
X40.27357 Y75.97152
X40.18714 Y76.01772
X39.99580 Y76.05580
X20.94580 Y76.05580
X20.75446 Y76.01772
X20.66803 Y75.97152
X20.53008 Y75.83357
X20.48388 Y75.74714
X20.44580 Y75.55580
X20.44580 Y51.63289
G01 Z-0.50000 F30.00000 ( plunge. )
G04 P0 ( dwell for no time -- G64 should not smooth over this point )
F60.00000
G01 X20.44580 Y51.63289
X10.88936 Y42.07644
X9.82870 Y41.01578
X0.27226 Y31.45934
X0.16388 Y31.29714
X0.12580 Y31.10580
X0.12580 Y17.88580
X0.12580 Y16.38580
X0.12580 Y3.16580
X0.16388 Y2.97444
X0.27226 Y2.81223
X2.81226 Y0.27226
X2.97446 Y0.16388
X3.16580 Y0.12580
X19.56080 Y0.12580
X21.06080 Y0.12580
X37.45580 Y0.12580
X37.64716 Y0.16388
X37.80937 Y0.27226
X40.34934 Y2.81223
X40.45772 Y2.97444
X40.49580 Y3.16580
X40.49580 Y38.61080
X40.49580 Y40.11080
X40.49580 Y75.55580
X40.45772 Y75.74714
X40.41152 Y75.83357
X40.27357 Y75.97152
X40.18714 Y76.01772
X39.99580 Y76.05580
X20.94580 Y76.05580
X20.75446 Y76.01772
X20.66803 Y75.97152
X20.53008 Y75.83357
X20.48388 Y75.74714
X20.44580 Y75.55580
X20.44580 Y51.63289
G01 Z-0.75000 F30.00000 ( plunge. )
G04 P0 ( dwell for no time -- G64 should not smooth over this point )
F60.00000
G01 X20.44580 Y51.63289
X10.88936 Y42.07644
Z-0.60000
X9.82870 Y41.01578
Z-0.75000 F30.00000
F60.00000
G01 X0.27226 Y31.45934
X0.16388 Y31.29714
X0.12580 Y31.10580
X0.12580 Y17.88580
Z-0.60000
X0.12580 Y16.38580
Z-0.75000 F30.00000
F60.00000
G01 X0.12580 Y3.16580
X0.16388 Y2.97444
X0.27226 Y2.81223
X2.81226 Y0.27226
X2.97446 Y0.16388
X3.16580 Y0.12580
X19.56080 Y0.12580
Z-0.60000
X21.06080 Y0.12580
Z-0.75000 F30.00000
F60.00000
G01 X37.45580 Y0.12580
X37.64716 Y0.16388
X37.80937 Y0.27226
X40.34934 Y2.81223
X40.45772 Y2.97444
X40.49580 Y3.16580
X40.49580 Y38.61080
Z-0.60000
X40.49580 Y40.11080
Z-0.75000 F30.00000
F60.00000
G01 X40.49580 Y75.55580
X40.45772 Y75.74714
X40.41152 Y75.83357
X40.27357 Y75.97152
X40.18714 Y76.01772
X39.99580 Y76.05580
X20.94580 Y76.05580
X20.75446 Y76.01772
X20.66803 Y75.97152
X20.53008 Y75.83357
X20.48388 Y75.74714
X20.44580 Y75.55580
X20.44580 Y51.63289
G01 Z-1.00000 F30.00000 ( plunge. )
G04 P0 ( dwell for no time -- G64 should not smooth over this point )
F60.00000
G01 X20.44580 Y51.63289
X10.88936 Y42.07644
Z-0.60000
X9.82870 Y41.01578
Z-1.00000 F30.00000
F60.00000
G01 X0.27226 Y31.45934
X0.16388 Y31.29714
X0.12580 Y31.10580
X0.12580 Y17.88580
Z-0.60000
X0.12580 Y16.38580
Z-1.00000 F30.00000
F60.00000
G01 X0.12580 Y3.16580
X0.16388 Y2.97444
X0.27226 Y2.81223
X2.81226 Y0.27226
X2.97446 Y0.16388
X3.16580 Y0.12580
X19.56080 Y0.12580
Z-0.60000
X21.06080 Y0.12580
Z-1.00000 F30.00000
F60.00000
G01 X37.45580 Y0.12580
X37.64716 Y0.16388
X37.80937 Y0.27226
X40.34934 Y2.81223
X40.45772 Y2.97444
X40.49580 Y3.16580
X40.49580 Y38.61080
Z-0.60000
X40.49580 Y40.11080
Z-1.00000 F30.00000
F60.00000
G01 X40.49580 Y75.55580
X40.45772 Y75.74714
X40.41152 Y75.83357
X40.27357 Y75.97152
X40.18714 Y76.01772
X39.99580 Y76.05580
X20.94580 Y76.05580
X20.75446 Y76.01772
X20.66803 Y75.97152
X20.53008 Y75.83357
X20.48388 Y75.74714
X20.44580 Y75.55580
X20.44580 Y51.63289
G01 Z-1.25000 F30.00000 ( plunge. )
G04 P0 ( dwell for no time -- G64 should not smooth over this point )
F60.00000
G01 X20.44580 Y51.63289
X10.88936 Y42.07644
Z-0.60000
X9.82870 Y41.01578
Z-1.25000 F30.00000
F60.00000
G01 X0.27226 Y31.45934
X0.16388 Y31.29714
X0.12580 Y31.10580
X0.12580 Y17.88580
Z-0.60000
X0.12580 Y16.38580
Z-1.25000 F30.00000
F60.00000
G01 X0.12580 Y3.16580
X0.16388 Y2.97444
X0.27226 Y2.81223
X2.81226 Y0.27226
X2.97446 Y0.16388
X3.16580 Y0.12580
X19.56080 Y0.12580
Z-0.60000
X21.06080 Y0.12580
Z-1.25000 F30.00000
F60.00000
G01 X37.45580 Y0.12580
X37.64716 Y0.16388
X37.80937 Y0.27226
X40.34934 Y2.81223
X40.45772 Y2.97444
X40.49580 Y3.16580
X40.49580 Y38.61080
Z-0.60000
X40.49580 Y40.11080
Z-1.25000 F30.00000
F60.00000
G01 X40.49580 Y75.55580
X40.45772 Y75.74714
X40.41152 Y75.83357
X40.27357 Y75.97152
X40.18714 Y76.01772
X39.99580 Y76.05580
X20.94580 Y76.05580
X20.75446 Y76.01772
X20.66803 Y75.97152
X20.53008 Y75.83357
X20.48388 Y75.74714
X20.44580 Y75.55580
X20.44580 Y51.63289
G01 Z-1.50000 F30.00000 ( plunge. )
G04 P0 ( dwell for no time -- G64 should not smooth over this point )
F60.00000
G01 X20.44580 Y51.63289
X10.88936 Y42.07644
Z-0.60000
X9.82870 Y41.01578
Z-1.50000 F30.00000
F60.00000
G01 X0.27226 Y31.45934
X0.16388 Y31.29714
X0.12580 Y31.10580
X0.12580 Y17.88580
Z-0.60000
X0.12580 Y16.38580
Z-1.50000 F30.00000
F60.00000
G01 X0.12580 Y3.16580
X0.16388 Y2.97444
X0.27226 Y2.81223
X2.81226 Y0.27226
X2.97446 Y0.16388
X3.16580 Y0.12580
X19.56080 Y0.12580
Z-0.60000
X21.06080 Y0.12580
Z-1.50000 F30.00000
F60.00000
G01 X37.45580 Y0.12580
X37.64716 Y0.16388
X37.80937 Y0.27226
X40.34934 Y2.81223
X40.45772 Y2.97444
X40.49580 Y3.16580
X40.49580 Y38.61080
Z-0.60000
X40.49580 Y40.11080
Z-1.50000 F30.00000
F60.00000
G01 X40.49580 Y75.55580
X40.45772 Y75.74714
X40.41152 Y75.83357
X40.27357 Y75.97152
X40.18714 Y76.01772
X39.99580 Y76.05580
X20.94580 Y76.05580
X20.75446 Y76.01772
X20.66803 Y75.97152
X20.53008 Y75.83357
X20.48388 Y75.74714
X20.44580 Y75.55580
X20.44580 Y51.63289
G01 Z-1.75000 F30.00000 ( plunge. )
G04 P0 ( dwell for no time -- G64 should not smooth over this point )
F60.00000
G01 X20.44580 Y51.63289
X10.88936 Y42.07644
Z-0.60000
X9.82870 Y41.01578
Z-1.75000 F30.00000
F60.00000
G01 X0.27226 Y31.45934
X0.16388 Y31.29714
X0.12580 Y31.10580
X0.12580 Y17.88580
Z-0.60000
X0.12580 Y16.38580
Z-1.75000 F30.00000
F60.00000
G01 X0.12580 Y3.16580
X0.16388 Y2.97444
X0.27226 Y2.81223
X2.81226 Y0.27226
X2.97446 Y0.16388
X3.16580 Y0.12580
X19.56080 Y0.12580
Z-0.60000
X21.06080 Y0.12580
Z-1.75000 F30.00000
F60.00000
G01 X37.45580 Y0.12580
X37.64716 Y0.16388
X37.80937 Y0.27226
X40.34934 Y2.81223
X40.45772 Y2.97444
X40.49580 Y3.16580
X40.49580 Y38.61080
Z-0.60000
X40.49580 Y40.11080
Z-1.75000 F30.00000
F60.00000
G01 X40.49580 Y75.55580
X40.45772 Y75.74714
X40.41152 Y75.83357
X40.27357 Y75.97152
X40.18714 Y76.01772
X39.99580 Y76.05580
X20.94580 Y76.05580
X20.75446 Y76.01772
X20.66803 Y75.97152
X20.53008 Y75.83357
X20.48388 Y75.74714
X20.44580 Y75.55580
X20.44580 Y51.63289
G01 Z-2.00000 F30.00000 ( plunge. )
G04 P0 ( dwell for no time -- G64 should not smooth over this point )
F60.00000
G01 X20.44580 Y51.63289
X10.88936 Y42.07644
Z-0.60000
X9.82870 Y41.01578
Z-2.00000 F30.00000
F60.00000
G01 X0.27226 Y31.45934
X0.16388 Y31.29714
X0.12580 Y31.10580
X0.12580 Y17.88580
Z-0.60000
X0.12580 Y16.38580
Z-2.00000 F30.00000
F60.00000
G01 X0.12580 Y3.16580
X0.16388 Y2.97444
X0.27226 Y2.81223
X2.81226 Y0.27226
X2.97446 Y0.16388
X3.16580 Y0.12580
X19.56080 Y0.12580
Z-0.60000
X21.06080 Y0.12580
Z-2.00000 F30.00000
F60.00000
G01 X37.45580 Y0.12580
X37.64716 Y0.16388
X37.80937 Y0.27226
X40.34934 Y2.81223
X40.45772 Y2.97444
X40.49580 Y3.16580
X40.49580 Y38.61080
Z-0.60000
X40.49580 Y40.11080
Z-2.00000 F30.00000
F60.00000
G01 X40.49580 Y75.55580
X40.45772 Y75.74714
X40.41152 Y75.83357
X40.27357 Y75.97152
X40.18714 Y76.01772
X39.99580 Y76.05580
X20.94580 Y76.05580
X20.75446 Y76.01772
X20.66803 Y75.97152
X20.53008 Y75.83357
X20.48388 Y75.74714
X20.44580 Y75.55580
X20.44580 Y51.63289

G04 P0 ( dwell for no time -- G64 should not smooth over this point )
G00 Z10.000 ( retract )

M5 ( Spindle off. )
M9 ( Coolant off. )
M2 ( Program end. )

