( pcb2gcode 1.3.2 )
( Software-independent Gcode )

G94 ( Millimeters per minute feed rate. )
G21 ( Units == Millimeters. )

G90 ( Absolute coordinates. )
S10000 ( RPM spindle speed. )
F60.00000 ( Feedrate. )

F60.00000 ( Feedrate. )
M3 ( Spindle on clockwise. )
G04 P0 ( dwell for no time -- G64 should not smooth over this point )
G00 Z2.00000 ( retract )

G00 X20.44580 Y51.63284 ( rapid move to begin. )
G01 Z-0.25000 F30.00000 ( plunge. )
G04 P0 ( dwell for no time -- G64 should not smooth over this point )
F60.00000
X20.44580 Y51.63284
X10.89195 Y42.07898
X9.83129 Y41.01832
X0.27744 Y31.46447
X0.16497 Y31.29589
X0.12580 Y31.09826
X0.12580 Y17.88575
X0.12580 Y16.38575
X0.12580 Y3.17324
X0.16550 Y2.97439
X0.27749 Y2.80700
X2.80710 Y0.27744
X2.97586 Y0.16492
X3.17329 Y0.12580
X19.56084 Y0.12580
X21.06084 Y0.12580
X37.44838 Y0.12580
X37.64681 Y0.16532
X37.81463 Y0.27749
X40.34414 Y2.80700
X40.45666 Y2.97563
X40.49580 Y3.17324
X40.49580 Y38.61079
X40.49580 Y40.11079
X40.49580 Y75.54833
X40.45630 Y75.74633
X40.41005 Y75.83269
X40.27205 Y75.97048
X40.09184 Y76.04498
X39.98828 Y76.05580
X20.95332 Y76.05580
X20.75439 Y76.01590
X20.66828 Y75.96959
X20.53092 Y75.83169
X20.45662 Y75.65181
X20.44580 Y75.54826
X20.44580 Y51.63284
G01 Z-0.50000 F30.00000 ( plunge. )
G04 P0 ( dwell for no time -- G64 should not smooth over this point )
F60.00000
X20.44580 Y51.63284
X10.89195 Y42.07898
X9.83129 Y41.01832
X0.27744 Y31.46447
X0.16497 Y31.29589
X0.12580 Y31.09826
X0.12580 Y17.88575
X0.12580 Y16.38575
X0.12580 Y3.17324
X0.16550 Y2.97439
X0.27749 Y2.80700
X2.80710 Y0.27744
X2.97586 Y0.16492
X3.17329 Y0.12580
X19.56084 Y0.12580
X21.06084 Y0.12580
X37.44838 Y0.12580
X37.64681 Y0.16532
X37.81463 Y0.27749
X40.34414 Y2.80700
X40.45666 Y2.97563
X40.49580 Y3.17324
X40.49580 Y38.61079
X40.49580 Y40.11079
X40.49580 Y75.54833
X40.45630 Y75.74633
X40.41005 Y75.83269
X40.27205 Y75.97048
X40.09184 Y76.04498
X39.98828 Y76.05580
X20.95332 Y76.05580
X20.75439 Y76.01590
X20.66828 Y75.96959
X20.53092 Y75.83169
X20.45662 Y75.65181
X20.44580 Y75.54826
X20.44580 Y51.63284
G01 Z-0.75000 F30.00000 ( plunge. )
G04 P0 ( dwell for no time -- G64 should not smooth over this point )
F60.00000
X20.44580 Y51.63284
X10.89195 Y42.07898
Z-0.60000
X9.83129 Y41.01832
Z-0.75000 F30.00000
F60.00000X0.27744 Y31.46447
X0.16497 Y31.29589
X0.12580 Y31.09826
X0.12580 Y17.88575
Z-0.60000
X0.12580 Y16.38575
Z-0.75000 F30.00000
F60.00000X0.12580 Y3.17324
X0.16550 Y2.97439
X0.27749 Y2.80700
X2.80710 Y0.27744
X2.97586 Y0.16492
X3.17329 Y0.12580
X19.56084 Y0.12580
Z-0.60000
X21.06084 Y0.12580
Z-0.75000 F30.00000
F60.00000X37.44838 Y0.12580
X37.64681 Y0.16532
X37.81463 Y0.27749
X40.34414 Y2.80700
X40.45666 Y2.97563
X40.49580 Y3.17324
X40.49580 Y38.61079
Z-0.60000
X40.49580 Y40.11079
Z-0.75000 F30.00000
F60.00000X40.49580 Y75.54833
X40.45630 Y75.74633
X40.41005 Y75.83269
X40.27205 Y75.97048
X40.09184 Y76.04498
X39.98828 Y76.05580
X20.95332 Y76.05580
X20.75439 Y76.01590
X20.66828 Y75.96959
X20.53092 Y75.83169
X20.45662 Y75.65181
X20.44580 Y75.54826
X20.44580 Y51.63284
G01 Z-1.00000 F30.00000 ( plunge. )
G04 P0 ( dwell for no time -- G64 should not smooth over this point )
F60.00000
X20.44580 Y51.63284
X10.89195 Y42.07898
Z-0.60000
X9.83129 Y41.01832
Z-1.00000 F30.00000
F60.00000X0.27744 Y31.46447
X0.16497 Y31.29589
X0.12580 Y31.09826
X0.12580 Y17.88575
Z-0.60000
X0.12580 Y16.38575
Z-1.00000 F30.00000
F60.00000X0.12580 Y3.17324
X0.16550 Y2.97439
X0.27749 Y2.80700
X2.80710 Y0.27744
X2.97586 Y0.16492
X3.17329 Y0.12580
X19.56084 Y0.12580
Z-0.60000
X21.06084 Y0.12580
Z-1.00000 F30.00000
F60.00000X37.44838 Y0.12580
X37.64681 Y0.16532
X37.81463 Y0.27749
X40.34414 Y2.80700
X40.45666 Y2.97563
X40.49580 Y3.17324
X40.49580 Y38.61079
Z-0.60000
X40.49580 Y40.11079
Z-1.00000 F30.00000
F60.00000X40.49580 Y75.54833
X40.45630 Y75.74633
X40.41005 Y75.83269
X40.27205 Y75.97048
X40.09184 Y76.04498
X39.98828 Y76.05580
X20.95332 Y76.05580
X20.75439 Y76.01590
X20.66828 Y75.96959
X20.53092 Y75.83169
X20.45662 Y75.65181
X20.44580 Y75.54826
X20.44580 Y51.63284
G01 Z-1.25000 F30.00000 ( plunge. )
G04 P0 ( dwell for no time -- G64 should not smooth over this point )
F60.00000
X20.44580 Y51.63284
X10.89195 Y42.07898
Z-0.60000
X9.83129 Y41.01832
Z-1.25000 F30.00000
F60.00000X0.27744 Y31.46447
X0.16497 Y31.29589
X0.12580 Y31.09826
X0.12580 Y17.88575
Z-0.60000
X0.12580 Y16.38575
Z-1.25000 F30.00000
F60.00000X0.12580 Y3.17324
X0.16550 Y2.97439
X0.27749 Y2.80700
X2.80710 Y0.27744
X2.97586 Y0.16492
X3.17329 Y0.12580
X19.56084 Y0.12580
Z-0.60000
X21.06084 Y0.12580
Z-1.25000 F30.00000
F60.00000X37.44838 Y0.12580
X37.64681 Y0.16532
X37.81463 Y0.27749
X40.34414 Y2.80700
X40.45666 Y2.97563
X40.49580 Y3.17324
X40.49580 Y38.61079
Z-0.60000
X40.49580 Y40.11079
Z-1.25000 F30.00000
F60.00000X40.49580 Y75.54833
X40.45630 Y75.74633
X40.41005 Y75.83269
X40.27205 Y75.97048
X40.09184 Y76.04498
X39.98828 Y76.05580
X20.95332 Y76.05580
X20.75439 Y76.01590
X20.66828 Y75.96959
X20.53092 Y75.83169
X20.45662 Y75.65181
X20.44580 Y75.54826
X20.44580 Y51.63284
G01 Z-1.50000 F30.00000 ( plunge. )
G04 P0 ( dwell for no time -- G64 should not smooth over this point )
F60.00000
X20.44580 Y51.63284
X10.89195 Y42.07898
Z-0.60000
X9.83129 Y41.01832
Z-1.50000 F30.00000
F60.00000X0.27744 Y31.46447
X0.16497 Y31.29589
X0.12580 Y31.09826
X0.12580 Y17.88575
Z-0.60000
X0.12580 Y16.38575
Z-1.50000 F30.00000
F60.00000X0.12580 Y3.17324
X0.16550 Y2.97439
X0.27749 Y2.80700
X2.80710 Y0.27744
X2.97586 Y0.16492
X3.17329 Y0.12580
X19.56084 Y0.12580
Z-0.60000
X21.06084 Y0.12580
Z-1.50000 F30.00000
F60.00000X37.44838 Y0.12580
X37.64681 Y0.16532
X37.81463 Y0.27749
X40.34414 Y2.80700
X40.45666 Y2.97563
X40.49580 Y3.17324
X40.49580 Y38.61079
Z-0.60000
X40.49580 Y40.11079
Z-1.50000 F30.00000
F60.00000X40.49580 Y75.54833
X40.45630 Y75.74633
X40.41005 Y75.83269
X40.27205 Y75.97048
X40.09184 Y76.04498
X39.98828 Y76.05580
X20.95332 Y76.05580
X20.75439 Y76.01590
X20.66828 Y75.96959
X20.53092 Y75.83169
X20.45662 Y75.65181
X20.44580 Y75.54826
X20.44580 Y51.63284
G01 Z-1.75000 F30.00000 ( plunge. )
G04 P0 ( dwell for no time -- G64 should not smooth over this point )
F60.00000
X20.44580 Y51.63284
X10.89195 Y42.07898
Z-0.60000
X9.83129 Y41.01832
Z-1.75000 F30.00000
F60.00000X0.27744 Y31.46447
X0.16497 Y31.29589
X0.12580 Y31.09826
X0.12580 Y17.88575
Z-0.60000
X0.12580 Y16.38575
Z-1.75000 F30.00000
F60.00000X0.12580 Y3.17324
X0.16550 Y2.97439
X0.27749 Y2.80700
X2.80710 Y0.27744
X2.97586 Y0.16492
X3.17329 Y0.12580
X19.56084 Y0.12580
Z-0.60000
X21.06084 Y0.12580
Z-1.75000 F30.00000
F60.00000X37.44838 Y0.12580
X37.64681 Y0.16532
X37.81463 Y0.27749
X40.34414 Y2.80700
X40.45666 Y2.97563
X40.49580 Y3.17324
X40.49580 Y38.61079
Z-0.60000
X40.49580 Y40.11079
Z-1.75000 F30.00000
F60.00000X40.49580 Y75.54833
X40.45630 Y75.74633
X40.41005 Y75.83269
X40.27205 Y75.97048
X40.09184 Y76.04498
X39.98828 Y76.05580
X20.95332 Y76.05580
X20.75439 Y76.01590
X20.66828 Y75.96959
X20.53092 Y75.83169
X20.45662 Y75.65181
X20.44580 Y75.54826
X20.44580 Y51.63284
G01 Z-2.00000 F30.00000 ( plunge. )
G04 P0 ( dwell for no time -- G64 should not smooth over this point )
F60.00000
X20.44580 Y51.63284
X10.89195 Y42.07898
Z-0.60000
X9.83129 Y41.01832
Z-2.00000 F30.00000
F60.00000X0.27744 Y31.46447
X0.16497 Y31.29589
X0.12580 Y31.09826
X0.12580 Y17.88575
Z-0.60000
X0.12580 Y16.38575
Z-2.00000 F30.00000
F60.00000X0.12580 Y3.17324
X0.16550 Y2.97439
X0.27749 Y2.80700
X2.80710 Y0.27744
X2.97586 Y0.16492
X3.17329 Y0.12580
X19.56084 Y0.12580
Z-0.60000
X21.06084 Y0.12580
Z-2.00000 F30.00000
F60.00000X37.44838 Y0.12580
X37.64681 Y0.16532
X37.81463 Y0.27749
X40.34414 Y2.80700
X40.45666 Y2.97563
X40.49580 Y3.17324
X40.49580 Y38.61079
Z-0.60000
X40.49580 Y40.11079
Z-2.00000 F30.00000
F60.00000X40.49580 Y75.54833
X40.45630 Y75.74633
X40.41005 Y75.83269
X40.27205 Y75.97048
X40.09184 Y76.04498
X39.98828 Y76.05580
X20.95332 Y76.05580
X20.75439 Y76.01590
X20.66828 Y75.96959
X20.53092 Y75.83169
X20.45662 Y75.65181
X20.44580 Y75.54826
X20.44580 Y51.63284

G04 P0 ( dwell for no time -- G64 should not smooth over this point )
G00 Z10.000 ( retract )

M5 ( Spindle off. )
M9 ( Coolant off. )
M2 ( Program end. )

